;TIME:2187.93
;Filament used:2.65010m
;Layer height:0.200
; HEADER_BLOCK_START
; generated by Creality_Print V6.0.4.1793 on 2025-03-10 at 10:13:55
; total layer number: 234
; filament_density: 1.24
; filament_diameter: 1.75
; max_z_height: 45.01
; HEADER_BLOCK_END

; MINX = 87.42
; MINY = 100.79
; MINZ = 0.00
; MAXX = 132.79
; MAXY = 119.43
; MAXZ = 44.99

; THUMBNAIL_BLOCK_START

;
; THUMBNAIL_BLOCK_END

; THUMBNAIL_BLOCK_START

;
; THUMBNAIL_BLOCK_END

; external perimeters extrusion width = 0.42mm
; perimeters extrusion width = 0.45mm
; infill extrusion width = 0.45mm
; solid infill extrusion width = 0.42mm
; top infill extrusion width = 0.42mm
; support material extrusion width = 0.40mm
; first layer extrusion width = 0.50mm

; EXECUTABLE_BLOCK_START
M73 P0 R36
M201 X5000 Y5000 Z500 E5000
M203 X500 Y500 Z30 E100
M204 P5000 R2500 T5000 ; sets acceleration (P, T) and retract acceleration (R), mm/sec^2
M205 X10.00 Y10.00 Z0.40 E5.00 ; sets the jerk limits, mm/sec
;TYPE:Custom
M220 S100 ;Reset Feedrate 
M221 S100 ;Reset Flowrate 
 
M140 S60 ;Set final bed temp 
G28 ;Home 
 
G92 E0 ;Reset Extruder 
G1 Z2.0 F3000 ;Move Z Axis up 
M104 S205 ;Set final nozzle temp 
G1 X-2.1 Y20 Z0.28 F5000.0 ;Move to start position 
M190 S60 ;Wait for bed temp to stabilize 
M109 S205 ;Wait for nozzle temp to stabilize 
G1 X-2.1 Y145.0 Z0.28 F1500.0 E15 ;Draw the first line 
G1 X-2.4 Y145.0 Z0.28 F5000.0 ;Move to side a little 
G1 X-2.4 Y20 Z0.28 F1500.0 E30 ;Draw the second line 
G92 E0  ;Reset Extruder 
G1 E-1.0000 F1800 ;Retract a bit 
G1 Z2.0 F3000 ;Move Z Axis up 
G1 E0.0000 F1800
G90
G21
M83 ; use relative distances for extrusion
" "
G1 E-1.2 F2400
M106 S0
;LAYER_CHANGE
;Z:0.2
;HEIGHT:0.2
;BEFORE_LAYER_CHANGE
;0.2
G92 E0

;_SET_FAN_SPEED_CHANGING_LAYER
M204 P500
M205 X10 Y10
M204 T500
G1 Z.4 F9000
G1 X84.769 Y90.76
G1 Z.2
G1 E1.2 F1800
;TYPE:Skirt
;WIDTH:0.5
G1 F3000
G1 X87.017 Y89.017 E.10269
G1 X88.421 Y88.126 E.06004
G1 X90.955 Y86.835 E.1027
G1 X92.501 Y86.223 E.06004
G1 X94.762 Y85.54 E.08528
G1 X112.11 Y81.254 E.64518
G1 X115.075 Y80.774 E.10847
G1 X116.735 Y80.67 E.06004
G1 X118.238 Y80.675 E.05426
G1 X121.228 Y80.968 E.10847
G1 X124.157 Y81.633 E.10847
G1 X126.98 Y82.66 E.10846
G1 X129.652 Y84.033 E.10847
G1 X132.131 Y85.729 E.10846
G1 X134.378 Y87.724 E.10847
G1 X136.736 Y90.407 E.12899
G1 X137.624 Y91.62 E.05426
G1 X138.515 Y93.024 E.06004
G1 X139.806 Y95.558 E.1027
G1 X140.833 Y98.381 E.10846
G1 X142.996 Y106.369 E.29879
G1 X143.476 Y109.334 E.10847
G1 X143.581 Y112.337 E.10846
G1 X143.308 Y115.328 E.10847
G1 X142.662 Y118.262 E.10847
G1 X142.203 Y119.693 E.05426
G1 X141.591 Y121.239 E.06004
G1 X140.299 Y123.773 E.1027
G1 X139.408 Y125.177 E.06004
G1 X137.665 Y127.425 E.10269
G1 X135.548 Y129.556 E.10847
G1 X134.267 Y130.616 E.06005
G1 X131.777 Y132.296 E.10846
G1 X129.242 Y133.588 E.1027
G1 X127.696 Y134.2 E.06004
G1 X125.558 Y134.852 E.08072
G1 X108.184 Y139.259 E.64717
G1 X106.116 Y139.687 E.07625
G1 X104.626 Y139.88 E.05426
G1 X101.623 Y139.985 E.10846
G1 X98.632 Y139.712 E.10847
G1 X95.698 Y139.067 E.10847
G1 X94.267 Y138.607 E.05426
G1 X92.721 Y137.995 E.06004
G1 X90.187 Y136.704 E.1027
G1 X88.783 Y135.813 E.06004
G1 X86.535 Y134.069 E.10269
G1 X85.323 Y132.931 E.06004
G1 X83.442 Y130.797 E.10269
G1 X81.745 Y128.319 E.10846
G1 X80.944 Y126.861 E.06005
G1 X79.815 Y124.251 E.10269
G1 X79.113 Y121.982 E.08576
G1 X77.166 Y113.897 E.30026
G1 X76.889 Y112.42 E.05426
G1 X76.622 Y109.589 E.10269
G1 X76.706 Y106.586 E.10846
G1 X76.914 Y104.936 E.06005
G1 X77.58 Y102.006 E.10847
G1 X78.607 Y99.183 E.10846
G1 X79.251 Y97.825 E.05426
G1 X80.699 Y95.377 E.10269
G1 X81.676 Y94.032 E.06004
G1 X83.557 Y91.899 E.10269
G1 X84.74 Y90.788 E.0586
G1 X85.053 Y91.121 F9000
G1 F3000
G1 X85.072 Y91.103 E.00093
G1 X87.274 Y89.395 E.10062
G1 X88.653 Y88.52 E.059
G1 X91.136 Y87.254 E.10062
G1 X92.656 Y86.653 E.059
G1 X94.872 Y85.984 E.08358
G1 X112.21 Y81.7 E.64481
G1 X115.118 Y81.229 E.1064
G1 X116.749 Y81.127 E.059
G1 X118.223 Y81.132 E.05322
G1 X121.156 Y81.419 E.10639
G1 X124.03 Y82.072 E.10639
G1 X126.799 Y83.079 E.10639
G1 X129.42 Y84.426 E.1064
G1 X131.851 Y86.091 E.10639
G1 X134.055 Y88.047 E.1064
G1 X136.375 Y90.687 E.12692
G1 X137.336 Y92.009 E.059
G1 X138.121 Y93.257 E.05322
G1 X139.387 Y95.74 E.10062
G1 X140.394 Y98.509 E.10639
G1 X142.55 Y106.469 E.29776
G1 X143.021 Y109.377 E.1064
G1 X143.124 Y112.322 E.10639
G1 X142.857 Y115.257 E.10639
G1 X142.224 Y118.135 E.10639
G1 X141.773 Y119.538 E.05322
G1 X141.171 Y121.058 E.059
G1 X139.906 Y123.541 E.10062
G1 X139.03 Y124.921 E.059
G1 X137.322 Y127.122 E.10062
G1 X135.246 Y129.213 E.10639
G1 X133.987 Y130.255 E.05901
G1 X131.544 Y131.903 E.10639
G1 X129.061 Y133.168 E.10062
G1 X127.541 Y133.77 E.059
G1 X125.446 Y134.409 E.07911
G1 X108.072 Y138.816 E.64717
G1 X106.045 Y139.236 E.07475
G1 X104.583 Y139.425 E.05323
G1 X101.638 Y139.528 E.10639
G1 X98.703 Y139.261 E.10639
G1 X95.825 Y138.628 E.10639
G1 X94.422 Y138.177 E.05322
G1 X92.902 Y137.575 E.059
G1 X90.419 Y136.31 E.10062
G1 X89.04 Y135.434 E.059
G1 X86.838 Y133.726 E.10062
G1 X85.646 Y132.608 E.05901
G1 X83.803 Y130.517 E.10062
G1 X82.139 Y128.086 E.10639
G1 X81.351 Y126.654 E.05901
G1 X80.245 Y124.096 E.10062
G1 X79.556 Y121.869 E.08417
G1 X77.612 Y113.797 E.29977
G1 X77.341 Y112.349 E.05322
G1 X77.078 Y109.574 E.10062
G1 X77.161 Y106.629 E.10639
G1 X77.366 Y105.007 E.05901
G1 X78.018 Y102.134 E.10639
G1 X79.026 Y99.365 E.10639
G1 X79.658 Y98.033 E.05323
G1 X81.077 Y95.634 E.10062
G1 X82.037 Y94.312 E.059
G1 X83.88 Y92.222 E.10062
G1 X85.024 Y91.148 E.05664
G1 X85.336 Y91.481 F9000
G1 F3000
G1 X85.374 Y91.446 E.00185
G1 X87.53 Y89.773 E.09854
G1 X88.886 Y88.913 E.05797
G1 X91.318 Y87.674 E.09855
G1 X92.811 Y87.083 E.05797
G1 X94.982 Y86.427 E.08188
G1 X112.309 Y82.146 E.64444
G1 X115.161 Y81.684 E.10432
G1 X116.764 Y81.584 E.05797
G1 X118.209 Y81.589 E.05219
G1 X121.085 Y81.87 E.10432
G1 X123.902 Y82.511 E.10432
G1 X126.617 Y83.499 E.10432
G1 X129.187 Y84.819 E.10433
G1 X131.571 Y86.452 E.10431
G1 X133.732 Y88.37 E.10432
G1 X136.014 Y90.967 E.12485
G1 X136.958 Y92.266 E.05797
G1 X137.728 Y93.489 E.05218
G1 X138.967 Y95.921 E.09855
G1 X139.955 Y98.636 E.10432
G1 X142.104 Y106.568 E.29672
G1 X142.566 Y109.42 E.10432
G1 X142.667 Y112.308 E.10432
G1 X142.405 Y115.185 E.10432
G1 X141.785 Y118.007 E.10432
G1 X141.343 Y119.383 E.05219
G1 X140.752 Y120.876 E.05797
G1 X139.513 Y123.308 E.09855
G1 X138.652 Y124.664 E.05797
G1 X136.98 Y126.82 E.09854
G1 X134.944 Y128.87 E.10432
G1 X133.706 Y129.894 E.05797
M73 P1 R36
M73 P1 R36
G1 X131.311 Y131.509 E.10432
G1 X128.879 Y132.749 E.09855
G1 X127.387 Y133.34 E.05797
G1 X125.333 Y133.966 E.07751
G1 X107.959 Y138.373 E.64717
G1 X105.973 Y138.784 E.07324
G1 X104.54 Y138.97 E.05219
G1 X101.652 Y139.071 E.10432
G1 X98.775 Y138.809 E.10432
G1 X95.953 Y138.189 E.10432
G1 X94.577 Y137.747 E.05219
G1 X93.084 Y137.156 E.05797
G1 X90.652 Y135.917 E.09855
G1 X89.296 Y135.056 E.05797
G1 X87.14 Y133.384 E.09854
G1 X85.969 Y132.285 E.05797
G1 X84.164 Y130.237 E.09855
G1 X82.532 Y127.853 E.10431
G1 X81.759 Y126.446 E.05797
G1 X80.675 Y123.941 E.09855
G1 X79.999 Y121.756 E.08258
G1 X78.058 Y113.698 E.29929
G1 X77.792 Y112.277 E.05218
G1 X77.535 Y109.56 E.09855
G1 X77.616 Y106.672 E.10432
G1 X77.817 Y105.079 E.05797
G1 X78.457 Y102.261 E.10432
G1 X79.446 Y99.546 E.10432
G1 X80.066 Y98.241 E.05219
G1 X81.455 Y95.891 E.09854
G1 X82.398 Y94.592 E.05797
G1 X84.203 Y92.545 E.09855
G1 X85.307 Y91.508 E.05467
; printing object Object_1 id:4562764976167616512 copy 0
G1 E-1.2 F2400
;WIPE_START
G1 F3000
G1 X85.374 Y91.446
G1 X86.882 Y90.276
;WIPE_END
G1 X91.421 Y96.413 Z.6 F9000
G1 X99.3 Y107.065 Z.6
G1 Z.2
G1 E1.2 F1800
;TYPE:Support
G3 X100.66 Y106.667 I1.234 J1.693 E.05222
G1 X100.936 Y106.693 E.01
G2 X101.582 Y110.268 I3.38 J1.235 E.13749
G2 X102.373 Y113.339 I3.176 J.819 E.11949
G2 X102.994 Y118.081 I2.615 J2.069 E.19257
G3 X100.987 Y114.164 I-.595 J-2.168 E.22162
G2 X100.609 Y113.041 I-.916 J-.317 E.04604
G3 X100.572 Y111.368 I1.956 J-.88 E.06207
G2 X99.637 Y110.652 I-1.146 J.529 E.04424
G3 X99.268 Y107.089 I.897 J-1.894 E.15512
G1 X99.483 Y107.527 F9000
G1 F1800
G1 X100.336 Y107.109 E.0343
G1 X100.285 Y107.405 E.01082
G2 X101.082 Y110.411 I4.335 J.459 E.1148
G1 X101.03 Y110.738 E.01196
G1 X100.773 Y110.783 E.00943
G2 X99.832 Y110.238 I-1.21 J1.006 E.0401
G3 X99.401 Y107.557 I.714 J-1.49 E.1151
G1 X99.445 Y107.541 E.00168
G1 X99.529 Y108.123 F9000
G1 F1800
G1 X99.799 Y108.175 E.00994
G2 X100.156 Y109.611 I4.068 J-.249 E.05372
G1 X99.932 Y109.786 E.01027
G3 X99.51 Y108.155 I.623 J-1.031 E.06735
G1 X98.275 Y107.621 F9000
G1 F1800
G1 X98.39 Y107.399 E.00901
G3 X101.211 Y106.177 I2.269 J1.37 E.11844
G2 X101.863 Y106.077 I.142 J-1.241 E.02412
G1 X101.842 Y106.1 E.00113
G1 X101.26 Y107.196 E.04482
G1 X101.209 Y108.426 E.04447
G1 X101.513 Y109.262 E.03211
G1 X102.141 Y110.029 E.03577
G1 X101.934 Y111.087 E.03894
G1 X102.13 Y112.121 E.038
G1 X103.001 Y113.319 E.05348
G1 X102.246 Y114.529 E.0515
G1 X102.159 Y115.944 E.05116
G1 X102.381 Y116.622 E.02578
G1 X102.877 Y117.354 E.03192
G1 X104.142 Y118.135 E.05365
G3 X99.736 Y115.39 I-1.59 J-2.356 E.23616
G3 X100.552 Y113.791 I4.126 J1.097 E.06533
G3 X100.081 Y111.422 I1.924 J-1.615 E.09098
G3 X98.465 Y110.257 I3.927 J-7.15 E.07211
G3 X98.086 Y108.13 I2.194 J-1.487 E.08035
G1 X98.261 Y107.658 E.01816
G1 E-1.2 F2400
;WIPE_START
G1 F1800
G1 X98.39 Y107.399
G1 X98.902 Y106.791
G1 X99.59 Y106.385
G1 X99.706 Y106.37
;WIPE_END
G1 X103.111 Y106.365 Z.6 F9000
G1 Z.2
G1 E1.2 F1800
;TYPE:Support interface
;WIDTH:0.4
G2 X103.251 Y109.549 I1.371 J1.535 E.10284
G1 X103.251 Y106.255 E.09293
M73 P1 R35
M73 P1 R35
G3 X104.108 Y105.904 I1.242 J1.812 E.02632
G1 X104.108 Y113.035 E.20113
G1 X104.608 Y113.462 E.01854
G2 X104.108 Y114.409 I7.23 J4.419 E.03021
G1 X104.108 Y116.001 E.04491
G2 X104.965 Y116.865 I1.703 J-.831 E.03496
G1 X104.965 Y111.177 E.16046
G1 X104.394 Y108.933 E.0653
G1 E-1.2 F2400
;WIPE_START
G1 F1800
G1 X104.888 Y110.871
;WIPE_END
G1 X105.456 Y109.603 Z.6 F9000
G1 Z.2
G1 E1.2 F1800
;TYPE:Support
;WIDTH:0.5
G1 X105.543 Y109.689 E.0044
G3 X105.792 Y110.006 I-1.895 J1.749 E.01458
G1 X106.181 Y111.532 E.05685
G3 X106.079 Y112.047 I-3.249 J-.375 E.01898
G1 X105.466 Y109.642 E.08963
G1 X105.295 Y108.968 F9000
G1 F1800
G3 X105.22 Y107.847 I.698 J-.61 E.04361
G3 X105.301 Y107.768 I.489 J.422 E.00409
G1 X105.283 Y107.854 E.00317
G3 X105.303 Y108.929 I-2.549 J.584 E.03911
G1 E-1.2 F2400
;WIPE_START
G1 F1800
G1 X105.083 Y108.113
G1 X105.22 Y107.847
G1 X105.301 Y107.768
G1 X105.283 Y107.854
G1 X105.408 Y108.496
;WIPE_END
G1 X104.394 Y107.511 Z.6 F9000
G1 Z.2
G1 E1.2 F1800
;TYPE:Support interface
;WIDTH:0.4
G1 X104.4 Y107.501 E.00034
G2 X104.965 Y105.755 I-.796 J-1.222 E.056
G3 X105.823 Y105.524 I.931 J1.75 E.02525
G1 X105.823 Y106.481 E.027
G3 X106.68 Y106.143 I3.812 J8.411 E.026
G1 X106.68 Y105.709 E.01223
G3 X107.104 Y105.993 I-.824 J1.693 E.01445
G1 X106.848 Y106.083 E.00767
G1 X106.832 Y106.038 F9000
;WIDTH:0.5
G1 F1800
G1 X106.068 Y106.314 E.02931
G2 X104.198 Y108.365 I.298 J2.15 E.10873
G1 X105.984 Y115.377 E.26126
G2 X107.733 Y115.619 I1.016 J-.9 E.06944
G1 X109.106 Y115.269 E.05115
G3 X106.506 Y116.926 I-2.856 J-1.614 E.11589
G3 X104.526 Y113.722 I-.636 J-1.82 E.18846
G2 X103.817 Y112.71 I-1.636 J.392 E.04569
G3 X103.699 Y110.227 I1.423 J-1.312 E.09746
G2 X102.9 Y109.154 I-2.085 J.717 E.04909
G3 X104.804 Y105.893 I1.59 J-1.258 E.17537
G3 X105.981 Y105.576 I1.08 J1.666 E.04473
G3 X107.056 Y105.957 I-.199 J2.266 E.04162
G1 X106.869 Y106.025 E.00717
G1 X107.021 Y106.471 F9000
G1 F1800
G1 X106.257 Y106.73 E.02911
G1 X105.155 Y107.297 E.04476
G1 X104.728 Y107.747 E.02239
G1 X104.641 Y108.252 E.0185
G2 X106.459 Y115.249 I365.879 J-91.318 E.26102
G2 X106.769 Y115.393 I.329 J-.303 E.01269
G1 X109.57 Y114.679 E.10435
G3 X106.937 Y117.288 I-2.828 J-.222 E.14582
G3 X104.047 Y113.65 I-1.039 J-2.141 E.23219
G3 X102.935 Y110.875 I2.106 J-2.455 E.11221
G2 X103.186 Y110.029 I-2.332 J-1.152 E.03201
G3 X104.647 Y105.46 I1.28 J-2.109 E.2378
G3 X106.01 Y105.119 I1.233 J2.037 E.05147
G3 X107.806 Y106.204 I-.162 J2.297 E.07866
G1 X107.059 Y106.458 E.02849
G1 E-1.2 F2400
;WIPE_START
G1 F1800
G1 X106.257 Y106.73
G1 X105.231 Y107.258
;WIPE_END
G1 X110.789 Y105.07 Z.6 F9000
G1 Z.2
G1 E1.2 F1800
;WIDTH:0.4
G1 X110.626 Y105.096 E.00464
G3 X110.965 Y104.514 I1.758 J.634 E.01909
G1 X110.965 Y105.041 E.01487
G3 X111.822 Y104.923 I2.061 J11.705 E.02441
G1 X111.822 Y103.949 E.02745
G3 X112.679 Y103.806 I1.548 J6.631 E.02453
G1 X112.748 Y104.891 E.03066
G3 X113.536 Y105.04 I.023 J2.04 E.02277
G1 X113.536 Y103.456 E.04468
G3 X114.219 Y103.452 I.354 J2.26 E.01932
G1 X114.201 Y103.527 F9000
;WIDTH:0.5
G1 F1800
G1 X114.688 Y103.654 E.01817
G3 X115.869 Y105.355 I-.839 J1.844 E.07851
G3 X116.523 Y107.405 I-1.65 J1.656 E.08071
G3 X116.961 Y109.562 I-1.894 J1.507 E.08251
G3 X117.391 Y111.2 I-2.806 J1.612 E.06188
G3 X115.607 Y114.572 I-1.553 J1.336 E.17707
G3 X113.304 Y114.201 I-.865 J-1.962 E.08902
G2 X115.835 Y113.448 I-1.413 J-9.384 E.09564
G2 X116.099 Y112.804 I-.648 J-.642 E.02579
G2 X114.851 Y108.277 I-20.037 J3.089 E.16992
G2 X113.908 Y107.973 I-.84 J.988 E.03673
G2 X114.504 Y106.484 I-.351 J-1.005 E.06559
G2 X112.12 Y104.852 I-1.814 J.093 E.1206
G1 X110.654 Y105.041 E.05339
G3 X112.682 Y103.862 I1.911 J.954 E.08969
G3 X113.992 Y103.477 I1.237 J1.788 E.05013
G1 X114.162 Y103.518 E.00631
G1 X114.255 Y103.07 F9000
G1 F1800
G1 X114.742 Y103.175 E.01796
G3 X116.249 Y105.094 I-.852 J2.221 E.09253
G3 X116.945 Y107.211 I-1.732 J1.743 E.08351
G3 X117.401 Y109.418 I-2.005 J1.564 E.08427
G3 X117.795 Y110.974 I-2.507 J1.462 E.05874
G3 X115.72 Y115.015 I-1.878 J1.589 E.20896
G3 X112.616 Y113.904 I-.975 J-2.17 E.13154
G1 X114.565 Y113.407 E.07262
G2 X115.489 Y113.136 I.134 J-1.255 E.03568
G2 X115.634 Y112.827 I-.302 J-.33 E.01264
G1 X114.594 Y108.697 E.15377
G2 X114.229 Y108.481 I-.504 J.434 E.01559
G1 X112.336 Y108.963 E.07052
G1 X112.054 Y107.855 E.04127
G1 X113.947 Y107.373 E.07051
G2 X114.063 Y106.605 I-.322 J-.442 E.03118
G1 X114.062 Y106.6 E.00019
G2 X112.146 Y105.308 I-1.42 J.039 E.09743
G1 X110.111 Y105.617 E.07433
G3 X112.502 Y103.439 I2.313 J.137 E.12926
G3 X114.016 Y103.02 I1.418 J2.184 E.05761
G1 X114.216 Y103.062 E.00739
G1 E-1.2 F2400
;WIPE_START
G1 F1800
G1 X114.742 Y103.175
G1 X115.491 Y103.631
G1 X115.854 Y104.089
;WIPE_END
G1 X116.05 Y103.635 Z.6 F9000
G1 Z.2
G1 E1.2 F1800
;TYPE:Support
;WIDTH:0.4
G1 X116.133 Y103.728 E.00352
G2 X117.603 Y105.218 I8.885 J-7.294 E.05911
G3 X118.113 Y106.996 I-8.518 J3.406 E.05229
G3 X118.271 Y109.7 I-2.129 J1.481 E.08038
G2 X119.156 Y111.165 I2.982 J-.802 E.04893
G3 X119.226 Y113.381 I-2.151 J1.177 E.06488
G3 X117.864 Y114.63 I-2.214 J-1.047 E.05344
G1 X118.483 Y113.887 E.02727
G1 X118.813 Y112.913 E.02901
G1 X118.754 Y111.892 E.02883
G1 X118.312 Y110.97 E.02884
G3 X117.748 Y107.844 I9.804 J-3.381 E.08996
G1 X117.452 Y107.227 E.01929
G2 X116.501 Y104.468 I-8.436 J1.365 E.08273
G1 X116.069 Y103.67 E.0256
G1 E-1.2 F2400
;WIPE_START
G1 F1800
G1 X116.133 Y103.728
G1 X116.481 Y104.25
G1 X117.098 Y104.645
G1 X117.464 Y105.06
;WIPE_END
G1 X118.679 Y111.602 Z.6 F9000
G1 Z.2
G1 E1.2 F1800
G1 X118.679 Y110.578 E.02888
G1 E-1.2 F2400
;WIPE_START
G1 F1800
G1 X118.679 Y111.602
;WIPE_END
G1 X117.822 Y108.039 Z.6 F9000
G1 Z.2
G1 E1.2 F1800
G2 X116.965 Y104.767 I-3.7 J-.779 E.09891
G1 X116.965 Y105.311 E.01533
G1 X116.978 Y105.304 F9000
;WIDTH:0.5
G1 F1800
G1 X116.548 Y104.452 E.03445
G1 X116.506 Y104.335 E.00451
G1 X116.693 Y104.43 E.0076
G3 X117.949 Y106.867 I-1.247 J2.184 E.10467
G3 X118.22 Y109.706 I-1.953 J1.619 E.10935
G2 X119.112 Y111.189 I3.011 J-.8 E.06334
G3 X119.181 Y113.36 I-2.106 J1.152 E.08135
G3 X118.112 Y114.466 I-2.17 J-1.027 E.05653
G1 X118.678 Y113.601 E.03733
G1 X118.881 Y112.745 E.03178
G1 X118.755 Y111.719 E.03732
G1 X118.351 Y110.94 E.03167
G3 X117.795 Y107.828 I9.776 J-3.352 E.1146
G1 X117.494 Y107.2 E.02516
G2 X117.19 Y105.924 I-8.134 J1.263 E.04739
G1 X116.991 Y105.342 E.02222
G1 E-1.2 F2400
;WIPE_START
G1 F1800
G1 X116.548 Y104.452
