;TIME:1268.65
;Filament used:2.45341m
;Layer height:0.200
; HEADER_BLOCK_START
; generated by Creality_Print V6.0.4.1793 on 2025-03-09 at 23:12:08
; total layer number: 40
; filament_density: 1.24
; filament_diameter: 1.75
; max_z_height: 8.00
; HEADER_BLOCK_END

; MINX = 87.50
; MINY = 87.51
; MINZ = 0.00
; MAXX = 132.50
; MAXY = 132.49
; MAXZ = 8.00

; THUMBNAIL_BLOCK_START

;
; THUMBNAIL_BLOCK_END

; THUMBNAIL_BLOCK_START

;
; THUMBNAIL_BLOCK_END

; external perimeters extrusion width = 0.42mm
; perimeters extrusion width = 0.45mm
; infill extrusion width = 0.45mm
; solid infill extrusion width = 0.42mm
; top infill extrusion width = 0.42mm
; first layer extrusion width = 0.50mm

; EXECUTABLE_BLOCK_START
M73 P0 R21
M201 X5000 Y5000 Z500 E5000
M203 X500 Y500 Z30 E100
M204 P5000 R2500 T5000 ; sets acceleration (P, T) and retract acceleration (R), mm/sec^2
M205 X10.00 Y10.00 Z0.40 E5.00 ; sets the jerk limits, mm/sec
;TYPE:Custom
M220 S100 ;Reset Feedrate 
M221 S100 ;Reset Flowrate 
 
M140 S60 ;Set final bed temp 
G28 ;Home 
 
G92 E0 ;Reset Extruder 
G1 Z2.0 F3000 ;Move Z Axis up 
M104 S205 ;Set final nozzle temp 
G1 X-2.1 Y20 Z0.28 F5000.0 ;Move to start position 
M190 S60 ;Wait for bed temp to stabilize 
M109 S205 ;Wait for nozzle temp to stabilize 
G1 X-2.1 Y145.0 Z0.28 F1500.0 E15 ;Draw the first line 
G1 X-2.4 Y145.0 Z0.28 F5000.0 ;Move to side a little 
G1 X-2.4 Y20 Z0.28 F1500.0 E30 ;Draw the second line 
G92 E0  ;Reset Extruder 
G1 E-1.0000 F1800 ;Retract a bit 
M73 P0 R20
M73 P0 R20
G1 Z2.0 F3000 ;Move Z Axis up 
G1 E0.0000 F1800
G90
G21
M83 ; use relative distances for extrusion
" "
G1 E-1.2 F2400
M106 S0
;LAYER_CHANGE
;Z:0.2
;HEIGHT:0.2
;BEFORE_LAYER_CHANGE
;0.2
G92 E0

;_SET_FAN_SPEED_CHANGING_LAYER
M204 P500
M205 X10 Y10
M204 T500
G1 Z.4 F9000
G1 X78.992 Y78.97
G1 Z.2
G1 E1.2 F1800
;TYPE:Skirt
;WIDTH:0.5
G1 F3000
G1 X80.576 Y77.464 E.07892
G1 X82.235 Y76.037 E.079
G1 X83.962 Y74.696 E.07897
G1 X85.753 Y73.442 E.07894
G1 X87.606 Y72.279 E.079
G1 X89.515 Y71.209 E.07902
G1 X91.473 Y70.237 E.0789
G1 X93.478 Y69.362 E.079
G1 X95.525 Y68.589 E.07899
G1 X97.608 Y67.919 E.07902
G1 X99.719 Y67.354 E.07888
G1 X101.875 Y66.891 E.07963
G1 X104 Y66.545 E.07773
G1 X106.184 Y66.299 E.07937
G1 X108.351 Y66.163 E.07838
G1 X111.649 Y66.163 E.11911
G1 X113.8 Y66.297 E.0778
G1 X115.968 Y66.54 E.07878
G1 X118.125 Y66.891 E.07891
G1 X120.281 Y67.354 E.07963
G1 X122.392 Y67.919 E.07888
M73 P1 R20
M73 P1 R20
G1 X124.475 Y68.589 E.07902
G1 X126.522 Y69.362 E.07899
G1 X128.527 Y70.237 E.079
G1 X130.485 Y71.209 E.0789
G1 X132.394 Y72.279 E.07902
G1 X134.247 Y73.442 E.079
G1 X136.038 Y74.696 E.07894
G1 X137.765 Y76.037 E.07897
G1 X139.424 Y77.464 E.079
G1 X141.009 Y78.97 E.07893
G1 X142.522 Y80.561 E.07929
G1 X143.956 Y82.226 E.07933
G1 X145.295 Y83.949 E.07879
G1 X146.547 Y85.737 E.07882
G1 X147.707 Y87.583 E.07871
G1 X148.776 Y89.486 E.07881
G1 X149.748 Y91.44 E.07878
G1 X150.621 Y93.438 E.07875
G1 X151.396 Y95.482 E.07892
G1 X152.377 Y98.661 E.1201
G1 X152.889 Y100.785 E.0789
G1 X153.295 Y102.936 E.07902
G1 X153.594 Y105.102 E.07897
G1 X153.784 Y107.282 E.079
G1 X153.865 Y109.467 E.07893
G1 X153.837 Y111.655 E.07902
G1 X153.7 Y113.837 E.07893
G1 X153.454 Y116.011 E.079
G1 X153.101 Y118.169 E.07896
G1 X152.639 Y120.309 E.07903
G1 X152.073 Y122.419 E.0789
G1 X151.396 Y124.518 E.07962
G1 X150.621 Y126.562 E.07892
G1 X149.761 Y128.533 E.07766
G1 X148.267 Y131.448 E.11827
G1 X147.144 Y133.338 E.07938
G1 X145.931 Y135.167 E.07924
G1 X144.653 Y136.899 E.07771
G1 X143.271 Y138.59 E.07885
G1 X141.792 Y140.227 E.07966
G1 X140.247 Y141.773 E.07893
G1 X138.625 Y143.242 E.079
G1 X136.932 Y144.627 E.07897
G1 X135.174 Y145.926 E.07894
G1 X133.351 Y147.136 E.079
G1 X131.47 Y148.255 E.07902
G1 X129.538 Y149.277 E.0789
G1 X127.556 Y150.202 E.079
G1 X125.53 Y151.027 E.07899
G1 X123.464 Y151.751 E.07903
G1 X121.369 Y152.369 E.07888
G1 X119.235 Y152.885 E.07926
G1 X117.075 Y153.294 E.07939
G1 X114.913 Y153.592 E.07877
G1 X112.739 Y153.782 E.07879
G1 X110.559 Y153.864 E.07876
G1 X108.378 Y153.838 E.07876
G1 X106.2 Y153.703 E.07879
G1 X104.032 Y153.46 E.07877
G1 X101.875 Y153.109 E.07891
G1 X99.719 Y152.646 E.07963
G1 X97.608 Y152.081 E.07888
G1 X95.525 Y151.411 E.07902
G1 X92.444 Y150.202 E.11948
G1 X90.462 Y149.277 E.079
G1 X88.53 Y148.255 E.0789
G1 X86.649 Y147.136 E.07902
G1 X84.826 Y145.926 E.079
G1 X83.068 Y144.627 E.07894
G1 X81.375 Y143.242 E.07897
G1 X79.753 Y141.773 E.079
G1 X78.208 Y140.227 E.07893
G1 X76.729 Y138.59 E.07966
G1 X75.347 Y136.899 E.07885
G1 X74.052 Y135.142 E.07879
G1 X72.846 Y133.323 E.07882
G1 X71.733 Y131.448 E.07871
G1 X70.714 Y129.518 E.07881
G1 X69.792 Y127.541 E.07878
G1 X68.97 Y125.52 E.07875
G1 X68.243 Y123.445 E.0794
G1 X67.623 Y121.339 E.07924
G1 X67.111 Y119.215 E.0789
G1 X66.705 Y117.064 E.07902
G1 X66.406 Y114.898 E.07897
G1 X66.216 Y112.718 E.079
G1 X66.135 Y110.533 E.07893
G1 X66.163 Y108.345 E.07902
G1 X66.3 Y106.163 E.07893
G1 X66.546 Y103.989 E.079
G1 X66.899 Y101.831 E.07897
G1 X67.361 Y99.691 E.07902
G1 X67.927 Y97.581 E.0789
G1 X68.604 Y95.482 E.07962
G1 X69.379 Y93.438 E.07892
G1 X70.252 Y91.44 E.07875
G1 X71.224 Y89.486 E.07878
G1 X72.293 Y87.583 E.07881
G1 X73.453 Y85.737 E.07871
G1 X74.705 Y83.949 E.07882
G1 X76.044 Y82.226 E.07879
G1 X77.478 Y80.561 E.07933
G1 X78.964 Y78.999 E.07784
G1 X79.295 Y79.314 F9000
G1 F3000
G1 X79.319 Y79.289 E.00124
G1 X80.887 Y77.799 E.0781
G1 X82.528 Y76.387 E.07818
G1 X84.238 Y75.06 E.07814
G1 X86.011 Y73.82 E.07812
G1 X87.845 Y72.669 E.07818
G1 X89.734 Y71.61 E.07819
G1 X91.671 Y70.648 E.07808
G1 X93.656 Y69.784 E.07817
G1 X95.681 Y69.019 E.07817
G1 X97.743 Y68.356 E.0782
G1 X99.831 Y67.797 E.07806
G1 X101.965 Y67.339 E.0788
G1 X104.068 Y66.996 E.07692
G1 X106.23 Y66.753 E.07855
G1 X108.373 Y66.62 E.07754
G1 X111.627 Y66.62 E.11746
G1 X113.754 Y66.752 E.07698
G1 X115.9 Y66.992 E.07795
G1 X118.035 Y67.339 E.07808
G1 X120.169 Y67.797 E.0788
G1 X122.257 Y68.356 E.07806
G1 X124.319 Y69.019 E.0782
G1 X126.344 Y69.784 E.07817
G1 X128.329 Y70.648 E.07817
G1 X130.266 Y71.61 E.07808
G1 X132.155 Y72.669 E.07819
G1 X133.989 Y73.82 E.07818
G1 X135.762 Y75.06 E.07812
G1 X137.472 Y76.387 E.07814
G1 X139.113 Y77.799 E.07817
G1 X140.681 Y79.289 E.0781
G1 X142.18 Y80.863 E.07846
G1 X143.598 Y82.511 E.07851
G1 X144.924 Y84.216 E.07797
G1 X146.163 Y85.985 E.078
G1 X147.312 Y87.811 E.07789
G1 X148.369 Y89.695 E.07799
G1 X149.331 Y91.628 E.07796
G1 X150.196 Y93.605 E.07793
G1 X150.963 Y95.628 E.0781
G1 X151.937 Y98.784 E.11928
G1 X152.443 Y100.887 E.07808
G1 X152.845 Y103.015 E.0782
G1 X153.14 Y105.159 E.07814
G1 X153.328 Y107.316 E.07818
G1 X153.408 Y109.478 E.0781
G1 X153.38 Y111.644 E.0782
G1 X153.244 Y113.802 E.0781
G1 X153.001 Y115.954 E.07818
G1 X152.65 Y118.09 E.07814
G1 X152.194 Y120.207 E.0782
G1 X151.633 Y122.296 E.07808
G1 X150.963 Y124.372 E.07879
G1 X150.196 Y126.395 E.0781
G1 X149.344 Y128.345 E.07685
G1 X147.871 Y131.22 E.11662
G1 X146.76 Y133.09 E.07855
G1 X145.559 Y134.9 E.07842
G1 X144.296 Y136.614 E.07689
G1 X142.928 Y138.288 E.07803
G1 X141.465 Y139.908 E.07883
G1 X139.936 Y141.438 E.0781
G1 X138.331 Y142.891 E.07818
G1 X136.656 Y144.263 E.07814
G1 X134.916 Y145.548 E.07812
G1 X133.113 Y146.746 E.07818
G1 X131.251 Y147.853 E.07819
G1 X129.34 Y148.865 E.07808
G1 X127.378 Y149.781 E.07817
G1 X125.373 Y150.598 E.07817
G1 X123.329 Y151.314 E.0782
G1 X121.256 Y151.926 E.07806
G1 X119.144 Y152.437 E.07843
G1 X117.007 Y152.842 E.07856
G1 X114.868 Y153.137 E.07795
G1 X112.717 Y153.326 E.07797
G1 X110.559 Y153.407 E.07794
G1 X108.401 Y153.381 E.07794
G1 X106.246 Y153.248 E.07797
G1 X104.1 Y153.008 E.07795
G1 X101.965 Y152.661 E.07808
G1 X99.831 Y152.203 E.0788
G1 X97.743 Y151.644 E.07806
G1 X95.681 Y150.981 E.0782
G1 X92.622 Y149.781 E.11866
G1 X90.66 Y148.865 E.07817
G1 X88.749 Y147.853 E.07808
G1 X86.887 Y146.746 E.0782
G1 X85.084 Y145.548 E.07818
G1 X83.344 Y144.263 E.07812
G1 X81.669 Y142.891 E.07814
G1 X80.064 Y141.438 E.07818
G1 X78.535 Y139.908 E.0781
G1 X77.072 Y138.288 E.07883
G1 X75.704 Y136.614 E.07803
G1 X74.423 Y134.876 E.07797
G1 X73.23 Y133.075 E.078
G1 X72.129 Y131.22 E.07789
G1 X71.12 Y129.31 E.07799
G1 X70.208 Y127.353 E.07796
G1 X69.395 Y125.353 E.07793
G1 X68.677 Y123.299 E.07858
G1 X68.063 Y121.216 E.07842
G1 X67.557 Y119.113 E.07808
G1 X67.155 Y116.985 E.0782
G1 X66.86 Y114.841 E.07814
G1 X66.672 Y112.684 E.07818
G1 X66.592 Y110.522 E.0781
G1 X66.62 Y108.356 E.0782
G1 X66.756 Y106.198 E.0781
G1 X66.999 Y104.046 E.07818
G1 X67.35 Y101.91 E.07814
G1 X67.806 Y99.793 E.0782
G1 X68.367 Y97.704 E.07808
G1 X69.037 Y95.628 E.07879
G1 X69.804 Y93.605 E.0781
G1 X70.669 Y91.628 E.07793
G1 X71.631 Y89.695 E.07796
G1 X72.688 Y87.811 E.07799
G1 X73.837 Y85.985 E.07789
G1 X75.076 Y84.216 E.078
G1 X76.402 Y82.511 E.07797
G1 X77.82 Y80.863 E.07851
G1 X79.267 Y79.343 E.07577
G1 X79.598 Y79.658 F9000
G1 F3000
G1 X79.646 Y79.608 E.00249
G1 X81.197 Y78.134 E.07728
G1 X82.822 Y76.738 E.07735
G1 X84.514 Y75.424 E.07732
G1 X86.268 Y74.197 E.0773
G1 X88.083 Y73.059 E.07735
G1 X89.953 Y72.012 E.07737
G1 X91.869 Y71.06 E.07726
G1 X93.833 Y70.205 E.07735
G1 X95.837 Y69.448 E.07735
G1 X97.878 Y68.792 E.07738
G1 X99.944 Y68.24 E.07724
G1 X102.056 Y67.787 E.07797
G1 X104.136 Y67.448 E.0761
G1 X106.276 Y67.208 E.07774
G1 X108.396 Y67.076 E.07671
G1 X111.604 Y67.076 E.11582
G1 X113.709 Y67.207 E.07616
G1 X115.832 Y67.444 E.07713
G1 X117.944 Y67.787 E.07726
G1 X120.056 Y68.24 E.07797
G1 X122.122 Y68.792 E.07724
G1 X124.163 Y69.448 E.07738
G1 X126.167 Y70.205 E.07735
G1 X128.131 Y71.06 E.07735
G1 X130.047 Y72.012 E.07726
G1 X131.917 Y73.059 E.07737
G1 X133.732 Y74.197 E.07735
G1 X135.486 Y75.424 E.0773
G1 X137.178 Y76.738 E.07732
G1 X138.802 Y78.134 E.07735
G1 X140.354 Y79.608 E.07728
G1 X141.837 Y81.165 E.07763
G1 X143.241 Y82.796 E.07768
G1 X144.552 Y84.482 E.07715
G1 X145.779 Y86.233 E.07718
G1 X146.916 Y88.04 E.07707
G1 X147.962 Y89.903 E.07717
G1 X148.915 Y91.816 E.07714
G1 X149.77 Y93.772 E.07711
G1 X150.529 Y95.774 E.07728
G1 X151.497 Y98.908 E.11845
G1 X151.998 Y100.989 E.07726
G1 X152.395 Y103.094 E.07738
G1 X152.687 Y105.216 E.07732
G1 X152.872 Y107.35 E.07736
G1 X152.951 Y109.489 E.07728
G1 X152.923 Y111.632 E.07737
G1 X152.788 Y113.768 E.07728
G1 X152.547 Y115.897 E.07736
G1 X152.2 Y118.01 E.07732
G1 X151.748 Y120.105 E.07738
G1 X151.193 Y122.172 E.07726
G1 X150.529 Y124.226 E.07796
G1 X149.77 Y126.228 E.07728
G1 X148.927 Y128.157 E.07603
G1 X147.475 Y130.991 E.11497
M73 P2 R20
M73 P2 R20
G1 X146.376 Y132.842 E.07771
G1 X145.188 Y134.633 E.07761
G1 X143.938 Y136.329 E.07608
G1 X142.586 Y137.985 E.0772
G1 X141.138 Y139.589 E.078
G1 X139.625 Y141.103 E.07728
G1 X138.037 Y142.541 E.07735
G1 X136.381 Y143.898 E.07732
G1 X134.659 Y145.171 E.0773
G1 X132.874 Y146.356 E.07735
G1 X131.033 Y147.452 E.07737
G1 X129.142 Y148.453 E.07726
G1 X127.201 Y149.359 E.07735
G1 X125.217 Y150.168 E.07734
G1 X123.194 Y150.877 E.07738
G1 X121.143 Y151.483 E.07723
G1 X119.054 Y151.989 E.0776
G1 X116.939 Y152.39 E.07774
G1 X114.822 Y152.682 E.07713
G1 X112.694 Y152.869 E.07715
G1 X110.559 Y152.95 E.07712
G1 X108.424 Y152.925 E.07712
G1 X106.291 Y152.793 E.07715
G1 X104.168 Y152.556 E.07713
G1 X102.056 Y152.213 E.07726
G1 X99.944 Y151.76 E.07797
G1 X97.878 Y151.208 E.07724
G1 X95.837 Y150.552 E.07738
G1 X92.799 Y149.359 E.11783
G1 X90.858 Y148.453 E.07735
G1 X88.967 Y147.452 E.07726
G1 X87.126 Y146.356 E.07737
G1 X85.341 Y145.171 E.07735
G1 X83.62 Y143.898 E.0773
G1 X81.963 Y142.541 E.07732
G1 X80.375 Y141.103 E.07735
G1 X78.862 Y139.589 E.07728
G1 X77.414 Y137.985 E.078
G1 X76.062 Y136.329 E.0772
G1 X74.795 Y134.609 E.07715
G1 X73.614 Y132.827 E.07718
G1 X72.525 Y130.991 E.07707
G1 X71.527 Y129.101 E.07717
G1 X70.625 Y127.164 E.07714
G1 X69.82 Y125.186 E.07711
G1 X69.11 Y123.153 E.07775
G1 X68.503 Y121.092 E.07759
G1 X68.002 Y119.011 E.07726
G1 X67.605 Y116.906 E.07737
G1 X67.313 Y114.784 E.07732
G1 X67.128 Y112.65 E.07736
G1 X67.049 Y110.511 E.07728
G1 X67.077 Y108.368 E.07737
G1 X67.212 Y106.232 E.07728
G1 X67.453 Y104.103 E.07736
G1 X67.8 Y101.99 E.07732
G1 X68.252 Y99.895 E.07738
G1 X68.807 Y97.828 E.07726
G1 X69.471 Y95.774 E.07796
G1 X70.23 Y93.772 E.07728
G1 X71.085 Y91.816 E.07711
G1 X72.038 Y89.903 E.07714
G1 X73.084 Y88.04 E.07717
G1 X74.221 Y86.233 E.07707
G1 X75.447 Y84.482 E.07718
G1 X76.759 Y82.796 E.07715
G1 X78.163 Y81.165 E.07768
G1 X79.571 Y79.687 E.0737
; printing object Object_1 id:4490194382735111537 copy 0
G1 E-1.2 F2400
;WIPE_START
G1 F9000
G1 X79.646 Y79.608
G1 X81.017 Y78.306
;WIPE_END
G1 X86.37 Y83.746 Z.6
G1 X126.255 Y124.279 Z.6
G1 Z.2
G1 E1.2 F1800
;TYPE:Inner wall
;WIDTH:0.499999
G1 X125.858 Y124.714 E.02127
G3 X128.468 Y98.716 I-15.858 J-14.722 E3.89612
G3 X131.637 Y110.22 I-18.501 J11.285 E.43646
G3 X126.578 Y123.898 I-21.638 J-.228 E.53707
G1 X126.281 Y124.248 E.0166
G1 X126.938 Y124.195 F9000
;TYPE:Outer wall
G1 F1800
G1 X126.929 Y124.192 E.00034
G3 X128.262 Y97.554 I-16.93 J-14.2 E3.97893
G3 X132.094 Y110.231 I-18.358 J12.467 E.48556
G3 X127.614 Y123.333 I-22.095 J-.239 E.50851
M73 P3 R20
M73 P3 R20
G1 X126.962 Y124.164 E.03813
G1 E-1.2 F2400
;WIPE_START
G1 F9000
G1 X126.929 Y124.192
G1 X126.2 Y125.032
G1 X125.611 Y125.636
;WIPE_END
G1 X119.909 Y120.563 Z.6
G1 X106.035 Y108.218 Z.6
G1 Z.2
G1 E1.2 F1800
;TYPE:Inner wall
G1 X106.078 Y108.122 E.00378
G1 X106.594 Y107.403 E.03196
G1 X107.214 Y106.835 E.03036
G1 X107.891 Y106.414 E.02879
G1 X108.712 Y106.115 E.03155
G1 X109.449 Y106.003 E.0269
G3 X111.279 Y106.257 I.105 J5.972 E.06697
G1 X111.949 Y106.559 E.02656
G1 X112.605 Y107.025 E.02902
G1 X113.148 Y107.607 E.02877
G3 X113.666 Y108.514 I-6.734 J4.447 E.03773
G1 X113.825 Y108.992 E.01817
G1 X113.919 Y109.562 E.02086
G1 X113.991 Y109.658 E.00436
G3 X114.004 Y110.727 I-3.646 J.579 E.03871
G1 X113.969 Y111.055 E.01192
G1 X113.769 Y111.767 E.02672
G1 X113.386 Y112.533 E.03092
G1 X112.834 Y113.227 E.03201
G1 X112.285 Y113.7 E.02615
G3 X111.429 Y114.182 I-4.367 J-6.755 E.03551
G1 X110.753 Y114.406 E.0257
G1 X109.901 Y114.527 E.03107
G3 X108.275 Y114.215 I.002 J-4.407 E.06012
G1 X107.549 Y113.839 E.02954
G3 X105.952 Y112.089 I2.738 J-4.102 E.08638
G3 X105.579 Y111.097 I10.242 J-4.422 E.0383
G1 X105.505 Y110.564 E.0194
G1 X105.533 Y109.795 E.02779
G1 X105.734 Y108.886 E.03362
G1 X106.019 Y108.254 E.02502
G1 X106.242 Y108.857 F9000
;TYPE:Outer wall
G1 F1800
G1 X106.492 Y108.316 E.02152
G1 X106.961 Y107.675 E.02867
G1 X107.517 Y107.178 E.02693
G1 X108.122 Y106.808 E.02561
G1 X108.862 Y106.547 E.02832
G1 X109.51 Y106.456 E.02362
G3 X111.18 Y106.705 I.033 J5.498 E.06123
G1 X111.756 Y106.973 E.02293
G1 X112.334 Y107.393 E.02578
G1 X112.808 Y107.913 E.02543
G3 X113.232 Y108.659 I-12.748 J7.743 E.03097
G1 X113.391 Y109.134 E.0181
G1 X113.478 Y109.707 E.0209
G1 X113.554 Y109.802 E.0044
G1 X113.579 Y110.207 E.01464
G1 X113.537 Y110.884 E.02452
G1 X113.329 Y111.644 E.02844
G1 X112.981 Y112.321 E.02748
G1 X112.481 Y112.936 E.02862
G1 X111.992 Y113.349 E.02308
G3 X110.609 Y113.972 I-2.59 J-3.899 E.05503
G1 X109.844 Y114.073 E.02787
G1 X109.139 Y114.007 E.02556
G3 X107.763 Y113.435 I1.223 J-4.88 E.05399
G1 X107.234 Y113.025 E.02417
G1 X106.699 Y112.43 E.0289
G1 X106.343 Y111.851 E.02454
G3 X106.029 Y111.017 I21.353 J-8.511 E.03218
G1 X105.958 Y110.502 E.01877
G1 X105.99 Y109.819 E.0247
G1 X106.178 Y108.996 E.03047
G1 X106.225 Y108.893 E.00408
G1 E-1.2 F2400
;WIPE_START
G1 F9000
G1 X106.492 Y108.316
G1 X106.961 Y107.675
G1 X107.386 Y107.295
;WIPE_END
G1 Z.6
G1 X127.165 Y97.046
G1 Z.6
G1 Z.2
G1 E1.2 F1800
;TYPE:Bottom surface
;WIDTH:0.500933
G1 F4800
G1 X124.863 Y94.744 E.11778
G2 X121.629 Y92.157 I-14.727 J15.1 E.15007
G1 X127.828 Y98.356 E.31717
G3 X128.778 Y99.954 I-20.147 J13.062 E.06728
G1 X120.052 Y91.229 E.44646
G2 X118.762 Y90.586 I-7.094 J12.63 E.05217
G1 X129.401 Y101.225 E.54433
G3 X129.868 Y102.339 I-10.97 J5.251 E.04375
G1 X117.655 Y90.126 E.62488
G2 X116.648 Y89.768 I-4.093 J9.89 E.03868
G1 X130.227 Y103.347 E.69478
G3 X130.51 Y104.277 I-9.111 J3.273 E.03518
G1 X115.716 Y89.483 E.75693
G1 X114.847 Y89.262 E.03245
G1 X130.733 Y105.148 E.81284
