;TIME:235.34
;Filament used:0.06966m
;Layer height:0.200
; HEADER_BLOCK_START
; generated by Creality_Print V6.0.4.1793 on 2025-03-06 at 09:10:53
; total layer number: 129
; filament_density: 1.24
; filament_diameter: 1.75
; max_z_height: 15.56
; HEADER_BLOCK_END

; MINX = 107.97
; MINY = 107.98
; MINZ = 0.00
; MAXX = 112.02
; MAXY = 112.03
; MAXZ = 15.51

; THUMBNAIL_BLOCK_START

;
; THUMBNAIL_BLOCK_END

; THUMBNAIL_BLOCK_START

;
; THUMBNAIL_BLOCK_END

; external perimeters extrusion width = 0.42mm
; perimeters extrusion width = 0.45mm
; infill extrusion width = 0.45mm
; solid infill extrusion width = 0.42mm
; top infill extrusion width = 0.42mm
; first layer extrusion width = 0.46mm

; EXECUTABLE_BLOCK_START
M73 P0 R3
M201 X5000 Y5000 Z500 E5000
M203 X500 Y500 Z30 E100
M204 P5000 R2500 T5000 ; sets acceleration (P, T) and retract acceleration (R), mm/sec^2
M205 X10.00 Y10.00 Z0.40 E5.00 ; sets the jerk limits, mm/sec
;TYPE:Custom
M220 S100 ;Reset Feedrate 
M221 S100 ;Reset Flowrate 
 
M140 S60 ;Set final bed temp 
G28 ;Home 
 
G92 E0 ;Reset Extruder 
G1 Z2.0 F3000 ;Move Z Axis up 
M104 S205 ;Set final nozzle temp 
G1 X-2.1 Y20 Z0.28 F5000.0 ;Move to start position 
M190 S60 ;Wait for bed temp to stabilize 
M109 S205 ;Wait for nozzle temp to stabilize 
G1 X-2.1 Y145.0 Z0.28 F1500.0 E15 ;Draw the first line 
G1 X-2.4 Y145.0 Z0.28 F5000.0 ;Move to side a little 
M73 P2 R3
M73 P2 R3
G1 X-2.4 Y20 Z0.28 F1500.0 E30 ;Draw the second line 
G92 E0  ;Reset Extruder 
G1 E-1.0000 F1800 ;Retract a bit 
M73 P4 R3
M73 P4 R3
G1 Z2.0 F3000 ;Move Z Axis up 
G1 E0.0000 F1800
G90
G21
M83 ; use relative distances for extrusion
" "
G1 E-1.2 F2400
M106 S0
;LAYER_CHANGE
;Z:0.2
;HEIGHT:0.2
;BEFORE_LAYER_CHANGE
;0.2
G92 E0

;_SET_FAN_SPEED_CHANGING_LAYER
M204 P500
M205 X8 Y8
M204 T500
G1 Z.4 F9000
G1 X83.345 Y103.106
G1 Z.2
M73 P5 R3
M73 P5 R3
G1 E1.2 F1800
;TYPE:Skirt
;WIDTH:0.46
G1 F3000
G1 X84.351 Y99.994 E.10775
G1 X85.632 Y97.203 E.10118
G1 X86.845 Y95.106 E.07982
G1 X88.761 Y92.481 E.10707
G1 X90.315 Y90.763 E.07632
G1 X92.481 Y88.762 E.09716
G1 X95.106 Y86.846 E.10707
G1 X97.767 Y85.344 E.10068
G1 X99.995 Y84.351 E.08035
G1 X103.106 Y83.345 E.10775
G1 X105.387 Y82.865 E.07679
G1 X107.668 Y82.571 E.07576
G1 X111.573 Y82.514 E.12869
G1 X112.256 Y82.565 E.02256
G1 X114.601 Y82.863 E.07788
G1 X116.414 Y83.225 E.06091
G1 X119.52 Y84.171 E.10696
G1 X122.796 Y85.632 E.11819
G1 X124.804 Y86.788 E.07633
G1 X127.436 Y88.694 E.10707
G1 X129.237 Y90.315 E.07982
G1 X131.238 Y92.481 E.09716
G1 X133.154 Y95.106 E.10707
G1 X134.656 Y97.767 E.10067
G1 X135.648 Y99.994 E.08034
G1 X136.655 Y103.106 E.10775
G1 X137.134 Y105.387 E.0768
G1 X137.429 Y107.668 E.07576
G1 X137.486 Y111.574 E.12869
G1 X137.435 Y112.256 E.02256
G1 X137.134 Y114.613 E.07826
G1 X136.655 Y116.894 E.0768
G1 X135.649 Y120.005 E.10775
G1 X134.368 Y122.797 E.10119
G1 X133.154 Y124.894 E.07982
G1 X131.238 Y127.519 E.10706
G1 X129.685 Y129.237 E.07632
G1 X127.518 Y131.239 E.09717
G1 X124.894 Y133.155 E.10707
G1 X122.232 Y134.656 E.10067
G1 X120.005 Y135.649 E.08035
M73 P6 R3
M73 P6 R3
G1 X116.893 Y136.655 E.10775
G1 X114.612 Y137.135 E.07679
G1 X112.332 Y137.429 E.07576
G1 X108.426 Y137.486 E.12869
G1 X107.743 Y137.435 E.02256
G1 X105.387 Y137.135 E.07826
G1 X103.002 Y136.627 E.08032
G1 X99.894 Y135.61 E.10775
G1 X97.203 Y134.368 E.09766
G1 X95.106 Y133.155 E.07981
G1 X92.481 Y131.239 E.10707
G1 X90.763 Y129.685 E.07633
G1 X88.762 Y127.519 E.09715
G1 X86.846 Y124.894 E.10707
G1 X85.344 Y122.233 E.10068
G1 X84.351 Y120.005 E.08035
G1 X83.345 Y116.893 E.10775
G1 X82.865 Y114.613 E.07678
G1 X82.565 Y112.256 E.07826
G1 X82.513 Y111.574 E.02256
G1 X82.57 Y107.668 E.12869
G1 X82.865 Y105.387 E.07576
G1 X83.337 Y103.145 E.07548
G1 X83.745 Y103.231 F9000
G1 F3000
G1 X83.75 Y103.204 E.00093
G1 X84.737 Y100.153 E.10563
G1 X86.003 Y97.393 E.10005
G1 X87.2 Y95.326 E.0787
G1 X89.078 Y92.752 E.10496
G1 X90.61 Y91.058 E.07524
G1 X92.752 Y89.079 E.09609
G1 X95.325 Y87.2 E.10497
G1 X97.957 Y85.715 E.09955
G1 X100.153 Y84.737 E.07922
G1 X103.204 Y83.751 E.10563
G1 X105.452 Y83.277 E.0757
G1 X107.7 Y82.987 E.07469
G1 X111.542 Y82.93 E.12658
G1 X112.225 Y82.981 E.02256
G1 X114.536 Y83.275 E.07676
G1 X116.323 Y83.632 E.06006
G1 X119.368 Y84.56 E.10486
G1 X122.607 Y86.003 E.11682
G1 X124.586 Y87.143 E.07525
G1 X127.166 Y89.012 E.10497
M73 P7 R3
M73 P7 R3
G1 X128.942 Y90.61 E.07869
G1 X130.921 Y92.752 E.09609
G1 X132.799 Y95.325 E.10496
G1 X134.284 Y97.957 E.09954
G1 X135.263 Y100.153 E.07921
G1 X136.249 Y103.204 E.10563
G1 X136.722 Y105.453 E.07572
G1 X137.013 Y107.701 E.07469
G1 X137.07 Y111.542 E.12658
G1 X137.019 Y112.225 E.02256
G1 X136.722 Y114.548 E.07714
G1 X136.249 Y116.796 E.07571
G1 X135.263 Y119.847 E.10563
G1 X133.996 Y122.607 E.10005
G1 X132.8 Y124.674 E.0787
G1 X130.921 Y127.248 E.10496
G1 X129.39 Y128.942 E.07524
G1 X127.247 Y130.921 E.0961
G1 X124.674 Y132.8 E.10497
G1 X122.043 Y134.285 E.09954
G1 X119.847 Y135.263 E.07921
G1 X116.796 Y136.249 E.10563
G1 X114.547 Y136.723 E.07571
G1 X112.299 Y137.014 E.07469
G1 X108.457 Y137.07 E.12658
G1 X107.775 Y137.019 E.02256
G1 X105.452 Y136.723 E.07714
G1 X103.101 Y136.222 E.07919
G1 X100.054 Y135.225 E.10563
G1 X97.393 Y133.997 E.09657
G1 X95.326 Y132.8 E.07869
G1 X92.752 Y130.922 E.10497
G1 X91.058 Y129.39 E.07525
G1 X89.079 Y127.248 E.09608
G1 X87.2 Y124.675 E.10496
G1 X85.715 Y122.043 E.09956
G1 X84.737 Y119.847 E.07922
G1 X83.75 Y116.796 E.10563
G1 X83.277 Y114.548 E.0757
G1 X82.981 Y112.225 E.07714
G1 X82.929 Y111.542 E.02256
G1 X82.986 Y107.701 E.12658
G1 X83.277 Y105.452 E.07469
G1 X83.736 Y103.27 E.07347
G1 X84.144 Y103.356 F9000
M73 P8 R3
M73 P8 R3
G1 F3000
G1 X84.156 Y103.301 E.00186
G1 X85.123 Y100.311 E.10352
G1 X86.375 Y97.583 E.09892
G1 X87.555 Y95.545 E.07757
G1 X89.395 Y93.023 E.10286
G1 X90.905 Y91.353 E.07417
G1 X93.023 Y89.396 E.09501
G1 X95.544 Y87.555 E.10286
G1 X98.146 Y86.087 E.09843
G1 X100.311 Y85.123 E.07809
G1 X103.301 Y84.156 E.10352
G1 X105.517 Y83.689 E.07462
G1 X107.733 Y83.402 E.07361
G1 X111.511 Y83.346 E.12448
G1 X112.194 Y83.397 E.02256
G1 X114.471 Y83.687 E.07563
G1 X116.233 Y84.039 E.0592
G1 X119.217 Y84.948 E.10277
G1 X122.417 Y86.375 E.11545
G1 X124.368 Y87.499 E.07417
G1 X126.896 Y89.331 E.10287
G1 X128.647 Y90.905 E.07757
G1 X130.604 Y93.023 E.09501
G1 X132.445 Y95.545 E.10286
G1 X133.913 Y98.146 E.09842
G1 X134.877 Y100.311 E.07808
G1 X135.843 Y103.301 E.10352
G1 X136.311 Y105.518 E.07463
G1 X136.597 Y107.733 E.07361
G1 X136.654 Y111.511 E.12448
G1 X136.603 Y112.194 E.02256
G1 X136.311 Y114.482 E.07601
G1 X135.843 Y116.699 E.07463
G1 X134.877 Y119.689 E.10352
G1 X133.625 Y122.418 E.09892
G1 X132.445 Y124.455 E.07757
G1 X130.604 Y126.977 E.10286
G1 X129.095 Y128.647 E.07417
G1 X126.977 Y130.604 E.09502
G1 X124.455 Y132.445 E.10287
G1 X121.853 Y133.913 E.09842
G1 X119.688 Y134.877 E.07808
G1 X116.698 Y135.844 E.10352
G1 X114.482 Y136.311 E.07462
G1 X112.266 Y136.598 E.07361
M73 P9 R3
M73 P9 R3
G1 X108.489 Y136.654 E.12448
G1 X107.806 Y136.603 E.02256
G1 X105.517 Y136.311 E.07601
G1 X103.2 Y135.817 E.07806
G1 X100.214 Y134.84 E.10352
G1 X97.582 Y133.625 E.09549
G1 X95.545 Y132.445 E.07757
G1 X93.023 Y130.605 E.10287
G1 X91.353 Y129.095 E.07418
G1 X89.396 Y126.977 E.095
G1 X87.555 Y124.456 E.10286
G1 X86.087 Y121.854 E.09843
G1 X85.122 Y119.688 E.07809
G1 X84.156 Y116.699 E.10352
G1 X83.689 Y114.482 E.07462
G1 X83.396 Y112.194 E.07601
G1 X83.345 Y111.511 E.02256
G1 X83.402 Y107.733 E.12448
G1 X83.689 Y105.518 E.07361
G1 X84.136 Y103.395 E.07145
; printing object 5 -1 id:8171063952611762432 copy 0
G1 E-1.2 F2400
;WIPE_START
G1 F3000
G1 X84.156 Y103.301
G1 X84.742 Y101.49
;WIPE_END
G1 X91.955 Y103.983 Z.6 F9000
G1 X104.189 Y108.211 Z.6
G1 Z.2
G1 E1.2 F1800
;TYPE:Brim
G1 X104.208 Y108.133 E.00265
G1 X104.46 Y107.519 E.02186
G1 X104.74 Y106.97 E.0203
G1 X105.087 Y106.41 E.02172
G1 X105.495 Y105.932 E.02071
G1 X105.931 Y105.495 E.02034
G1 X106.409 Y105.087 E.02071
G1 X106.97 Y104.74 E.02172
G1 X107.519 Y104.46 E.0203
G1 X108.132 Y104.208 E.02186
G1 X108.747 Y104.06 E.02083
G1 X109.357 Y103.964 E.02034
G1 X109.984 Y103.915 E.02073
G1 X110.643 Y103.964 E.02175
G1 X111.242 Y104.059 E.02
G1 X111.731 Y104.168 E.01651
G1 X112.482 Y104.461 E.02656
G1 X113.03 Y104.74 E.02025
G1 X113.566 Y105.069 E.02071
G1 X114.068 Y105.496 E.02172
G1 X114.504 Y105.932 E.02032
G1 X114.913 Y106.41 E.02071
G1 X115.259 Y106.97 E.02172
M73 P10 R3
M73 P10 R3
G1 X115.54 Y107.519 E.0203
G1 X115.792 Y108.133 E.02186
G1 X115.939 Y108.748 E.02084
G1 X116.036 Y109.357 E.02034
G1 X116.085 Y109.985 E.02073
G1 X116.036 Y110.643 E.02175
G1 X115.939 Y111.252 E.02033
G1 X115.792 Y111.867 E.02084
G1 X115.54 Y112.481 E.02186
G1 X115.259 Y113.03 E.0203
G1 X114.913 Y113.59 E.02171
G1 X114.504 Y114.068 E.02071
G1 X114.068 Y114.505 E.02034
G1 X113.59 Y114.913 E.02071
G1 X113.029 Y115.26 E.02172
G1 X112.481 Y115.54 E.0203
G1 X111.867 Y115.792 E.02186
G1 X111.252 Y115.94 E.02084
G1 X110.642 Y116.036 E.02034
G1 X110.015 Y116.085 E.02073
G1 X109.357 Y116.036 E.02175
G1 X108.748 Y115.94 E.02032
G1 X108.103 Y115.783 E.02185
G1 X107.519 Y115.54 E.02084
G1 X106.97 Y115.26 E.02031
G1 X106.409 Y114.913 E.02171
G1 X105.931 Y114.505 E.02071
G1 X105.495 Y114.068 E.02034
G1 X105.087 Y113.591 E.0207
G1 X104.74 Y113.03 E.02172
G1 X104.46 Y112.481 E.0203
G1 X104.208 Y111.867 E.02186
G1 X104.06 Y111.252 E.02083
G1 X103.964 Y110.643 E.02033
G1 X103.914 Y109.985 E.02175
G1 X103.964 Y109.357 E.02073
G1 X104.06 Y108.748 E.02034
G1 X104.18 Y108.25 E.01687
G1 X104.586 Y108.348 F9000
G1 F1800
G1 X104.609 Y108.252 E.00326
G1 X104.837 Y107.698 E.01974
G1 X105.106 Y107.171 E.01951
G1 X105.42 Y106.664 E.01961
G1 X105.798 Y106.219 E.01927
G1 X106.211 Y105.805 E.01926
G1 X106.649 Y105.431 E.01896
G1 X107.17 Y105.107 E.02025
G1 X107.688 Y104.842 E.01917
G1 X108.27 Y104.604 E.02072
G1 X108.834 Y104.469 E.01908
G1 X109.411 Y104.378 E.01926
G1 X109.995 Y104.334 E.01929
G1 X110.589 Y104.378 E.01964
G1 X111.161 Y104.468 E.01905
G1 X111.619 Y104.571 E.01547
G1 X112.305 Y104.84 E.02429
G1 X112.83 Y105.107 E.01939
G1 X113.327 Y105.414 E.01927
G1 X113.781 Y105.799 E.01961
G1 X114.194 Y106.212 E.01923
G1 X114.569 Y106.649 E.01896
G1 X114.893 Y107.171 E.02025
G1 X115.158 Y107.689 E.01917
G1 X115.396 Y108.271 E.02071
G1 X115.531 Y108.834 E.01908
G1 X115.622 Y109.411 E.01926
G1 X115.666 Y109.995 E.01929
G1 X115.621 Y110.59 E.01964
G1 X115.529 Y111.176 E.01955
G1 X115.39 Y111.748 E.01939
G1 X115.162 Y112.302 E.01974
G1 X114.893 Y112.829 E.01951
G1 X114.58 Y113.336 E.01961
G1 X114.201 Y113.781 E.01927
G1 X113.788 Y114.195 E.01926
G1 X113.351 Y114.569 E.01896
G1 X112.829 Y114.893 E.02024
G1 X112.311 Y115.158 E.01917
G1 X111.729 Y115.396 E.02072
G1 X111.166 Y115.531 E.01908
G1 X110.588 Y115.622 E.01926
G1 X110.005 Y115.666 E.01929
G1 X109.41 Y115.622 E.01964
G1 X108.825 Y115.529 E.01952
G1 X108.243 Y115.387 E.01974
G1 X107.699 Y115.163 E.01939
G1 X107.17 Y114.893 E.01954
G1 X106.664 Y114.58 E.01961
G1 X106.219 Y114.201 E.01927
G1 X105.805 Y113.788 E.01926
G1 X105.431 Y113.351 E.01896
G1 X105.106 Y112.829 E.02025
G1 X104.841 Y112.311 E.01917
G1 X104.603 Y111.729 E.02072
G1 X104.469 Y111.166 E.01908
G1 X104.378 Y110.59 E.01923
G1 X104.333 Y109.995 E.01964
G1 X104.378 Y109.411 E.01929
G1 X104.471 Y108.824 E.01958
G1 X104.577 Y108.387 E.01481
G1 X104.983 Y108.487 F9000
G1 F1800
G1 X105.011 Y108.373 E.00388
G1 X105.219 Y107.868 E.01799
G1 X105.473 Y107.371 E.01838
G1 X105.753 Y106.919 E.01754
G1 X106.102 Y106.506 E.01782
G1 X106.491 Y106.115 E.01817
G1 X106.889 Y105.775 E.01723
G1 X107.371 Y105.473 E.01877
G1 X107.858 Y105.223 E.01801
G1 X108.408 Y105 E.01957
G1 X108.92 Y104.878 E.01733
G1 X109.464 Y104.792 E.01817
G1 X110.004 Y104.753 E.01784
M73 P11 R3
M73 P11 R3
G1 X110.536 Y104.792 E.01757
G1 X111.078 Y104.877 E.01807
G1 X111.505 Y104.975 E.01442
G1 X112.129 Y105.218 E.02206
G1 X112.629 Y105.474 E.01852
G1 X113.089 Y105.759 E.01781
G1 X113.495 Y106.103 E.01754
G1 X113.885 Y106.492 E.01814
G1 X114.225 Y106.889 E.01723
G1 X114.527 Y107.372 E.01877
G1 X114.776 Y107.858 E.01801
G1 X115 Y108.408 E.01956
G1 X115.122 Y108.92 E.01733
G1 X115.207 Y109.465 E.01817
G1 X115.247 Y110.005 E.01784
G1 X115.207 Y110.536 E.01756
G1 X115.118 Y111.099 E.01877
G1 X114.989 Y111.627 E.01793
G1 X114.781 Y112.132 E.01799
G1 X114.527 Y112.629 E.01838
G1 X114.247 Y113.081 E.01753
G1 X113.897 Y113.494 E.01782
G1 X113.508 Y113.885 E.01817
G1 X113.111 Y114.225 E.01723
G1 X112.628 Y114.527 E.01876
G1 X112.142 Y114.777 E.01801
G1 X111.591 Y115 E.01956
G1 X111.08 Y115.122 E.01733
G1 X110.535 Y115.208 E.01817
G1 X109.995 Y115.247 E.01784
G1 X109.463 Y115.208 E.01756
G1 X108.912 Y115.121 E.01839
G1 X108.382 Y114.992 E.01798
G1 X107.878 Y114.786 E.01793
G1 X107.371 Y114.527 E.01875
G1 X106.918 Y114.247 E.01753
G1 X106.505 Y113.898 E.01782
G1 X106.115 Y113.508 E.01817
G1 X105.775 Y113.111 E.01722
G1 X105.472 Y112.628 E.01877
G1 X105.223 Y112.142 E.01801
G1 X104.999 Y111.592 E.01957
G1 X104.877 Y111.08 E.01733
G1 X104.792 Y110.536 E.01813
G1 X104.752 Y110.005 E.01757
G1 X104.792 Y109.465 E.01784
G1 X104.881 Y108.901 E.0188
G1 X104.973 Y108.526 E.01273
G1 X105.379 Y108.627 F9000
G1 F1800
G1 X105.412 Y108.494 E.00451
G1 X105.596 Y108.047 E.01591
G1 X105.834 Y107.581 E.01725
G1 X106.086 Y107.172 E.01582
G1 X106.406 Y106.792 E.01637
G1 X106.772 Y106.425 E.01708
G1 X107.144 Y106.107 E.01613
G1 X107.573 Y105.839 E.01667
G1 X108.037 Y105.601 E.01718
G1 X108.527 Y105.402 E.01743
G1 X108.996 Y105.288 E.01589
G1 X109.507 Y105.208 E.01705
G1 X110.013 Y105.172 E.01673
G1 X110.493 Y105.208 E.01585
G1 X111.004 Y105.288 E.01702
G1 X111.391 Y105.378 E.01309
G1 X111.963 Y105.602 E.02026
G1 X112.42 Y105.835 E.01688
G1 X112.835 Y106.092 E.01608
G1 X113.208 Y106.407 E.01611
G1 X113.575 Y106.772 E.01705
G1 X113.893 Y107.144 E.01612
G1 X114.161 Y107.573 E.01667
G1 X114.399 Y108.037 E.01718
G1 X114.598 Y108.527 E.01742
G1 X114.711 Y108.996 E.01589
G1 X114.792 Y109.507 E.01705
G1 X114.828 Y110.014 E.01673
G1 X114.792 Y110.493 E.01584
G1 X114.708 Y111.022 E.01763
G1 X114.587 Y111.506 E.01645
G1 X114.404 Y111.953 E.01591
G1 X114.165 Y112.419 E.01725
G1 X113.913 Y112.828 E.01582
G1 X113.593 Y113.208 E.01637
G1 X113.228 Y113.575 E.01708
G1 X112.855 Y113.893 E.01613
G1 X112.426 Y114.161 E.01666
G1 X111.962 Y114.399 E.01718
G1 X111.473 Y114.598 E.01742
G1 X111.004 Y114.712 E.01589
G1 X110.493 Y114.792 E.01705
G1 X109.986 Y114.829 E.01673
G1 X109.506 Y114.792 E.01584
G1 X108.989 Y114.71 E.01727
G1 X108.52 Y114.596 E.01591
G1 X108.057 Y114.408 E.01645
G1 X107.58 Y114.166 E.01762
G1 X107.172 Y113.913 E.01582
G1 X106.792 Y113.594 E.01637
G1 X106.424 Y113.228 E.01708
G1 X106.107 Y112.856 E.01612
G1 X105.838 Y112.427 E.01667
G1 X105.601 Y111.963 E.01718
G1 X105.401 Y111.473 E.01743
G1 X105.288 Y111.004 E.01589
G1 X105.208 Y110.494 E.01703
G1 X105.171 Y109.995 E.01646
G1 X105.207 Y109.508 E.01611
G1 X105.292 Y108.979 E.01765
G1 X105.369 Y108.666 E.01062
G1 X105.774 Y108.766 F9000
G1 F1800
G1 X105.807 Y108.633 E.00451
G1 X105.973 Y108.226 E.01447
G1 X106.195 Y107.79 E.01614
G1 X106.42 Y107.425 E.01412
G1 X106.711 Y107.078 E.01491
G1 X107.052 Y106.734 E.01595
G1 X107.384 Y106.45 E.01441
G1 X107.775 Y106.205 E.01519
G1 X108.206 Y105.983 E.01599
G1 X108.647 Y105.803 E.01567
G1 X109.072 Y105.699 E.01444
G1 X109.549 Y105.623 E.0159
G1 X110.022 Y105.59 E.01561
G1 X110.45 Y105.623 E.01415
G1 X110.928 Y105.699 E.01596
G1 X111.275 Y105.781 E.01175
G1 X111.798 Y105.986 E.01849
G1 X112.219 Y106.201 E.0156
G1 X112.596 Y106.436 E.01463
G1 X112.93 Y106.718 E.0144
G1 X113.265 Y107.052 E.01559
G1 X113.55 Y107.385 E.01441
G1 X113.795 Y107.775 E.01519
M73 P12 R3
M73 P12 R3
G1 X114.017 Y108.206 E.01598
G1 X114.196 Y108.647 E.01567
G1 X114.301 Y109.073 E.01444
G1 X114.376 Y109.549 E.01591
G1 X114.409 Y110.022 E.01561
G1 X114.376 Y110.45 E.01413
G1 X114.297 Y110.944 E.01648
G1 X114.192 Y111.367 E.01437
G1 X114.026 Y111.774 E.01447
G1 X113.804 Y112.21 E.01614
G1 X113.579 Y112.575 E.01412
G1 X113.289 Y112.922 E.01492
G1 X112.948 Y113.266 E.01595
G1 X112.615 Y113.55 E.01442
