;TIME:1018.10
;Filament used:0.82725m
;Layer height:0.200
; HEADER_BLOCK_START
; generated by Creality_Print V6.0.5.1840 on 2025-03-28 at 20:30:55
; total layer number: 150
; filament_density: 1.24
; filament_diameter: 1.75
; max_z_height: 30.00
; HEADER_BLOCK_END

; MINX = 97.46
; MINY = 104.12
; MINZ = 0.00
; MAXX = 127.46
; MAXY = 110.97
; MAXZ = 30.00

; THUMBNAIL_BLOCK_START

;
; THUMBNAIL_BLOCK_END

; THUMBNAIL_BLOCK_START

;
; THUMBNAIL_BLOCK_END

; external perimeters extrusion width = 0.42mm
; perimeters extrusion width = 0.45mm
; infill extrusion width = 0.45mm
; solid infill extrusion width = 0.42mm
; top infill extrusion width = 0.42mm
; first layer extrusion width = 0.50mm

; EXECUTABLE_BLOCK_START
M73 P0 R16
M201 X5000 Y5000 Z500 E5000
M203 X500 Y500 Z30 E100
M204 P5000 R2500 T5000 ; sets acceleration (P, T) and retract acceleration (R), mm/sec^2
M205 X10.00 Y10.00 Z0.40 E5.00 ; sets the jerk limits, mm/sec
;TYPE:Custom
M220 S100 ;Reset Feedrate 
M221 S100 ;Reset Flowrate 
 
M140 S60 ;Set final bed temp 
G28 ;Home 
 
G92 E0 ;Reset Extruder 
G1 Z2.0 F3000 ;Move Z Axis up 
M104 S205 ;Set final nozzle temp 
G1 X-2.1 Y20 Z0.28 F5000.0 ;Move to start position 
M190 S60 ;Wait for bed temp to stabilize 
M109 S205 ;Wait for nozzle temp to stabilize 
G1 X-2.1 Y145.0 Z0.28 F1500.0 E15 ;Draw the first line 
G1 X-2.4 Y145.0 Z0.28 F5000.0 ;Move to side a little 
G1 X-2.4 Y20 Z0.28 F1500.0 E30 ;Draw the second line 
G92 E0  ;Reset Extruder 
G1 E-1.0000 F1800 ;Retract a bit 
M73 P1 R16
M73 P1 R16
G1 Z2.0 F3000 ;Move Z Axis up 
G1 E0.0000 F1800
G90
G21
M83 ; use relative distances for extrusion
" "
G1 E-1.2 F2400
M106 S0
;LAYER_CHANGE
;Z:0.2
;HEIGHT:0.2
;BEFORE_LAYER_CHANGE
;0.2
G92 E0

;_SET_FAN_SPEED_CHANGING_LAYER
M204 P500
M205 X10 Y10
; printing object Agarre2 id:8171063952611762432 copy 0
M204 T500
G1 Z.4 F9000
G1 X91.777 Y107.924
G1 Z.2
G1 E1.2 F1800
;TYPE:Brim
;WIDTH:0.5
G1 X91.967 Y107.314 E.02307
G1 X92.272 Y106.604 E.02792
G1 X92.663 Y105.938 E.02786
G1 X93.102 Y105.36 E.02622
G1 X93.63 Y104.793 E.02794
G1 X94.222 Y104.298 E.02788
G1 X94.756 Y103.946 E.02308
G1 X95.442 Y103.59 E.02792
G1 X96.167 Y103.323 E.0279
G1 X96.729 Y103.183 E.0209
G1 X110.318 Y100.466 E.50035
G1 X111.323 Y100.319 E.03666
G1 X112.11 Y100.265 E.02849
G1 X112.751 Y100.264 E.02314
G1 X113.565 Y100.317 E.02946
G1 X114.587 Y100.465 E.03728
G1 X128.18 Y103.185 E.50052
G1 X128.932 Y103.385 E.02809
G1 X129.648 Y103.675 E.02788
G1 X130.209 Y103.98 E.02308
G1 X130.846 Y104.419 E.02792
G1 X131.422 Y104.934 E.0279
G1 X131.806 Y105.359 E.02069
G1 X132.355 Y106.106 E.03348
G1 X132.724 Y106.783 E.02784
G1 X132.965 Y107.375 E.02307
G1 X133.179 Y108.118 E.02792
G1 X133.299 Y108.882 E.0279
G1 X133.326 Y109.46 E.0209
G1 X133.326 Y110.469 E.03642
G1 X133.277 Y111.245 E.02809
G1 X133.133 Y112.003 E.02784
G1 X132.895 Y112.739 E.02793
G1 X132.695 Y113.195 E.01798
G1 X132.319 Y113.873 E.02798
G1 X131.865 Y114.495 E.02784
G1 X131.334 Y115.059 E.02795
G1 X131.023 Y115.331 E.01493
G1 X130.295 Y115.862 E.03251
G1 X129.619 Y116.229 E.0278
G1 X128.898 Y116.511 E.02793
G1 X128.418 Y116.643 E.01798
G1 X127.656 Y116.782 E.02798
G1 X126.886 Y116.823 E.02784
G1 X126.114 Y116.769 E.02795
G1 X125.7 Y116.699 E.01515
G1 X112.501 Y114.006 E.48637
G1 X112.41 Y114.006 E.0033
G1 X99.214 Y116.699 E.48627
G1 X98.443 Y116.806 E.02809
G1 X97.672 Y116.817 E.02784
G1 X96.903 Y116.731 E.02793
G1 X96.416 Y116.625 E.01799
G1 X95.677 Y116.393 E.02798
G1 X94.976 Y116.072 E.02784
G1 X94.319 Y115.665 E.02792
G1 X93.892 Y115.335 E.01946
G1 X93.324 Y114.809 E.02799
G1 X92.828 Y114.218 E.02784
G1 X92.408 Y113.568 E.02793
G1 X92.182 Y113.124 E.01799
G1 X91.894 Y112.405 E.02798
G1 X91.699 Y111.659 E.02784
G1 X91.599 Y110.891 E.02795
G1 X91.584 Y110.472 E.01516
G1 X91.585 Y109.459 E.03655
G1 X91.633 Y108.683 E.02809
G1 X91.77 Y107.963 E.02644
G1 X92.219 Y108.049 F9000
G1 F1800
G1 X92.22 Y108.043 E.00022
G1 X92.399 Y107.466 E.02181
G1 X92.678 Y106.818 E.02546
G1 X93.039 Y106.2 E.02586
G1 X93.457 Y105.649 E.02496
G1 X93.939 Y105.132 E.02553
G1 X94.502 Y104.661 E.0265
G1 X94.993 Y104.338 E.02125
G1 X95.619 Y104.013 E.02546
G1 X96.295 Y103.763 E.026
G1 X96.832 Y103.629 E.02
G1 X110.392 Y100.917 E.49929
G1 X111.377 Y100.774 E.03592
G1 X112.121 Y100.722 E.02695
G1 X112.741 Y100.721 E.02237
G1 X113.523 Y100.773 E.02829
G1 X114.513 Y100.917 E.03613
G1 X128.072 Y103.629 E.49928
G1 X128.795 Y103.822 E.02701
G1 X129.445 Y104.086 E.02532
G1 X129.975 Y104.374 E.02181
G1 X130.556 Y104.774 E.02546
G1 X131.094 Y105.253 E.026
G1 X131.455 Y105.654 E.01948
G1 X131.963 Y106.344 E.03096
G1 X132.314 Y106.986 E.0264
G1 X132.534 Y107.532 E.02125
G1 X132.733 Y108.226 E.02607
G1 X132.842 Y108.921 E.02539
G1 X132.868 Y109.467 E.01977
G1 X132.869 Y110.45 E.03548
G1 X132.821 Y111.197 E.02701
G1 X132.687 Y111.897 E.02577
G1 X132.47 Y112.569 E.02549
G1 X132.282 Y112.997 E.01687
G1 X131.928 Y113.633 E.02628
G1 X131.507 Y114.209 E.02577
G1 X131.021 Y114.724 E.02558
G1 X130.732 Y114.977 E.01386
G1 X130.042 Y115.479 E.03079
G1 X129.418 Y115.817 E.02564
G1 X128.747 Y116.078 E.026
G1 X128.31 Y116.198 E.01636
G1 X127.611 Y116.325 E.02566
G1 X126.898 Y116.365 E.02577
G1 X126.174 Y116.315 E.02619
G1 X125.781 Y116.249 E.0144
G1 X112.602 Y113.56 E.48565
G1 X112.419 Y113.55 E.0066
G1 X99.14 Y116.247 E.48924
G1 X98.417 Y116.348 E.02639
G1 X97.686 Y116.358 E.02638
G1 X96.984 Y116.28 E.02549
G1 X96.528 Y116.181 E.01688
G1 X95.834 Y115.962 E.02628
G1 X95.185 Y115.664 E.02577
G1 X94.586 Y115.293 E.02546
G1 X94.184 Y114.982 E.01835
G1 X93.65 Y114.486 E.02631
G1 X93.192 Y113.939 E.02577
G1 X92.809 Y113.346 E.02549
G1 X92.596 Y112.93 E.01688
G1 X92.332 Y112.27 E.02566
G1 X92.151 Y111.58 E.02577
G1 X92.054 Y110.844 E.02679
G1 X92.042 Y109.479 E.04927
G1 X92.089 Y108.732 E.02705
G1 X92.211 Y108.088 E.02365
G1 X92.661 Y108.173 F9000
G1 F1800
G1 X92.663 Y108.161 E.00042
G1 X92.831 Y107.618 E.02054
G1 X93.083 Y107.032 E.02301
G1 X93.425 Y106.448 E.02445
G1 X93.812 Y105.939 E.02309
G1 X94.248 Y105.47 E.02312
G1 X94.769 Y105.033 E.02453
G1 X95.219 Y104.736 E.01947
G1 X95.813 Y104.429 E.02414
G1 X96.423 Y104.203 E.0235
G1 X96.936 Y104.074 E.01909
G1 X110.467 Y101.369 E.49821
G1 X111.431 Y101.228 E.03518
G1 X112.133 Y101.18 E.02541
G1 X112.731 Y101.179 E.02159
G1 X113.48 Y101.229 E.02712
G1 X114.439 Y101.368 E.03498
G1 X127.964 Y104.074 E.49802
G1 X128.657 Y104.26 E.02592
G1 X129.242 Y104.496 E.02276
G1 X129.741 Y104.768 E.02055
G1 X130.279 Y105.14 E.02362
G1 X130.766 Y105.573 E.02349
G1 X131.104 Y105.948 E.01826
G1 X131.571 Y106.583 E.02845
G1 X131.903 Y107.189 E.02494
G1 X132.103 Y107.688 E.0194
G1 X132.287 Y108.333 E.02423
G1 X132.386 Y108.96 E.0229
G1 X132.411 Y109.475 E.01863
G1 X132.411 Y110.431 E.03452
G1 X132.365 Y111.147 E.02591
G1 X132.245 Y111.775 E.02309
G1 X132.044 Y112.4 E.02368
G1 X131.869 Y112.799 E.01574
G1 X131.537 Y113.393 E.02456
G1 X131.149 Y113.922 E.02371
M73 P2 R16
M73 P2 R16
G1 X130.708 Y114.39 E.02322
G1 X130.441 Y114.623 E.01278
G1 X129.79 Y115.096 E.02906
G1 X129.218 Y115.404 E.02348
G1 X128.609 Y115.641 E.02356
G1 X128.202 Y115.753 E.01525
G1 X127.549 Y115.871 E.02398
G1 X126.893 Y115.906 E.02371
G1 X126.235 Y115.861 E.02381
G1 X125.867 Y115.8 E.01346
G1 X112.702 Y113.114 E.48515
G1 X112.453 Y113.094 E.00901
G1 X112.32 Y113.103 E.00481
G1 X99.067 Y115.796 E.48827
G1 X98.39 Y115.891 E.02468
G1 X97.717 Y115.901 E.02431
G1 X97.065 Y115.829 E.02367
G1 X96.639 Y115.737 E.01575
G1 X95.991 Y115.531 E.02456
G1 X95.394 Y115.256 E.02371
G1 X94.841 Y114.913 E.02353
G1 X94.475 Y114.629 E.01671
G1 X93.988 Y114.177 E.02399
G1 X93.566 Y113.674 E.02371
G1 X93.209 Y113.123 E.02368
G1 X93.011 Y112.735 E.01576
G1 X92.765 Y112.118 E.02396
G1 X92.599 Y111.483 E.02371
G1 X92.512 Y110.82 E.02413
G1 X92.499 Y109.487 E.04815
G1 X92.543 Y108.797 E.02494
G1 X92.653 Y108.212 E.02151
G1 X93.103 Y108.296 F9000
G1 F1800
G1 X93.106 Y108.279 E.0006
G1 X93.264 Y107.77 E.01927
G1 X93.488 Y107.247 E.02055
G1 X93.81 Y106.696 E.02303
G1 X94.158 Y106.239 E.02073
G1 X94.558 Y105.808 E.02122
G1 X95.036 Y105.406 E.02258
G1 X95.444 Y105.135 E.01767
G1 X96.006 Y104.845 E.02282
G1 X96.552 Y104.643 E.02102
G1 X97.04 Y104.519 E.01818
G1 X110.541 Y101.82 E.49712
G1 X111.485 Y101.683 E.03443
G1 X112.144 Y101.637 E.02387
G1 X112.72 Y101.636 E.02081
G1 X113.437 Y101.684 E.02594
G1 X114.364 Y101.819 E.03383
G1 X127.855 Y104.518 E.49676
G1 X128.52 Y104.697 E.02483
G1 X129.039 Y104.907 E.02023
G1 X129.508 Y105.162 E.01927
G1 X129.99 Y105.496 E.02116
G1 X130.437 Y105.893 E.0216
G1 X130.754 Y106.243 E.01705
G1 X131.18 Y106.822 E.02594
G1 X131.492 Y107.392 E.02348
G1 X131.672 Y107.843 E.01753
G1 X131.841 Y108.44 E.0224
G1 X131.929 Y109 E.02045
G1 X131.954 Y109.483 E.01749
G1 X131.954 Y110.412 E.03353
G1 X131.909 Y111.098 E.02481
G1 X131.799 Y111.67 E.02105
G1 X131.618 Y112.231 E.02127
G1 X131.456 Y112.601 E.0146
G1 X131.156 Y113.138 E.0222
G1 X130.802 Y113.622 E.02167
G1 X130.395 Y114.056 E.02148
G1 X130.151 Y114.269 E.0117
G1 X129.538 Y114.712 E.0273
G1 X129.018 Y114.992 E.02133
G1 X128.472 Y115.204 E.02115
G1 X128.095 Y115.308 E.01413
G1 X127.487 Y115.416 E.02228
G1 X126.888 Y115.448 E.02167
G1 X126.295 Y115.407 E.02147
G1 X125.953 Y115.351 E.01251
G1 X112.801 Y112.668 E.48462
G1 X112.412 Y112.639 E.01412
G1 X112.222 Y112.657 E.00689
G1 X98.994 Y115.344 E.48735
G1 X98.363 Y115.433 E.023
G1 X97.747 Y115.443 E.02225
G1 X97.146 Y115.378 E.02184
G1 X96.75 Y115.293 E.0146
G1 X96.148 Y115.101 E.02281
G1 X95.604 Y114.849 E.02165
G1 X95.096 Y114.532 E.02161
G1 X94.767 Y114.276 E.01507
G1 X94.326 Y113.867 E.0217
G1 X93.939 Y113.408 E.02167
G1 X93.609 Y112.901 E.02186
G1 X93.425 Y112.54 E.01462
G1 X93.198 Y111.967 E.02225
G1 X93.048 Y111.386 E.02166
G1 X92.97 Y110.796 E.0215
G1 X92.957 Y109.494 E.04702
G1 X92.997 Y108.863 E.02283
G1 X93.095 Y108.335 E.01939
G1 X93.545 Y108.418 F9000
G1 F1800
G1 X93.549 Y108.397 E.00076
G1 X93.691 Y107.935 E.01746
G1 X93.894 Y107.461 E.01862
G1 X94.196 Y106.944 E.02161
G1 X94.513 Y106.529 E.01886
G1 X94.868 Y106.146 E.01885
G1 X95.305 Y105.777 E.02063
G1 X95.683 Y105.527 E.01638
G1 X96.199 Y105.261 E.02095
G1 X96.68 Y105.083 E.01855
G1 X97.144 Y104.965 E.01727
G1 X110.615 Y102.271 E.49602
G1 X111.539 Y102.137 E.03369
G1 X112.156 Y102.094 E.02233
G1 X112.71 Y102.094 E.02002
G1 X113.394 Y102.14 E.02475
G1 X114.29 Y102.271 E.03269
G1 X127.747 Y104.962 E.49549
G1 X128.382 Y105.134 E.02375
G1 X128.836 Y105.318 E.0177
G1 X129.261 Y105.549 E.01747
G1 X129.7 Y105.851 E.01925
G1 X130.11 Y106.213 E.01971
G1 X130.403 Y106.538 E.01582
G1 X130.788 Y107.061 E.02343
G1 X131.081 Y107.595 E.02201
G1 X131.241 Y107.998 E.01564
G1 X131.395 Y108.546 E.02058
G1 X131.473 Y109.04 E.01804
G1 X131.497 Y109.499 E.01659
G1 X131.497 Y110.392 E.03228
G1 X131.453 Y111.047 E.0237
G1 X131.352 Y111.564 E.01901
G1 X131.192 Y112.062 E.01887
G1 X131.043 Y112.403 E.01345
G1 X130.775 Y112.883 E.01985
G1 X130.454 Y113.323 E.01965
G1 X130.081 Y113.722 E.01972
G1 X129.861 Y113.915 E.01059
G1 X129.287 Y114.329 E.02552
G1 X128.818 Y114.579 E.01919
G1 X128.334 Y114.767 E.01875
G1 X128 Y114.86 E.01254
G1 X127.443 Y114.96 E.02041
G1 X126.883 Y114.989 E.02025
G1 X126.354 Y114.953 E.01916
G1 X126.033 Y114.9 E.01175
G1 X112.902 Y112.222 E.48387
G1 X112.358 Y112.185 E.01968
G1 X112.125 Y112.21 E.00848
G1 X98.921 Y114.892 E.48647
G1 X98.336 Y114.975 E.02133
G1 X97.777 Y114.986 E.0202
G1 X97.226 Y114.927 E.01999
G1 X96.862 Y114.849 E.01344
G1 X96.323 Y114.677 E.02043
G1 X95.815 Y114.441 E.02021
G1 X95.352 Y114.152 E.01969
G1 X95.059 Y113.923 E.01345
G1 X94.664 Y113.557 E.01945
G1 X94.303 Y113.128 E.02025
G1 X94.002 Y112.665 E.01993
G1 X93.84 Y112.345 E.01295
G1 X93.631 Y111.817 E.02051
G1 X93.499 Y111.307 E.01901
G1 X93.428 Y110.772 E.01949
G1 X93.414 Y109.501 E.0459
G1 X93.451 Y108.928 E.02075
G1 X93.537 Y108.457 E.01727
G1 X93.987 Y108.539 F9000
G1 F1800
G1 X93.992 Y108.514 E.00092
G1 X94.119 Y108.1 E.01565
G1 X94.299 Y107.675 E.01667
G1 X94.582 Y107.192 E.02018
G1 X94.867 Y106.819 E.01699
G1 X95.191 Y106.472 E.01711
G1 X95.573 Y106.149 E.01808
G1 X95.921 Y105.918 E.01507
G1 X96.391 Y105.677 E.01907
G1 X96.81 Y105.522 E.01612
G1 X97.249 Y105.41 E.01636
G1 X110.689 Y102.723 E.49489
G1 X111.592 Y102.592 E.03295
G1 X112.167 Y102.552 E.0208
G1 X112.7 Y102.551 E.01923
G1 X113.351 Y102.595 E.02357
G1 X114.216 Y102.722 E.03156
G1 X127.638 Y105.407 E.49421
G1 X128.227 Y105.566 E.02206
G1 X128.647 Y105.736 E.01636
G1 X129.028 Y105.943 E.01565
G1 X129.412 Y106.207 E.01682
G1 X129.782 Y106.533 E.0178
G1 X130.044 Y106.822 E.01409
G1 X130.406 Y107.315 E.02207
G1 X130.662 Y107.783 E.01927
G1 X130.809 Y108.151 E.01432
G1 X130.946 Y108.636 E.01818
G1 X131.018 Y109.094 E.01675
G1 X131.04 Y109.514 E.01518
G1 X131.04 Y110.382 E.03133
G1 X131 Y110.98 E.02163
G1 X130.911 Y111.442 E.01701
G1 X130.767 Y111.893 E.01709
G1 X130.63 Y112.205 E.01231
G1 X130.384 Y112.643 E.01813
G1 X130.096 Y113.037 E.01763
G1 X129.768 Y113.388 E.01735
G1 X129.581 Y113.553 E.009
G1 X129.037 Y113.944 E.02419
G1 X128.619 Y114.166 E.01706
G1 X128.196 Y114.331 E.01641
G1 X127.904 Y114.413 E.01094
G1 X127.399 Y114.504 E.01852
G1 X126.896 Y114.531 E.01822
G1 X126.413 Y114.498 E.01747
G1 X126.112 Y114.45 E.01098
G1 X113.003 Y111.776 E.48309
G1 X112.298 Y111.732 E.0255
G1 X112.028 Y111.763 E.0098
G1 X98.847 Y114.441 E.48562
G1 X98.308 Y114.517 E.01968
M73 P3 R16
M73 P3 R16
G1 X97.788 Y114.527 E.01877
G1 X97.306 Y114.476 E.01751
G1 X96.974 Y114.405 E.01226
G1 X96.481 Y114.246 E.01867
G1 X96.026 Y114.034 E.01815
G1 X95.609 Y113.773 E.01776
G1 X95.351 Y113.571 E.01183
G1 X95.002 Y113.247 E.01721
G1 X94.676 Y112.862 E.0182
G1 X94.395 Y112.43 E.01859
G1 X94.254 Y112.151 E.01127
G1 X94.065 Y111.667 E.01878
G1 X93.948 Y111.211 E.01699
G1 X93.886 Y110.748 E.01689
G1 X93.872 Y109.508 E.04476
G1 X93.905 Y108.992 E.01867
G1 X93.98 Y108.579 E.01517
G1 X94.43 Y108.66 F9000
G1 F1800
G1 X94.435 Y108.63 E.00108
G1 X94.546 Y108.263 E.01384
G1 X94.713 Y107.873 E.01532
G1 X94.958 Y107.455 E.01749
G1 X95.213 Y107.119 E.01523
G1 X95.501 Y106.809 E.01527
G1 X95.855 Y106.51 E.01672
G1 X96.159 Y106.31 E.01317
G1 X96.568 Y106.1 E.01659
G1 X96.953 Y105.957 E.01483
G1 X97.354 Y105.855 E.01493
G1 X110.763 Y103.174 E.49375
G1 X111.646 Y103.046 E.03221
G1 X112.179 Y103.009 E.01927
G1 X112.689 Y103.009 E.01844
G1 X113.308 Y103.051 E.02238
G1 X114.141 Y103.173 E.03043
G1 X127.529 Y105.851 E.49293
G1 X128.074 Y105.998 E.02038
G1 X128.459 Y106.154 E.015
G1 X128.795 Y106.337 E.01382
G1 X129.123 Y106.564 E.01442
G1 X129.455 Y106.854 E.01591
G1 X129.685 Y107.107 E.01233
G1 X130.024 Y107.569 E.0207
G1 X130.244 Y107.971 E.01655
G1 X130.378 Y108.306 E.01301
G1 X130.496 Y108.726 E.01577
G1 X130.563 Y109.149 E.01546
G1 X130.583 Y109.53 E.01376
G1 X130.582 Y110.371 E.03038
G1 X130.546 Y110.912 E.01958
G1 X130.468 Y111.321 E.01502
G1 X130.341 Y111.724 E.01528
G1 X130.217 Y112.007 E.01114
G1 X129.994 Y112.402 E.01638
G1 X129.738 Y112.751 E.01563
G1 X129.453 Y113.055 E.01502
G1 X129.3 Y113.191 E.00738
G1 X128.787 Y113.559 E.02283
G1 X128.421 Y113.752 E.01493
G1 X128.057 Y113.894 E.0141
G1 X127.808 Y113.965 E.00935
G1 X127.355 Y114.047 E.01664
G1 X126.89 Y114.073 E.01679
G1 X126.471 Y114.044 E.01518
G1 X126.192 Y114 E.01021
G1 X113.104 Y111.33 E.48229
G1 X112.233 Y111.279 E.03149
G1 X111.932 Y111.317 E.01095
G1 X98.774 Y113.99 E.48479
G1 X98.279 Y114.06 E.01802
G1 X97.816 Y114.07 E.01672
G1 X97.371 Y114.022 E.01617
G1 X97.085 Y113.96 E.01055
G1 X96.657 Y113.823 E.01626
G1 X96.252 Y113.635 E.0161
G1 X95.878 Y113.402 E.01592
G1 X95.643 Y113.219 E.01073
G1 X95.339 Y112.936 E.01501
G1 X95.049 Y112.595 E.01615
G1 X94.796 Y112.208 E.01671
G1 X94.675 Y111.97 E.00963
G1 X94.498 Y111.518 E.01752
G1 X94.396 Y111.116 E.01499
G1 X94.343 Y110.706 E.01491
G1 X94.329 Y109.525 E.04266
G1 X94.359 Y109.056 E.01698
G1 X94.423 Y108.699 E.01309
G1 X94.875 Y108.813 F9000
G1 F1800
G1 X94.954 Y108.511 E.01128
G1 X95.255 Y107.864 E.02575
G1 X95.648 Y107.326 E.02406
G1 X96.131 Y106.891 E.02346
G1 X96.759 Y106.528 E.02619
G1 X97.396 Y106.313 E.02431
G1 X110.922 Y103.608 E.49802
G1 X111.95 Y103.479 E.03741
