;TIME:1444.36
;Filament used:1.61535m
;Layer height:0.200
; HEADER_BLOCK_START
; generated by Creality_Print V6.0.5.1840 on 2025-03-28 at 11:41:17
; total layer number: 175
; filament_density: 1.24
; filament_diameter: 1.75
; max_z_height: 30.00
; HEADER_BLOCK_END

; MINX = 94.30
; MINY = 43.59
; MINZ = 0.00
; MAXX = 125.04
; MAXY = 175.76
; MAXZ = 30.00

; THUMBNAIL_BLOCK_START

;
; THUMBNAIL_BLOCK_END

; THUMBNAIL_BLOCK_START

;
; THUMBNAIL_BLOCK_END

; external perimeters extrusion width = 0.42mm
; perimeters extrusion width = 0.45mm
; infill extrusion width = 0.45mm
; solid infill extrusion width = 0.42mm
; top infill extrusion width = 0.42mm
; first layer extrusion width = 0.50mm

; external perimeters extrusion width = 0.42mm
; perimeters extrusion width = 0.45mm
; infill extrusion width = 0.45mm
; solid infill extrusion width = 0.42mm
; top infill extrusion width = 0.42mm
; first layer extrusion width = 0.50mm

; EXECUTABLE_BLOCK_START
M73 P0 R24
M201 X5000 Y5000 Z500 E5000
M203 X500 Y500 Z30 E100
M204 P5000 R2500 T5000 ; sets acceleration (P, T) and retract acceleration (R), mm/sec^2
M205 X10.00 Y10.00 Z0.40 E5.00 ; sets the jerk limits, mm/sec
;TYPE:Custom
M220 S100 ;Reset Feedrate 
M221 S100 ;Reset Flowrate 
 
M140 S60 ;Set final bed temp 
G28 ;Home 
 
G92 E0 ;Reset Extruder 
G1 Z2.0 F3000 ;Move Z Axis up 
M104 S205 ;Set final nozzle temp 
G1 X-2.1 Y20 Z0.28 F5000.0 ;Move to start position 
M190 S60 ;Wait for bed temp to stabilize 
M109 S205 ;Wait for nozzle temp to stabilize 
G1 X-2.1 Y145.0 Z0.28 F1500.0 E15 ;Draw the first line 
G1 X-2.4 Y145.0 Z0.28 F5000.0 ;Move to side a little 
M73 P0 R23
M73 P0 R23
G1 X-2.4 Y20 Z0.28 F1500.0 E30 ;Draw the second line 
G92 E0  ;Reset Extruder 
G1 E-1.0000 F1800 ;Retract a bit 
G1 Z2.0 F3000 ;Move Z Axis up 
G1 E0.0000 F1800
G90
G21
M83 ; use relative distances for extrusion
" "
G1 E-1.2 F2400
M106 S0
;LAYER_CHANGE
;Z:0.2
;HEIGHT:0.2
;BEFORE_LAYER_CHANGE
;0.2
G92 E0

;_SET_FAN_SPEED_CHANGING_LAYER
M204 P500
M205 X10 Y10
M204 T500
G1 Z.4 F9000
G1 X81.702 Y95.811
G1 Z.2
G1 E1.2 F1800
;TYPE:Skirt
;WIDTH:0.5
G1 F3000
G1 X76.319 Y91.674 E.24513
G1 X73.283 Y88.073 E.17005
G1 X71.001 Y84.115 E.16496
G1 X69.443 Y79.82 E.16496
G1 X68.562 Y73.088 E.24513
G1 X68.562 Y44.088 E1.04707
G1 X68.961 Y39.537 E.16496
G1 X70.147 Y35.125 E.16496
G1 X72.082 Y30.986 E.16496
G1 X76.219 Y25.603 E.24513
G1 X79.819 Y22.567 E.17005
G1 X83.778 Y20.285 E.16496
G1 X88.073 Y18.727 E.16496
G1 X94.804 Y17.846 E.24513
G1 X123.804 Y17.846 E1.04707
G1 X128.356 Y18.245 E.16496
G1 X132.768 Y19.43 E.16496
M73 P1 R23
M73 P1 R23
G1 X136.907 Y21.366 E.16496
G1 X142.29 Y25.503 E.24513
G1 X145.326 Y29.103 E.17005
G1 X147.608 Y33.062 E.16496
G1 X149.166 Y37.357 E.16496
G1 X150.047 Y44.088 E.24513
G1 X150.047 Y73.088 E1.04707
G1 X149.648 Y77.64 E.16496
G1 X148.462 Y82.052 E.16496
G1 X146.527 Y86.191 E.16496
G1 X142.39 Y91.574 E.24513
G1 X138.79 Y94.61 E.17005
G1 X134.831 Y96.892 E.16496
G1 X130.536 Y98.45 E.16496
G1 X123.804 Y99.331 E.24513
G1 X94.804 Y99.331 E1.04707
G1 X90.253 Y98.932 E.16496
G1 X85.841 Y97.746 E.16496
G1 X81.738 Y95.828 E.16352
G1 X81.937 Y95.407 F9000
G1 F3000
G1 X81.828 Y95.355 E.00437
G1 X76.642 Y91.351 E.23657
G1 X73.635 Y87.779 E.1686
G1 X71.382 Y83.85 E.16351
G1 X69.855 Y79.587 E.16351
G1 X69.019 Y73.088 E.23657
G1 X69.019 Y44.088 E1.04707
G1 X69.418 Y39.577 E.16351
G1 X70.603 Y35.207 E.16351
G1 X72.538 Y31.112 E.16351
G1 X76.542 Y25.926 E.23657
G1 X80.114 Y22.918 E.1686
G1 X84.043 Y20.666 E.16351
G1 X88.306 Y19.138 E.16351
G1 X94.804 Y18.303 E.23657
G1 X123.804 Y18.303 E1.04707
G1 X128.315 Y18.702 E.16351
G1 X132.686 Y19.887 E.16351
G1 X136.781 Y21.822 E.16351
G1 X141.967 Y25.826 E.23657
G1 X144.974 Y29.398 E.1686
G1 X147.227 Y33.327 E.16351
G1 X148.754 Y37.59 E.16351
G1 X149.59 Y44.088 E.23657
G1 X149.59 Y73.088 E1.04707
G1 X149.191 Y77.599 E.16351
G1 X148.006 Y81.97 E.16351
G1 X146.071 Y86.065 E.16351
G1 X142.067 Y91.251 E.23657
G1 X138.495 Y94.258 E.1686
G1 X134.566 Y96.511 E.16351
G1 X130.303 Y98.038 E.16351
G1 X123.804 Y98.874 E.23657
G1 X94.804 Y98.874 E1.04707
G1 X90.293 Y98.475 E.16351
G1 X85.923 Y97.29 E.16351
G1 X81.974 Y95.424 E.1577
G1 X82.174 Y95.004 F9000
G1 F3000
G1 X81.955 Y94.899 E.00876
G1 X76.965 Y91.028 E.22804
G1 X73.987 Y87.484 E.16713
G1 X71.764 Y83.586 E.16205
G1 X70.267 Y79.355 E.16205
G1 X69.476 Y73.088 E.22804
G1 X69.476 Y44.088 E1.04707
G1 X69.875 Y39.618 E.16205
G1 X71.06 Y35.289 E.16205
G1 X72.993 Y31.239 E.16205
G1 X76.865 Y26.249 E.22804
G1 X80.408 Y23.27 E.16713
G1 X84.307 Y21.047 E.16205
G1 X88.538 Y19.55 E.16205
G1 X94.804 Y18.76 E.22804
G1 X123.804 Y18.76 E1.04707
G1 X128.275 Y19.159 E.16205
G1 X132.604 Y20.344 E.16205
G1 X136.654 Y22.277 E.16205
G1 X141.644 Y26.149 E.22804
G1 X144.622 Y29.692 E.16713
G1 X146.845 Y33.591 E.16205
G1 X148.342 Y37.822 E.16205
G1 X149.133 Y44.088 E.22804
G1 X149.133 Y73.088 E1.04707
G1 X148.734 Y77.559 E.16205
G1 X147.549 Y81.888 E.16205
G1 X145.616 Y85.938 E.16205
G1 X141.744 Y90.928 E.22804
G1 X138.201 Y93.906 E.16713
G1 X134.302 Y96.129 E.16205
G1 X130.071 Y97.626 E.16205
G1 X123.804 Y98.417 E.22804
G1 X94.804 Y98.417 E1.04707
G1 X90.334 Y98.018 E.16205
G1 X86.005 Y96.833 E.16205
G1 X82.21 Y95.021 E.15184
; printing object Agarre1 id:8171063952611762432 copy 0
G1 E-1.2 F2400
;WIPE_START
G1 F9000
G1 X81.955 Y94.899
G1 X80.598 Y93.847
;WIPE_END
G1 X87.389 Y90.363 Z.6
G1 X122.536 Y72.331 Z.6
M73 P2 R23
M73 P2 R23
G1 Z.2
G1 E1.2 F1800
;TYPE:Inner wall
;WIDTH:0.499999
G1 X95.562 Y72.319 E.97391
G1 X95.573 Y44.846 E.99196
G1 X123.047 Y44.857 E.99196
G1 X123.036 Y72.331 E.99196
G1 X122.576 Y72.331 E.01661
G1 E-1.2 F2400
;WIPE_START
G1 F9000
G1 X120.576 Y72.33
;WIPE_END
G1 X123.492 Y72.788 Z.6
G1 Z.2
G1 E1.2 F1800
;TYPE:Outer wall
G1 X95.105 Y72.776 E1.02497
G1 X95.117 Y44.389 E1.02497
G1 X123.504 Y44.4 E1.02497
G1 X123.492 Y72.748 E1.02353
G1 E-1.2 F2400
;WIPE_START
G1 F9000
G1 X121.492 Y72.75
;WIPE_END
G1 X121.895 Y65.128 Z.6
G1 X122.91 Y45.921 Z.6
G1 Z.2
G1 E1.2 F1800
;TYPE:Bottom surface
;WIDTH:0.501616
G1 F4800
G1 X122.188 Y45.2 E.03698
G1 X121.539 Y45.199 E.02351
G1 X122.704 Y46.364 E.05968
G1 X122.703 Y47.013 E.02349
G1 X120.89 Y45.199 E.09292
G1 X120.241 Y45.199 E.02351
G1 X122.703 Y47.661 E.12616
G1 X122.703 Y48.309 E.02349
G1 X119.592 Y45.199 E.1594
G1 X118.943 Y45.198 E.02351
G1 X122.703 Y48.958 E.19265
G1 X122.702 Y49.606 E.02349
G1 X118.294 Y45.198 E.22589
G1 X117.645 Y45.198 E.02351
G1 X122.702 Y50.255 E.25913
G1 X122.702 Y50.903 E.02349
G1 X116.996 Y45.198 E.29237
G1 X116.347 Y45.197 E.02351
G1 X122.702 Y51.552 E.32561
G1 X122.701 Y52.2 E.02349
G1 X115.698 Y45.197 E.35885
G1 X115.049 Y45.197 E.02351
G1 X122.701 Y52.848 E.39209
G1 X122.701 Y53.497 E.02349
G1 X114.4 Y45.196 E.42533
G1 X113.751 Y45.196 E.02351
G1 X122.7 Y54.145 E.45857
G1 X122.7 Y54.794 E.02349
G1 X113.102 Y45.196 E.49181
G1 X112.453 Y45.196 E.02351
G1 X122.7 Y55.442 E.52505
G1 X122.7 Y56.091 E.02349
G1 X111.804 Y45.195 E.55829
G1 X111.155 Y45.195 E.02351
G1 X122.699 Y56.739 E.59153
G1 X122.699 Y57.387 E.02349
G1 X110.507 Y45.195 E.62477
G1 X109.858 Y45.195 E.02351
M73 P3 R23
M73 P3 R23
G1 X122.699 Y58.036 E.65801
G1 X122.699 Y58.684 E.02349
G1 X109.209 Y45.194 E.69125
G1 X108.56 Y45.194 E.02351
G1 X122.698 Y59.333 E.72449
G1 X122.698 Y59.981 E.02349
G1 X107.911 Y45.194 E.75773
G1 X107.262 Y45.193 E.02351
G1 X122.698 Y60.629 E.79097
G1 X122.697 Y61.278 E.02349
G1 X106.613 Y45.193 E.82421
G1 X105.964 Y45.193 E.02351
G1 X122.697 Y61.926 E.85746
G1 X122.697 Y62.575 E.02349
G1 X105.315 Y45.193 E.8907
G1 X104.666 Y45.192 E.02351
G1 X122.697 Y63.223 E.92394
G1 X122.696 Y63.872 E.02349
G1 X104.017 Y45.192 E.95718
G1 X103.368 Y45.192 E.02351
G1 X122.696 Y64.52 E.99042
G1 X122.696 Y65.168 E.02349
G1 X102.719 Y45.192 E1.02366
G1 X102.07 Y45.191 E.02351
G1 X122.696 Y65.817 E1.0569
G1 X122.695 Y66.465 E.02349
G1 X101.421 Y45.191 E1.09014
G1 X100.772 Y45.191 E.02351
G1 X122.695 Y67.114 E1.12338
G1 X122.695 Y67.762 E.02349
G1 X100.123 Y45.19 E1.15662
G1 X99.474 Y45.19 E.02351
G1 X122.694 Y68.411 E1.18986
G1 X122.694 Y69.059 E.02349
G1 X98.825 Y45.19 E1.2231
G1 X98.176 Y45.19 E.02351
G1 X122.694 Y69.707 E1.25634
G1 X122.694 Y70.356 E.02349
G1 X97.527 Y45.189 E1.28958
G1 X96.878 Y45.189 E.02351
G1 X122.693 Y71.004 E1.32282
G1 X122.693 Y71.653 E.02349
G1 X96.229 Y45.189 E1.35606
G1 X95.916 Y45.189 E.01135
G1 X95.916 Y45.524 E.01216
G1 X122.38 Y71.988 E1.35606
G1 X121.731 Y71.988 E.02351
G1 X95.916 Y46.173 E1.32282
G1 X95.915 Y46.821 E.02349
G1 X121.082 Y71.987 E1.28958
G1 X120.433 Y71.987 E.02351
G1 X95.915 Y47.47 E1.25634
G1 X95.915 Y48.118 E.02349
G1 X119.784 Y71.987 E1.2231
G1 X119.135 Y71.987 E.02351
G1 X95.915 Y48.766 E1.18986
G1 X95.914 Y49.415 E.02349
M73 P4 R23
M73 P4 R23
G1 X118.486 Y71.986 E1.15661
G1 X117.837 Y71.986 E.02351
G1 X95.914 Y50.063 E1.12337
G1 X95.914 Y50.712 E.02349
G1 X117.188 Y71.986 E1.09013
G1 X116.539 Y71.985 E.02351
G1 X95.913 Y51.36 E1.05689
G1 X95.913 Y52.008 E.02349
G1 X115.89 Y71.985 E1.02365
G1 X115.241 Y71.985 E.02351
G1 X95.913 Y52.657 E.99041
G1 X95.913 Y53.305 E.02349
G1 X114.592 Y71.985 E.95717
G1 X113.943 Y71.984 E.02351
G1 X95.912 Y53.954 E.92393
G1 X95.912 Y54.602 E.02349
G1 X113.294 Y71.984 E.89069
G1 X112.645 Y71.984 E.02351
G1 X95.912 Y55.251 E.85745
G1 X95.912 Y55.899 E.02349
G1 X111.996 Y71.984 E.82421
G1 X111.347 Y71.983 E.02351
G1 X95.911 Y56.547 E.79097
G1 X95.911 Y57.196 E.02349
G1 X110.698 Y71.983 E.75773
G1 X110.049 Y71.983 E.02351
G1 X95.911 Y57.844 E.72449
G1 X95.91 Y58.493 E.02349
G1 X109.4 Y71.982 E.69125
G1 X108.751 Y71.982 E.02351
M73 P4 R22
M73 P4 R22
G1 X95.91 Y59.141 E.65801
G1 X95.91 Y59.79 E.02349
G1 X108.102 Y71.982 E.62477
G1 X107.453 Y71.982 E.02351
G1 X95.91 Y60.438 E.59153
G1 X95.909 Y61.086 E.02349
G1 X106.804 Y71.981 E.55829
G1 X106.155 Y71.981 E.02351
G1 X95.909 Y61.735 E.52504
G1 X95.909 Y62.383 E.02349
G1 X105.507 Y71.981 E.4918
G1 X104.858 Y71.981 E.02351
G1 X95.909 Y63.032 E.45856
G1 X95.908 Y63.68 E.02349
G1 X104.209 Y71.98 E.42532
G1 X103.56 Y71.98 E.02351
G1 X95.908 Y64.328 E.39208
G1 X95.908 Y64.977 E.02349
G1 X102.911 Y71.98 E.35884
G1 X102.262 Y71.979 E.02351
G1 X95.907 Y65.625 E.3256
G1 X95.907 Y66.274 E.02349
G1 X101.613 Y71.979 E.29236
G1 X100.964 Y71.979 E.02351
G1 X95.907 Y66.922 E.25912
G1 X95.907 Y67.571 E.02349
G1 X100.315 Y71.979 E.22588
G1 X99.666 Y71.978 E.02351
G1 X95.906 Y68.219 E.19264
G1 X95.906 Y68.867 E.02349
G1 X99.017 Y71.978 E.1594
G1 X98.368 Y71.978 E.02351
G1 X95.906 Y69.516 E.12616
G1 X95.906 Y70.164 E.02349
G1 X97.719 Y71.978 E.09292
G1 X97.07 Y71.977 E.02351
G1 X95.905 Y70.813 E.05968
G1 X95.905 Y71.461 E.02349
G1 X96.627 Y72.183 E.03698
; stop printing object Agarre1 id:8171063952611762432 copy 0
;TIME_ELAPSED:70.271812

M106 S255
;LAYER_CHANGE
;Z:0.4
;HEIGHT:0.2
;BEFORE_LAYER_CHANGE
;0.4
G92 E0

G1 E-1.2 F2400
;WIPE_START
G1 F9000
G1 X95.905 Y71.461
G1 X95.905 Y70.813
G1 X96.139 Y71.047
;WIPE_END
;_SET_FAN_SPEED_CHANGING_LAYER
M204 P2500
; printing object Agarre1 id:8171063952611762432 copy 0
M204 T2500
G1 X103.756 Y71.539 Z.6
G1 X123.052 Y72.786 Z.6
G1 Z.4
G1 E1.2 F1800
M204 P2000
;TYPE:Inner wall
;WIDTH:0.449999
G1 F5400
G1 X95.107 Y72.786 E.89864
G1 X95.107 Y44.39 E.91311
G1 X123.502 Y44.39 E.91311
G1 X123.502 Y72.786 E.91311
G1 X123.092 Y72.786 E.01318
G1 X123.718 Y73.178 F9000
M204 P1000
;TYPE:Outer wall
;WIDTH:0.419999
G1 F3600
M73 P5 R22
M73 P5 R22
G1 X94.891 Y73.178 E.85863
G1 X94.714 Y73.001 E.00746
G1 X94.714 Y44.175 E.85863
G1 X94.891 Y43.998 E.00746
G1 X123.718 Y43.998 E.85863
G1 X123.894 Y44.175 E.00746
G1 X123.894 Y73.001 E.85863
G1 X123.746 Y73.15 E.00626
G1 X123.175 Y72.401 F9000
M204 P2500
;TYPE:Internal solid infill
;WIDTH:0.38292
G1 F10800
G1 X123.111 Y72.438 E.00198
G1 X123.176 Y72.472 E.00198
G1 X122.487 Y72.686 F9000
;WIDTH:0.420731
G1 F10800
G1 X123.232 Y71.94 E.03148
G1 X123.232 Y71.406 E.01595
G1 X122.122 Y72.516 E.04687
G1 X121.588 Y72.516 E.01595
G1 X123.232 Y70.872 E.06942
G1 X123.232 Y70.337 E.01595
G1 X121.053 Y72.516 E.09197
G1 X120.519 Y72.516 E.01595
G1 X123.232 Y69.803 E.11452
G1 X123.232 Y69.269 E.01595
G1 X119.985 Y72.516 E.13707
G1 X119.451 Y72.516 E.01595
G1 X123.232 Y68.734 E.15962
G1 X123.232 Y68.2 E.01595
G1 X118.916 Y72.516 E.18217
G1 X118.382 Y72.516 E.01595
G1 X123.232 Y67.666 E.20472
G1 X123.232 Y67.132 E.01595
G1 X117.848 Y72.516 E.22727
G1 X117.313 Y72.516 E.01595
G1 X123.232 Y66.597 E.24983
G1 X123.232 Y66.063 E.01595
G1 X116.779 Y72.516 E.27238
G1 X116.245 Y72.516 E.01595
G1 X123.232 Y65.529 E.29493
G1 X123.232 Y64.994 E.01595
G1 X115.71 Y72.516 E.31748
G1 X115.176 Y72.516 E.01595
G1 X123.232 Y64.46 E.34003
G1 X123.232 Y63.926 E.01595
G1 X114.642 Y72.516 E.36258
G1 X114.107 Y72.516 E.01595
G1 X123.232 Y63.391 E.38513
G1 X123.232 Y62.857 E.01595
G1 X113.573 Y72.516 E.40768
G1 X113.039 Y72.516 E.01595
G1 X123.232 Y62.323 E.43023
G1 X123.232 Y61.788 E.01595
G1 X112.505 Y72.516 E.45278
G1 X111.97 Y72.516 E.01595
G1 X123.232 Y61.254 E.47534
G1 X123.232 Y60.72 E.01595
G1 X111.436 Y72.516 E.49789
G1 X110.902 Y72.516 E.01595
G1 X123.232 Y60.186 E.52044
G1 X123.232 Y59.651 E.01595
G1 X110.367 Y72.516 E.54299
G1 X109.833 Y72.516 E.01595
G1 X123.232 Y59.117 E.56554
G1 X123.232 Y58.583 E.01595
G1 X109.299 Y72.516 E.58809
G1 X108.764 Y72.516 E.01595
G1 X123.232 Y58.048 E.61064
G1 X123.232 Y57.514 E.01595
G1 X108.23 Y72.516 E.63319
G1 X107.696 Y72.516 E.01595
G1 X123.232 Y56.98 E.65574
G1 X123.232 Y56.445 E.01595
G1 X107.162 Y72.516 E.6783
G1 X106.627 Y72.516 E.01595
G1 X123.232 Y55.911 E.70085
G1 X123.232 Y55.377 E.01595
G1 X106.093 Y72.516 E.7234
G1 X105.559 Y72.516 E.01595
G1 X123.232 Y54.843 E.74595
G1 X123.232 Y54.308 E.01595
G1 X105.024 Y72.516 E.7685
G1 X104.49 Y72.516 E.01595
G1 X123.232 Y53.774 E.79105
G1 X123.232 Y53.24 E.01595
G1 X103.956 Y72.516 E.8136
G1 X103.421 Y72.516 E.01595
G1 X123.232 Y52.705 E.83615
G1 X123.232 Y52.171 E.01595
G1 X102.887 Y72.516 E.8587
G1 X102.353 Y72.516 E.01595
G1 X123.232 Y51.637 E.88125
G1 X123.232 Y51.102 E.01595
G1 X101.818 Y72.516 E.90381
G1 X101.284 Y72.516 E.01595
G1 X123.232 Y50.568 E.92636
G1 X123.232 Y50.034 E.01595
G1 X100.75 Y72.516 E.94891
G1 X100.216 Y72.516 E.01595
G1 X123.232 Y49.499 E.97146
G1 X123.232 Y48.965 E.01595
G1 X99.681 Y72.516 E.99401
G1 X99.147 Y72.516 E.01595
G1 X123.232 Y48.431 E1.01656
G1 X123.232 Y47.897 E.01595
G1 X98.613 Y72.516 E1.03911
G1 X98.078 Y72.516 E.01595
G1 X123.232 Y47.362 E1.06166
G1 X123.232 Y46.828 E.01595
G1 X97.544 Y72.516 E1.08421
G1 X97.01 Y72.516 E.01595
G1 X123.232 Y46.294 E1.10677
G1 X123.232 Y45.759 E.01595
G1 X96.475 Y72.516 E1.12932
G1 X95.941 Y72.516 E.01595
G1 X123.232 Y45.225 E1.15187
G1 X123.232 Y44.691 E.01595
G1 X95.407 Y72.516 E1.17442
G1 X95.377 Y72.516 E.0009
G1 X95.377 Y72.012 E.01504
G1 X122.728 Y44.66 E1.15442
G1 X122.194 Y44.66 E.01595
G1 X95.377 Y71.478 E1.13187
G1 X95.377 Y70.944 E.01595
G1 X121.66 Y44.66 E1.10932
G1 X121.126 Y44.66 E.01595
G1 X95.377 Y70.409 E1.08677
G1 X95.377 Y69.875 E.01595
G1 X120.591 Y44.66 E1.06422
G1 X120.057 Y44.66 E.01595
G1 X95.377 Y69.341 E1.04167
G1 X95.377 Y68.806 E.01595
G1 X119.523 Y44.66 E1.01912
G1 X118.988 Y44.66 E.01595
G1 X95.377 Y68.272 E.99656
G1 X95.377 Y67.738 E.01595
M73 P6 R22
M73 P6 R22
G1 X118.454 Y44.66 E.97401
G1 X117.92 Y44.66 E.01595
G1 X95.377 Y67.204 E.95146
G1 X95.377 Y66.669 E.01595
G1 X117.385 Y44.66 E.92891
G1 X116.851 Y44.66 E.01595
G1 X95.377 Y66.135 E.90636
G1 X95.377 Y65.601 E.01595
G1 X116.317 Y44.66 E.88381
G1 X115.782 Y44.66 E.01595
G1 X95.377 Y65.066 E.86126
G1 X95.377 Y64.532 E.01595
G1 X115.248 Y44.66 E.83871
G1 X114.714 Y44.66 E.01595
G1 X95.377 Y63.998 E.81616
G1 X95.377 Y63.463 E.01595
G1 X114.18 Y44.66 E.79361
G1 X113.645 Y44.66 E.01595
G1 X95.377 Y62.929 E.77105
G1 X95.377 Y62.395 E.01595
G1 X113.111 Y44.66 E.7485
G1 X112.577 Y44.66 E.01595
G1 X95.377 Y61.861 E.72595
G1 X95.377 Y61.326 E.01595
G1 X112.042 Y44.66 E.7034
G1 X111.508 Y44.66 E.01595
G1 X95.377 Y60.792 E.68085
G1 X95.377 Y60.258 E.01595
G1 X110.974 Y44.66 E.6583
G1 X110.439 Y44.66 E.01595
G1 X95.377 Y59.723 E.63575
G1 X95.377 Y59.189 E.01595
