;TIME:757.53
;Filament used:1.62324m
;Layer height:0.200
; HEADER_BLOCK_START
; generated by Creality_Print V6.0.4.1793 on 2025-03-05 at 22:41:08
; total layer number: 25
; filament_density: 1.24
; filament_diameter: 1.75
; max_z_height: 5.00
; HEADER_BLOCK_END

; MINX = 100.00
; MINY = 69.25
; MINZ = 0.00
; MAXX = 120.00
; MAXY = 150.75
; MAXZ = 5.00

; THUMBNAIL_BLOCK_START

;
; THUMBNAIL_BLOCK_END

; THUMBNAIL_BLOCK_START

;
; THUMBNAIL_BLOCK_END

; external perimeters extrusion width = 0.42mm
; perimeters extrusion width = 0.45mm
; infill extrusion width = 0.45mm
; solid infill extrusion width = 0.42mm
; top infill extrusion width = 0.42mm
; first layer extrusion width = 0.50mm

; EXECUTABLE_BLOCK_START
M73 P0 R12
M201 X5000 Y5000 Z500 E5000
M203 X500 Y500 Z30 E100
M204 P5000 R2500 T5000 ; sets acceleration (P, T) and retract acceleration (R), mm/sec^2
M205 X10.00 Y10.00 Z0.40 E5.00 ; sets the jerk limits, mm/sec
;TYPE:Custom
M220 S100 ;Reset Feedrate 
M221 S100 ;Reset Flowrate 
 
M140 S60 ;Set final bed temp 
G28 ;Home 
 
G92 E0 ;Reset Extruder 
G1 Z2.0 F3000 ;Move Z Axis up 
M104 S205 ;Set final nozzle temp 
G1 X-2.1 Y20 Z0.28 F5000.0 ;Move to start position 
M190 S60 ;Wait for bed temp to stabilize 
M109 S205 ;Wait for nozzle temp to stabilize 
G1 X-2.1 Y145.0 Z0.28 F1500.0 E15 ;Draw the first line 
G1 X-2.4 Y145.0 Z0.28 F5000.0 ;Move to side a little 
G1 X-2.4 Y20 Z0.28 F1500.0 E30 ;Draw the second line 
G92 E0  ;Reset Extruder 
G1 E-1.0000 F1800 ;Retract a bit 
M73 P1 R12
M73 P1 R12
G1 Z2.0 F3000 ;Move Z Axis up 
G1 E0.0000 F1800
G90
G21
M83 ; use relative distances for extrusion
" "
G1 E-1.2 F2400
M106 S0
;LAYER_CHANGE
;Z:0.2
;HEIGHT:0.2
;BEFORE_LAYER_CHANGE
;0.2
G92 E0

;_SET_FAN_SPEED_CHANGING_LAYER
M204 P500
M205 X10 Y10
M204 T500
G1 Z.4 F9000
G1 X80.405 Y65.139
G1 Z.2
G1 E1.2 F1800
;TYPE:Skirt
;WIDTH:0.5
G1 F3000
G1 X81.587 Y61.182 E.14912
G1 X83.508 Y57.526 E.14912
G1 X86.097 Y54.308 E.14912
G1 X89.256 Y51.648 E.14912
G1 X92.868 Y49.646 E.14912
G1 X96.798 Y48.375 E.14912
G1 X101.377 Y47.879 E.16629
G1 X120 Y47.879 E.67241
G1 X124.111 Y48.278 E.14912
G1 X128.068 Y49.46 E.14912
G1 X131.724 Y51.381 E.14912
G1 X134.942 Y53.97 E.14912
G1 X137.602 Y57.129 E.14912
G1 X139.604 Y60.741 E.14912
G1 X140.875 Y64.671 E.14912
G1 X141.371 Y69.25 E.16629
G1 X141.371 Y150.75 E2.94264
G1 X140.972 Y154.861 E.14912
G1 X139.79 Y158.818 E.14912
G1 X137.869 Y162.474 E.14912
M73 P2 R12
M73 P2 R12
G1 X135.28 Y165.692 E.14912
G1 X132.121 Y168.352 E.14912
G1 X128.509 Y170.354 E.14912
G1 X124.579 Y171.625 E.14912
G1 X120 Y172.121 E.16629
G1 X101.377 Y172.121 E.67241
G1 X97.266 Y171.722 E.14912
G1 X93.309 Y170.54 E.14912
G1 X89.653 Y168.619 E.14912
G1 X86.435 Y166.03 E.14912
G1 X83.775 Y162.871 E.14912
G1 X81.772 Y159.259 E.14912
G1 X80.502 Y155.329 E.14912
G1 X80.006 Y150.75 E.16629
G1 X80.006 Y69.25 E2.94264
G1 X80.401 Y65.179 E.14767
G1 X80.858 Y65.224 F9000
G1 F3000
G1 X80.862 Y65.184 E.00145
G1 X82.044 Y61.273 E.14751
G1 X83.963 Y57.667 E.14751
G1 X86.547 Y54.502 E.14751
G1 X89.698 Y51.901 E.14751
G1 X93.293 Y49.961 E.14751
G1 X97.197 Y48.758 E.14751
G1 X101.377 Y48.336 E.15167
G1 X120 Y48.336 E.67241
G1 X124.066 Y48.735 E.14751
G1 X127.977 Y49.917 E.14751
G1 X131.583 Y51.836 E.14751
G1 X134.748 Y54.421 E.14751
G1 X137.349 Y57.571 E.14751
G1 X139.289 Y61.166 E.14751
G1 X140.492 Y65.071 E.14751
G1 X140.914 Y69.25 E.15167
G1 X140.914 Y150.75 E2.94264
G1 X140.515 Y154.816 E.14751
G1 X139.333 Y158.727 E.14751
G1 X137.414 Y162.333 E.14751
G1 X134.829 Y165.498 E.14751
G1 X131.679 Y168.099 E.14751
G1 X128.084 Y170.039 E.14751
G1 X124.179 Y171.242 E.14751
G1 X120 Y171.664 E.15167
G1 X101.377 Y171.664 E.67241
G1 X97.311 Y171.265 E.14751
M73 P3 R12
M73 P3 R12
G1 X93.4 Y170.083 E.14751
G1 X89.794 Y168.164 E.14751
G1 X86.629 Y165.579 E.14751
G1 X84.028 Y162.429 E.14751
G1 X82.088 Y158.834 E.14751
G1 X80.885 Y154.929 E.14751
G1 X80.463 Y150.75 E.15167
G1 X80.463 Y69.25 E2.94264
G1 X80.854 Y65.264 E.14462
G1 X81.311 Y65.309 F9000
G1 F3000
G1 X81.319 Y65.229 E.0029
G1 X82.5 Y61.365 E.14589
G1 X84.418 Y57.809 E.14589
G1 X86.998 Y54.699 E.14589
G1 X90.138 Y52.157 E.14589
G1 X93.717 Y50.281 E.14589
G1 X97.595 Y49.146 E.14589
G1 X101.377 Y48.793 E.13716
G1 X120 Y48.793 E.67241
G1 X124.021 Y49.192 E.14589
G1 X127.885 Y50.373 E.14589
G1 X131.441 Y52.291 E.14589
G1 X134.551 Y54.871 E.14589
G1 X137.093 Y58.011 E.14589
G1 X138.969 Y61.59 E.14589
G1 X140.104 Y65.468 E.14589
G1 X140.457 Y69.25 E.13716
G1 X140.457 Y150.75 E2.94264
G1 X140.058 Y154.771 E.14589
G1 X138.877 Y158.635 E.14589
G1 X136.959 Y162.191 E.14589
G1 X134.379 Y165.301 E.14589
G1 X131.239 Y167.843 E.14589
G1 X127.66 Y169.719 E.14589
G1 X123.782 Y170.854 E.14589
G1 X120 Y171.207 E.13716
G1 X101.377 Y171.207 E.67241
G1 X97.356 Y170.808 E.14589
G1 X93.492 Y169.627 E.14589
G1 X89.936 Y167.709 E.14589
G1 X86.826 Y165.129 E.14589
G1 X84.284 Y161.989 E.14589
G1 X82.408 Y158.41 E.14589
G1 X81.272 Y154.532 E.14589
G1 X80.92 Y150.75 E.13716
G1 X80.92 Y69.25 E2.94264
G1 X81.307 Y65.349 E.14154
M73 P4 R12
; printing object aleta.STL id:8171063952611762432 copy 0
M73 P4 R12
G1 E-1.2 F2400
;WIPE_START
G1 F9000
G1 X81.319 Y65.229
G1 X81.868 Y63.432
;WIPE_END
G1 X83.628 Y70.859 Z.6
G1 X102.234 Y149.393 Z.6
G1 Z.2
G1 E1.2 F1800
;TYPE:Inner wall
;WIDTH:0.499999
G1 X102.234 Y70.107 E2.86269
G1 X119.143 Y70.107 E.61051
G1 X119.143 Y149.893 E2.88074
G1 X102.234 Y149.893 E.61051
M73 P5 R11
M73 P5 R11
G1 X102.234 Y149.433 E.01661
G1 E-1.2 F2400
;WIPE_START
G1 F9000
G1 X102.234 Y147.433
;WIPE_END
G1 X101.777 Y150.35 Z.6
G1 Z.2
G1 E1.2 F1800
;TYPE:Outer wall
G1 X101.777 Y69.65 E2.91375
G1 X119.6 Y69.65 E.64352
G1 X119.6 Y150.35 E2.91375
G1 X101.817 Y150.35 E.64208
M73 P6 R11
M73 P6 R11
G1 E-1.2 F2400
;WIPE_START
G1 F9000
G1 X101.816 Y148.35
;WIPE_END
G1 Z.6
G1 X119.006 Y71.174
G1 Z.6
G1 Z.2
G1 E1.2 F1800
;TYPE:Bottom surface
;WIDTH:0.502719
G1 F4800
G1 X118.282 Y70.45 E.03719
G1 X117.631 Y70.45 E.02362
G1 X118.8 Y71.619 E.06003
G1 X118.8 Y72.269 E.02362
G1 X116.981 Y70.45 E.09343
G1 X116.331 Y70.45 E.02362
G1 X118.8 Y72.919 E.12683
G1 X118.8 Y73.569 E.02362
G1 X115.681 Y70.45 E.16023
G1 X115.03 Y70.45 E.02362
G1 X118.8 Y74.22 E.19363
G1 X118.8 Y74.87 E.02362
G1 X114.38 Y70.45 E.22703
G1 X113.73 Y70.45 E.02362
G1 X118.8 Y75.52 E.26043
G1 X118.8 Y76.17 E.02362
G1 X113.08 Y70.45 E.29383
G1 X112.429 Y70.45 E.02362
G1 X118.8 Y76.821 E.32723
G1 X118.8 Y77.471 E.02362
G1 X111.779 Y70.45 E.36063
G1 X111.129 Y70.45 E.02362
G1 X118.8 Y78.121 E.39403
G1 X118.8 Y78.771 E.02362
G1 X110.479 Y70.45 E.42743
G1 X109.828 Y70.45 E.02362
G1 X118.8 Y79.422 E.46083
G1 X118.8 Y80.072 E.02362
G1 X109.178 Y70.45 E.49423
G1 X108.528 Y70.45 E.02362
G1 X118.8 Y80.722 E.52763
G1 X118.8 Y81.372 E.02362
G1 X107.878 Y70.45 E.56104
G1 X107.227 Y70.45 E.02362
G1 X118.8 Y82.023 E.59444
G1 X118.8 Y82.673 E.02362
G1 X106.577 Y70.45 E.62784
G1 X105.927 Y70.45 E.02362
G1 X118.8 Y83.323 E.66124
G1 X118.8 Y83.973 E.02362
G1 X105.277 Y70.45 E.69464
M73 P7 R11
M73 P7 R11
G1 X104.626 Y70.45 E.02362
G1 X118.8 Y84.624 E.72804
G1 X118.8 Y85.274 E.02362
G1 X103.976 Y70.45 E.76144
G1 X103.326 Y70.45 E.02362
G1 X118.8 Y85.924 E.79484
G1 X118.8 Y86.574 E.02362
G1 X102.676 Y70.45 E.82824
G1 X102.577 Y70.45 E.00359
G1 X102.577 Y71.001 E.02003
G1 X118.8 Y87.225 E.83332
G1 X118.8 Y87.875 E.02362
G1 X102.577 Y71.652 E.83332
G1 X102.577 Y72.302 E.02362
G1 X118.8 Y88.525 E.83332
G1 X118.8 Y89.175 E.02362
G1 X102.577 Y72.952 E.83332
G1 X102.577 Y73.602 E.02362
G1 X118.8 Y89.826 E.83332
G1 X118.8 Y90.476 E.02362
G1 X102.577 Y74.253 E.83332
G1 X102.577 Y74.903 E.02362
G1 X118.8 Y91.126 E.83332
G1 X118.8 Y91.776 E.02362
G1 X102.577 Y75.553 E.83332
G1 X102.577 Y76.203 E.02362
G1 X118.8 Y92.427 E.83332
G1 X118.8 Y93.077 E.02362
G1 X102.577 Y76.854 E.83332
G1 X102.577 Y77.504 E.02362
G1 X118.8 Y93.727 E.83332
G1 X118.8 Y94.377 E.02362
G1 X102.577 Y78.154 E.83332
G1 X102.577 Y78.804 E.02362
G1 X118.8 Y95.028 E.83332
G1 X118.8 Y95.678 E.02362
M73 P8 R11
M73 P8 R11
G1 X102.577 Y79.455 E.83332
G1 X102.577 Y80.105 E.02362
G1 X118.8 Y96.328 E.83332
G1 X118.8 Y96.978 E.02362
G1 X102.577 Y80.755 E.83332
G1 X102.577 Y81.405 E.02362
G1 X118.8 Y97.629 E.83332
G1 X118.8 Y98.279 E.02362
G1 X102.577 Y82.056 E.83332
G1 X102.577 Y82.706 E.02362
G1 X118.8 Y98.929 E.83332
G1 X118.8 Y99.579 E.02362
G1 X102.577 Y83.356 E.83332
G1 X102.577 Y84.006 E.02362
G1 X118.8 Y100.23 E.83332
G1 X118.8 Y100.88 E.02362
G1 X102.577 Y84.657 E.83332
G1 X102.577 Y85.307 E.02362
G1 X118.8 Y101.53 E.83332
G1 X118.8 Y102.18 E.02362
G1 X102.577 Y85.957 E.83332
G1 X102.577 Y86.607 E.02362
G1 X118.8 Y102.831 E.83332
G1 X118.8 Y103.481 E.02362
G1 X102.577 Y87.258 E.83332
G1 X102.577 Y87.908 E.02362
G1 X118.8 Y104.131 E.83332
G1 X118.8 Y104.781 E.02362
G1 X102.577 Y88.558 E.83332
G1 X102.577 Y89.208 E.02362
G1 X118.8 Y105.432 E.83332
G1 X118.8 Y106.082 E.02362
G1 X102.577 Y89.859 E.83332
G1 X102.577 Y90.509 E.02362
M73 P9 R11
M73 P9 R11
G1 X118.8 Y106.732 E.83332
G1 X118.8 Y107.382 E.02362
G1 X102.577 Y91.159 E.83332
G1 X102.577 Y91.809 E.02362
G1 X118.8 Y108.033 E.83332
G1 X118.8 Y108.683 E.02362
G1 X102.577 Y92.46 E.83332
G1 X102.577 Y93.11 E.02362
G1 X118.8 Y109.333 E.83332
G1 X118.8 Y109.983 E.02362
G1 X102.577 Y93.76 E.83332
G1 X102.577 Y94.41 E.02362
G1 X118.8 Y110.634 E.83332
G1 X118.8 Y111.284 E.02362
G1 X102.577 Y95.061 E.83332
G1 X102.577 Y95.711 E.02362
G1 X118.8 Y111.934 E.83332
G1 X118.8 Y112.585 E.02362
G1 X102.577 Y96.361 E.83332
G1 X102.577 Y97.011 E.02362
G1 X118.8 Y113.235 E.83332
G1 X118.8 Y113.885 E.02362
G1 X102.577 Y97.662 E.83332
G1 X102.577 Y98.312 E.02362
G1 X118.8 Y114.535 E.83332
G1 X118.8 Y115.186 E.02362
G1 X102.577 Y98.962 E.83332
G1 X102.577 Y99.612 E.02362
G1 X118.8 Y115.836 E.83332
G1 X118.8 Y116.486 E.02362
G1 X102.577 Y100.263 E.83332
G1 X102.577 Y100.913 E.02362
G1 X118.8 Y117.136 E.83332
G1 X118.8 Y117.787 E.02362
M73 P10 R11
M73 P10 R11
G1 X102.577 Y101.563 E.83332
G1 X102.577 Y102.213 E.02362
G1 X118.8 Y118.437 E.83332
G1 X118.8 Y119.087 E.02362
G1 X102.577 Y102.864 E.83332
G1 X102.577 Y103.514 E.02362
G1 X118.8 Y119.737 E.83332
G1 X118.8 Y120.388 E.02362
G1 X102.577 Y104.164 E.83332
G1 X102.577 Y104.814 E.02362
G1 X118.8 Y121.038 E.83332
G1 X118.8 Y121.688 E.02362
G1 X102.577 Y105.465 E.83332
G1 X102.577 Y106.115 E.02362
G1 X118.8 Y122.338 E.83332
G1 X118.8 Y122.989 E.02362
G1 X102.577 Y106.765 E.83332
G1 X102.577 Y107.415 E.02362
G1 X118.8 Y123.639 E.83332
G1 X118.8 Y124.289 E.02362
G1 X102.577 Y108.066 E.83332
G1 X102.577 Y108.716 E.02362
G1 X118.8 Y124.939 E.83332
G1 X118.8 Y125.59 E.02362
G1 X102.577 Y109.366 E.83332
G1 X102.577 Y110.016 E.02362
G1 X118.8 Y126.24 E.83332
G1 X118.8 Y126.89 E.02362
G1 X102.577 Y110.667 E.83332
G1 X102.577 Y111.317 E.02362
G1 X118.8 Y127.54 E.83332
G1 X118.8 Y128.191 E.02362
G1 X102.577 Y111.967 E.83332
G1 X102.577 Y112.618 E.02362
G1 X118.8 Y128.841 E.83332
M73 P11 R11
M73 P11 R11
G1 X118.8 Y129.491 E.02362
G1 X102.577 Y113.268 E.83332
G1 X102.577 Y113.918 E.02362
G1 X118.8 Y130.141 E.83332
G1 X118.8 Y130.792 E.02362
G1 X102.577 Y114.568 E.83332
G1 X102.577 Y115.219 E.02362
G1 X118.8 Y131.442 E.83332
G1 X118.8 Y132.092 E.02362
G1 X102.577 Y115.869 E.83332
G1 X102.577 Y116.519 E.02362
G1 X118.8 Y132.742 E.83332
G1 X118.8 Y133.393 E.02362
G1 X102.577 Y117.169 E.83332
G1 X102.577 Y117.82 E.02362
G1 X118.8 Y134.043 E.83332
G1 X118.8 Y134.693 E.02362
G1 X102.577 Y118.47 E.83332
G1 X102.577 Y119.12 E.02362
G1 X118.8 Y135.343 E.83332
G1 X118.8 Y135.994 E.02362
G1 X102.577 Y119.77 E.83332
G1 X102.577 Y120.421 E.02362
G1 X118.8 Y136.644 E.83332
G1 X118.8 Y137.294 E.02362
G1 X102.577 Y121.071 E.83332
G1 X102.577 Y121.721 E.02362
G1 X118.8 Y137.944 E.83332
G1 X118.8 Y138.595 E.02362
G1 X102.577 Y122.371 E.83332
G1 X102.577 Y123.022 E.02362
G1 X118.8 Y139.245 E.83332
G1 X118.8 Y139.895 E.02362
G1 X102.577 Y123.672 E.83332
G1 X102.577 Y124.322 E.02362
M73 P12 R11
M73 P12 R11
G1 X118.8 Y140.545 E.83332
G1 X118.8 Y141.196 E.02362
G1 X102.577 Y124.972 E.83332
G1 X102.577 Y125.623 E.02362
G1 X118.8 Y141.846 E.83332
G1 X118.8 Y142.496 E.02362
G1 X102.577 Y126.273 E.83332
G1 X102.577 Y126.923 E.02362
G1 X118.8 Y143.146 E.83332
G1 X118.8 Y143.797 E.02362
G1 X102.577 Y127.573 E.83332
G1 X102.577 Y128.224 E.02362
G1 X118.8 Y144.447 E.83332
G1 X118.8 Y145.097 E.02362
G1 X102.577 Y128.874 E.83332
G1 X102.577 Y129.524 E.02362
G1 X118.8 Y145.747 E.83332
G1 X118.8 Y146.398 E.02362
G1 X102.577 Y130.174 E.83332
G1 X102.577 Y130.825 E.02362
G1 X118.8 Y147.048 E.83332
G1 X118.8 Y147.698 E.02362
G1 X102.577 Y131.475 E.83332
G1 X102.577 Y132.125 E.02362
G1 X118.8 Y148.348 E.83332
G1 X118.8 Y148.999 E.02362
G1 X102.577 Y132.775 E.83332
G1 X102.577 Y133.426 E.02362
G1 X118.701 Y149.55 E.82824
G1 X118.051 Y149.55 E.02362
G1 X102.577 Y134.076 E.79484
G1 X102.577 Y134.726 E.02362
M73 P12 R10
M73 P12 R10
G1 X117.401 Y149.55 E.76144
G1 X116.75 Y149.55 E.02362
M73 P13 R10
M73 P13 R10
G1 X102.577 Y135.376 E.72804
G1 X102.577 Y136.027 E.02362
G1 X116.1 Y149.55 E.69464
G1 X115.45 Y149.55 E.02362
G1 X102.577 Y136.677 E.66124
G1 X102.577 Y137.327 E.02362
G1 X114.8 Y149.55 E.62784
G1 X114.149 Y149.55 E.02362
G1 X102.577 Y137.977 E.59444
G1 X102.577 Y138.628 E.02362
G1 X113.499 Y149.55 E.56104
G1 X112.849 Y149.55 E.02362
G1 X102.577 Y139.278 E.52764
G1 X102.577 Y139.928 E.02362
G1 X112.199 Y149.55 E.49423
G1 X111.548 Y149.55 E.02362
G1 X102.577 Y140.578 E.46083
G1 X102.577 Y141.229 E.02362
G1 X110.898 Y149.55 E.42743
G1 X110.248 Y149.55 E.02362
G1 X102.577 Y141.879 E.39403
G1 X102.577 Y142.529 E.02362
G1 X109.598 Y149.55 E.36063
G1 X108.947 Y149.55 E.02362
G1 X102.577 Y143.179 E.32723
G1 X102.577 Y143.83 E.02362
G1 X108.297 Y149.55 E.29383
G1 X107.647 Y149.55 E.02362
G1 X102.577 Y144.48 E.26043
G1 X102.577 Y145.13 E.02362
G1 X106.997 Y149.55 E.22703
G1 X106.346 Y149.55 E.02362
G1 X102.577 Y145.78 E.19363
G1 X102.577 Y146.431 E.02362
G1 X105.696 Y149.55 E.16023
G1 X105.046 Y149.55 E.02362
G1 X102.577 Y147.081 E.12683
G1 X102.577 Y147.731 E.02362
G1 X104.396 Y149.55 E.09343
G1 X103.745 Y149.55 E.02362
G1 X102.577 Y148.381 E.06003
G1 X102.577 Y149.032 E.02362
G1 X103.301 Y149.756 E.03719
; stop printing object aleta.STL id:8171063952611762432 copy 0
;TIME_ELAPSED:104.698830

M106 S255
;LAYER_CHANGE
;Z:0.4
;HEIGHT:0.2
;BEFORE_LAYER_CHANGE
;0.4
G92 E0

G1 E-1.2 F2400
;WIPE_START
G1 F9000
G1 X102.577 Y149.032
G1 X102.577 Y148.381
G1 X102.807 Y148.612
;WIPE_END
;_SET_FAN_SPEED_CHANGING_LAYER
M204 P2500
; printing object aleta.STL id:8171063952611762432 copy 0
M204 T2500
G1 X104.389 Y141.145 Z.6
G1 X119.398 Y70.302 Z.6
G1 Z.4
G1 E1.2 F1800
M204 P2000
;TYPE:Inner wall
;WIDTH:0.449999
G1 F5400
G1 X119.398 Y150.148 E2.56755
G1 X103.854 Y150.148 E.49982
M73 P14 R10
M73 P14 R10
G1 X103.854 Y140.368 E.3145
G1 X103.803 Y140.233 E.00464
G1 X103.651 Y140.164 E.00537
G1 X101.56 Y140.164 E.06722
G1 X101.56 Y79.836 E1.93992
G1 X103.659 Y79.836 E.06748
G1 X103.798 Y79.781 E.00481
G1 X103.862 Y79.632 E.00521
G1 X103.862 Y69.852 E.3145
G1 X119.398 Y69.852 E.49956
G1 X119.398 Y70.262 E.01318
G1 X119.79 Y69.46 F9000
M204 P1000
;TYPE:Outer wall
;WIDTH:0.419999
G1 F3600
G1 X119.79 Y150.54 E2.41509
G1 X119.16 Y150.54 E.01877
G1 X102.217 Y150.54 E.50467
G1 X101.377 Y150.54 E.02502
G1 F3000
G1 X101.177 Y150.54 E.00596
M204 P500
;TYPE:Overhang wall
G1 X101.177 Y69.46 E2.41509
M204 P1000
;TYPE:Outer wall
G1 X101.377 Y69.46 E.00596
M106 S255
G1 F3600
G1 X102.217 Y69.46 E.02502
G1 X119.12 Y69.46 E.50348
G1 X119.75 Y69.46 E.01877
G1 E-1.2 F2400
;WIPE_START
G1 F9000
G1 X119.751 Y71.46
;WIPE_END
G1 Z.8
G1 X104.25 Y70.182
G1 Z.8
G1 Z.4
G1 E1.2 F1800
M204 P2500
;TYPE:Internal solid infill
;WIDTH:0.38292
G1 F10800
G1 X104.186 Y70.218 E.00198
G1 X104.251 Y70.253 E.00198
G1 E-1.2 F2400
;WIPE_START
G1 F9000
G1 X104.186 Y70.218
G1 X104.25 Y70.182
;WIPE_END
G1 X101.582 Y69.544 Z.8
G1 Z.4
G1 E1.2 F1800
M204 P500
;TYPE:Bridge
;WIDTH:0.401146
G1 F3000
G1 X101.582 Y79.576 E.28386
G1 X101.94 Y79.576 E.01014
G1 X101.94 Y79.429 E.00414
G1 X102.298 Y79.429 E.01014
G1 X102.298 Y79.737 E.00871
