;TIME:2980.17
;Filament used:6.48708m
;Layer height:0.200
; HEADER_BLOCK_START
; generated by Creality_Print V6.0.4.1793 on 2025-03-08 at 13:02:20
; total layer number: 100
; filament_density: 1.24
; filament_diameter: 1.75
; max_z_height: 5.00
; HEADER_BLOCK_END

; MINX = 14.25
; MINY = 14.25
; MINZ = 0.00
; MAXX = 205.75
; MAXY = 205.75
; MAXZ = 5.00

; THUMBNAIL_BLOCK_START

;
; THUMBNAIL_BLOCK_END

; THUMBNAIL_BLOCK_START

;
; THUMBNAIL_BLOCK_END

; external perimeters extrusion width = 0.42mm
; perimeters extrusion width = 0.45mm
; infill extrusion width = 0.45mm
; solid infill extrusion width = 0.42mm
; top infill extrusion width = 0.42mm
; first layer extrusion width = 0.50mm

; external perimeters extrusion width = 0.42mm
; perimeters extrusion width = 0.45mm
; infill extrusion width = 0.45mm
; solid infill extrusion width = 0.42mm
; top infill extrusion width = 0.42mm
; first layer extrusion width = 0.50mm

; external perimeters extrusion width = 0.42mm
; perimeters extrusion width = 0.45mm
; infill extrusion width = 0.45mm
; solid infill extrusion width = 0.42mm
; top infill extrusion width = 0.42mm
; first layer extrusion width = 0.50mm

; external perimeters extrusion width = 0.42mm
; perimeters extrusion width = 0.45mm
; infill extrusion width = 0.45mm
; solid infill extrusion width = 0.42mm
; top infill extrusion width = 0.42mm
; first layer extrusion width = 0.50mm

; EXECUTABLE_BLOCK_START
M73 P0 R49
M201 X5000 Y5000 Z500 E5000
M203 X500 Y500 Z30 E100
M204 P5000 R2500 T5000 ; sets acceleration (P, T) and retract acceleration (R), mm/sec^2
M205 X10.00 Y10.00 Z0.40 E5.00 ; sets the jerk limits, mm/sec
;TYPE:Custom
M220 S100 ;Reset Feedrate 
M221 S100 ;Reset Flowrate 
 
M140 S60 ;Set final bed temp 
G28 ;Home 
 
G92 E0 ;Reset Extruder 
G1 Z2.0 F3000 ;Move Z Axis up 
M104 S205 ;Set final nozzle temp 
G1 X-2.1 Y20 Z0.28 F5000.0 ;Move to start position 
M190 S60 ;Wait for bed temp to stabilize 
M109 S205 ;Wait for nozzle temp to stabilize 
G1 X-2.1 Y145.0 Z0.28 F1500.0 E15 ;Draw the first line 
G1 X-2.4 Y145.0 Z0.28 F5000.0 ;Move to side a little 
G1 X-2.4 Y20 Z0.28 F1500.0 E30 ;Draw the second line 
G92 E0  ;Reset Extruder 
G1 E-1.0000 F1800 ;Retract a bit 
G1 Z2.0 F3000 ;Move Z Axis up 
G1 E0.0000 F1800
G90
G21
M83 ; use relative distances for extrusion
" "
G1 E-1.2 F2400
M106 S0
;LAYER_CHANGE
;Z:0.2
;HEIGHT:0.2
;BEFORE_LAYER_CHANGE
;0.2
G92 E0

;_SET_FAN_SPEED_CHANGING_LAYER
M204 P500
M205 X10 Y10
M204 T500
G1 Z.4 F9000
G1 X5.926 Y5.381
G1 Z.2
G1 E1.2 F1800
;TYPE:Skirt
;WIDTH:0.5
G1 F3000
G1 X8.388 Y3.28 E.11685
G1 X11.288 Y1.844 E.11685
G1 X15.626 Y1.107 E.15889
G1 X34.25 Y1.107 E.67241
G1 X37.461 Y1.505 E.11685
G1 X40.478 Y2.677 E.11685
G1 X43.118 Y4.55 E.11685
G1 X45.219 Y7.011 E.11685
G1 X46.655 Y9.911 E.11685
G1 X47.392 Y14.25 E.15889
G1 X47.392 Y95.75 E2.94264
G1 X46.994 Y98.961 E.11685
G1 X45.822 Y101.978 E.11685
G1 X43.949 Y104.618 E.11685
G1 X41.488 Y106.719 E.11685
G1 X38.588 Y108.155 E.11685
G1 X34.25 Y108.892 E.15889
G1 X15.626 Y108.892 E.67241
G1 X12.415 Y108.494 E.11685
G1 X9.398 Y107.322 E.11685
G1 X6.758 Y105.449 E.11685
G1 X4.657 Y102.988 E.11685
G1 X3.22 Y100.088 E.11685
G1 X2.484 Y95.75 E.15889
G1 X2.484 Y14.25 E2.94264
G1 X2.882 Y11.038 E.11685
G1 X4.053 Y8.021 E.11685
G1 X5.903 Y5.414 E.11541
G1 X6.287 Y5.692 F9000
G1 F3000
G1 X6.378 Y5.567 E.00562
G1 X8.827 Y3.54 E.11479
G1 X11.704 Y2.186 E.11479
G1 X15.626 Y1.564 E.14339
G1 X34.25 Y1.564 E.67241
G1 X37.404 Y1.962 E.11479
G1 X40.36 Y3.133 E.11479
G1 X42.932 Y5.001 E.11479
G1 X44.959 Y7.451 E.11479
G1 X46.314 Y10.327 E.11479
G1 X46.935 Y14.25 E.14339
G1 X46.935 Y95.75 E2.94264
G1 X46.537 Y98.904 E.11479
G1 X45.366 Y101.86 E.11479
G1 X43.498 Y104.432 E.11479
G1 X41.048 Y106.459 E.11479
G1 X38.172 Y107.814 E.11479
G1 X34.25 Y108.435 E.14339
G1 X15.626 Y108.435 E.67241
G1 X12.472 Y108.037 E.11479
G1 X9.516 Y106.866 E.11479
G1 X6.944 Y104.998 E.11479
G1 X4.917 Y102.548 E.11479
G1 X3.562 Y99.672 E.11479
G1 X2.941 Y95.75 E.14339
G1 X2.941 Y14.25 E2.94264
G1 X3.339 Y11.095 E.11479
G1 X4.509 Y8.139 E.11479
G1 X6.263 Y5.725 E.10774
G1 X6.642 Y6.007 F9000
G1 F3000
G1 X6.829 Y5.756 E.01131
G1 X9.266 Y3.805 E.1127
G1 X12.117 Y2.535 E.1127
G1 X15.626 Y2.021 E.12805
G1 X34.25 Y2.021 E.67241
G1 X37.345 Y2.419 E.1127
G1 X40.239 Y3.588 E.1127
G1 X42.743 Y5.452 E.1127
G1 X44.694 Y7.889 E.1127
G1 X45.964 Y10.74 E.1127
G1 X46.478 Y14.25 E.12805
G1 X46.478 Y95.75 E2.94264
G1 X46.08 Y98.845 E.1127
G1 X44.911 Y101.739 E.1127
G1 X43.047 Y104.243 E.1127
G1 X40.61 Y106.194 E.1127
G1 X37.759 Y107.464 E.1127
G1 X34.25 Y107.978 E.12805
G1 X15.626 Y107.978 E.67241
G1 X12.531 Y107.58 E.1127
G1 X9.636 Y106.411 E.1127
G1 X7.133 Y104.547 E.1127
G1 X5.182 Y102.11 E.1127
G1 X3.912 Y99.259 E.1127
G1 X3.398 Y95.75 E.12805
G1 X3.398 Y14.25 E2.94264
G1 X3.796 Y11.154 E.1127
G1 X4.965 Y8.26 E.1127
G1 X6.618 Y6.039 E.09995
; printing object aleta.STL id:4948450727604478048 copy 0
G1 E-1.2 F2400
;WIPE_START
G1 F9000
G1 X6.829 Y5.756
G1 X8.115 Y4.727
;WIPE_END
G1 X13.073 Y10.529 Z.6
G1 X16.983 Y15.107 Z.6
G1 Z.2
G1 E1.2 F1800
;TYPE:Inner wall
;WIDTH:0.499999
G1 X33.392 Y15.107 E.59246
G1 X33.392 Y94.892 E2.88074
G1 X16.483 Y94.892 E.61051
M73 P1 R49
M73 P1 R49
G1 X16.483 Y15.107 E2.88074
G1 X16.943 Y15.107 E.01661
G1 E-1.2 F2400
;WIPE_START
G1 F9000
G1 X18.943 Y15.107
;WIPE_END
G1 X16.026 Y14.65 Z.6
G1 Z.2
G1 E1.2 F1800
;TYPE:Outer wall
G1 X33.85 Y14.65 E.64352
G1 X33.85 Y95.35 E2.91375
G1 X16.026 Y95.35 E.64352
G1 X16.026 Y14.69 E2.91231
G1 E-1.2 F2400
M73 P1 R48
;WIPE_START
M73 P1 R48
G1 F9000
G1 X18.026 Y14.685
;WIPE_END
G1 X25.623 Y15.427 Z.6
G1 X33.255 Y16.173 Z.6
G1 Z.2
G1 E1.2 F1800
;TYPE:Bottom surface
;WIDTH:0.502719
G1 F4800
G1 X32.531 Y15.449 E.03719
G1 X31.881 Y15.449 E.02362
G1 X33.05 Y16.618 E.06003
G1 X33.05 Y17.268 E.02362
G1 X31.231 Y15.449 E.09343
G1 X30.58 Y15.449 E.02362
G1 X33.05 Y17.919 E.12683
G1 X33.05 Y18.569 E.02362
G1 X29.93 Y15.449 E.16023
G1 X29.28 Y15.449 E.02362
G1 X33.05 Y19.219 E.19363
G1 X33.05 Y19.869 E.02362
G1 X28.63 Y15.449 E.22703
G1 X27.979 Y15.449 E.02362
G1 X33.05 Y20.52 E.26043
G1 X33.05 Y21.17 E.02362
G1 X27.329 Y15.449 E.29383
G1 X26.679 Y15.449 E.02362
G1 X33.05 Y21.82 E.32723
G1 X33.05 Y22.47 E.02362
G1 X26.029 Y15.449 E.36063
G1 X25.378 Y15.449 E.02362
G1 X33.05 Y23.121 E.39403
G1 X33.05 Y23.771 E.02362
G1 X24.728 Y15.449 E.42743
G1 X24.078 Y15.449 E.02362
G1 X33.05 Y24.421 E.46083
G1 X33.05 Y25.071 E.02362
G1 X23.428 Y15.449 E.49423
G1 X22.777 Y15.449 E.02362
G1 X33.05 Y25.722 E.52763
G1 X33.05 Y26.372 E.02362
G1 X22.127 Y15.449 E.56104
G1 X21.477 Y15.449 E.02362
G1 X33.05 Y27.022 E.59444
G1 X33.05 Y27.672 E.02362
G1 X20.827 Y15.449 E.62784
G1 X20.176 Y15.449 E.02362
G1 X33.05 Y28.323 E.66124
G1 X33.05 Y28.973 E.02362
G1 X19.526 Y15.449 E.69464
G1 X18.876 Y15.449 E.02362
G1 X33.05 Y29.623 E.72804
G1 X33.05 Y30.273 E.02362
G1 X18.226 Y15.449 E.76144
G1 X17.575 Y15.449 E.02362
G1 X33.05 Y30.924 E.79484
G1 X33.05 Y31.574 E.02362
G1 X16.925 Y15.449 E.82824
G1 X16.826 Y15.449 E.00359
G1 X16.826 Y16.001 E.02003
G1 X33.05 Y32.224 E.83332
G1 X33.05 Y32.874 E.02362
G1 X16.826 Y16.651 E.83332
G1 X16.826 Y17.301 E.02362
G1 X33.05 Y33.525 E.83332
G1 X33.05 Y34.175 E.02362
G1 X16.826 Y17.952 E.83332
G1 X16.826 Y18.602 E.02362
G1 X33.05 Y34.825 E.83332
G1 X33.05 Y35.475 E.02362
G1 X16.826 Y19.252 E.83332
G1 X16.826 Y19.902 E.02362
G1 X33.05 Y36.126 E.83332
G1 X33.05 Y36.776 E.02362
G1 X16.826 Y20.553 E.83332
G1 X16.826 Y21.203 E.02362
G1 X33.05 Y37.426 E.83332
G1 X33.05 Y38.076 E.02362
G1 X16.826 Y21.853 E.83332
G1 X16.826 Y22.503 E.02362
G1 X33.05 Y38.727 E.83332
G1 X33.05 Y39.377 E.02362
G1 X16.826 Y23.154 E.83332
G1 X16.826 Y23.804 E.02362
G1 X33.05 Y40.027 E.83332
G1 X33.05 Y40.677 E.02362
G1 X16.826 Y24.454 E.83332
G1 X16.826 Y25.104 E.02362
G1 X33.05 Y41.328 E.83332
G1 X33.05 Y41.978 E.02362
G1 X16.826 Y25.755 E.83332
G1 X16.826 Y26.405 E.02362
G1 X33.05 Y42.628 E.83332
G1 X33.05 Y43.278 E.02362
G1 X16.826 Y27.055 E.83332
G1 X16.826 Y27.705 E.02362
G1 X33.05 Y43.929 E.83332
G1 X33.05 Y44.579 E.02362
G1 X16.826 Y28.356 E.83332
G1 X16.826 Y29.006 E.02362
G1 X33.05 Y45.229 E.83332
G1 X33.05 Y45.879 E.02362
M73 P2 R48
M73 P2 R48
G1 X16.826 Y29.656 E.83332
G1 X16.826 Y30.306 E.02362
G1 X33.05 Y46.53 E.83332
G1 X33.05 Y47.18 E.02362
G1 X16.826 Y30.957 E.83332
G1 X16.826 Y31.607 E.02362
G1 X33.05 Y47.83 E.83332
G1 X33.05 Y48.48 E.02362
G1 X16.826 Y32.257 E.83332
G1 X16.826 Y32.907 E.02362
G1 X33.05 Y49.131 E.83332
G1 X33.05 Y49.781 E.02362
G1 X16.826 Y33.558 E.83332
G1 X16.826 Y34.208 E.02362
G1 X33.05 Y50.431 E.83332
G1 X33.05 Y51.081 E.02362
G1 X16.826 Y34.858 E.83332
G1 X16.826 Y35.508 E.02362
G1 X33.05 Y51.732 E.83332
G1 X33.05 Y52.382 E.02362
G1 X16.826 Y36.159 E.83332
G1 X16.826 Y36.809 E.02362
G1 X33.05 Y53.032 E.83332
G1 X33.05 Y53.682 E.02362
G1 X16.826 Y37.459 E.83332
G1 X16.826 Y38.109 E.02362
G1 X33.05 Y54.333 E.83332
G1 X33.05 Y54.983 E.02362
G1 X16.826 Y38.76 E.83332
G1 X16.826 Y39.41 E.02362
G1 X33.05 Y55.633 E.83332
G1 X33.05 Y56.284 E.02362
G1 X16.826 Y40.06 E.83332
G1 X16.826 Y40.71 E.02362
G1 X33.05 Y56.934 E.83332
G1 X33.05 Y57.584 E.02362
G1 X16.826 Y41.361 E.83332
G1 X16.826 Y42.011 E.02362
G1 X33.05 Y58.234 E.83332
G1 X33.05 Y58.885 E.02362
G1 X16.826 Y42.661 E.83332
G1 X16.826 Y43.311 E.02362
G1 X33.05 Y59.535 E.83332
G1 X33.05 Y60.185 E.02362
G1 X16.826 Y43.962 E.83332
G1 X16.826 Y44.612 E.02362
G1 X33.05 Y60.835 E.83332
G1 X33.05 Y61.486 E.02362
G1 X16.826 Y45.262 E.83332
G1 X16.826 Y45.912 E.02362
G1 X33.05 Y62.136 E.83332
G1 X33.05 Y62.786 E.02362
G1 X16.826 Y46.563 E.83332
G1 X16.826 Y47.213 E.02362
G1 X33.05 Y63.436 E.83332
G1 X33.05 Y64.087 E.02362
G1 X16.826 Y47.863 E.83332
G1 X16.826 Y48.513 E.02362
G1 X33.05 Y64.737 E.83332
G1 X33.05 Y65.387 E.02362
G1 X16.826 Y49.164 E.83332
G1 X16.826 Y49.814 E.02362
G1 X33.05 Y66.037 E.83332
G1 X33.05 Y66.688 E.02362
G1 X16.826 Y50.464 E.83332
G1 X16.826 Y51.114 E.02362
G1 X33.05 Y67.338 E.83332
G1 X33.05 Y67.988 E.02362
G1 X16.826 Y51.765 E.83332
G1 X16.826 Y52.415 E.02362
G1 X33.05 Y68.638 E.83332
G1 X33.05 Y69.289 E.02362
G1 X16.826 Y53.065 E.83332
G1 X16.826 Y53.715 E.02362
G1 X33.05 Y69.939 E.83332
G1 X33.05 Y70.589 E.02362
G1 X16.826 Y54.366 E.83332
G1 X16.826 Y55.016 E.02362
G1 X33.05 Y71.239 E.83332
G1 X33.05 Y71.89 E.02362
G1 X16.826 Y55.666 E.83332
G1 X16.826 Y56.316 E.02362
G1 X33.05 Y72.54 E.83332
G1 X33.05 Y73.19 E.02362
G1 X16.826 Y56.967 E.83332
G1 X16.826 Y57.617 E.02362
G1 X33.05 Y73.84 E.83332
G1 X33.05 Y74.491 E.02362
G1 X16.826 Y58.267 E.83332
G1 X16.826 Y58.918 E.02362
G1 X33.05 Y75.141 E.83332
G1 X33.05 Y75.791 E.02362
G1 X16.826 Y59.568 E.83332
G1 X16.826 Y60.218 E.02362
G1 X33.05 Y76.441 E.83332
G1 X33.05 Y77.092 E.02362
G1 X16.826 Y60.868 E.83332
G1 X16.826 Y61.519 E.02362
G1 X33.05 Y77.742 E.83332
G1 X33.05 Y78.392 E.02362
G1 X16.826 Y62.169 E.83332
G1 X16.826 Y62.819 E.02362
G1 X33.05 Y79.042 E.83332
G1 X33.05 Y79.693 E.02362
G1 X16.826 Y63.469 E.83332
G1 X16.826 Y64.12 E.02362
G1 X33.05 Y80.343 E.83332
G1 X33.05 Y80.993 E.02362
G1 X16.826 Y64.77 E.83332
G1 X16.826 Y65.42 E.02362
G1 X33.05 Y81.643 E.83332
G1 X33.05 Y82.294 E.02362
G1 X16.826 Y66.07 E.83332
G1 X16.826 Y66.721 E.02362
G1 X33.05 Y82.944 E.83332
G1 X33.05 Y83.594 E.02362
G1 X16.826 Y67.371 E.83332
G1 X16.826 Y68.021 E.02362
G1 X33.05 Y84.244 E.83332
G1 X33.05 Y84.895 E.02362
G1 X16.826 Y68.671 E.83332
G1 X16.826 Y69.322 E.02362
G1 X33.05 Y85.545 E.83332
G1 X33.05 Y86.195 E.02362
G1 X16.826 Y69.972 E.83332
G1 X16.826 Y70.622 E.02362
G1 X33.05 Y86.845 E.83332
G1 X33.05 Y87.496 E.02362
G1 X16.826 Y71.272 E.83332
G1 X16.826 Y71.923 E.02362
G1 X33.05 Y88.146 E.83332
G1 X33.05 Y88.796 E.02362
G1 X16.826 Y72.573 E.83332
G1 X16.826 Y73.223 E.02362
G1 X33.05 Y89.446 E.83332
M73 P3 R48
M73 P3 R48
G1 X33.05 Y90.097 E.02362
G1 X16.826 Y73.873 E.83332
G1 X16.826 Y74.524 E.02362
G1 X33.05 Y90.747 E.83332
G1 X33.05 Y91.397 E.02362
G1 X16.826 Y75.174 E.83332
G1 X16.826 Y75.824 E.02362
G1 X33.05 Y92.047 E.83332
G1 X33.05 Y92.698 E.02362
G1 X16.826 Y76.474 E.83332
G1 X16.826 Y77.125 E.02362
G1 X33.05 Y93.348 E.83332
G1 X33.05 Y93.998 E.02362
G1 X16.826 Y77.775 E.83332
G1 X16.826 Y78.425 E.02362
G1 X32.951 Y94.55 E.82824
G1 X32.3 Y94.55 E.02362
G1 X16.826 Y79.075 E.79484
G1 X16.826 Y79.726 E.02362
G1 X31.65 Y94.55 E.76144
G1 X31 Y94.55 E.02362
G1 X16.826 Y80.376 E.72804
G1 X16.826 Y81.026 E.02362
G1 X30.35 Y94.55 E.69464
G1 X29.699 Y94.55 E.02362
G1 X16.826 Y81.676 E.66124
G1 X16.826 Y82.327 E.02362
G1 X29.049 Y94.55 E.62784
G1 X28.399 Y94.55 E.02362
G1 X16.826 Y82.977 E.59444
G1 X16.826 Y83.627 E.02362
G1 X27.749 Y94.55 E.56104
G1 X27.098 Y94.55 E.02362
G1 X16.826 Y84.277 E.52764
G1 X16.826 Y84.928 E.02362
G1 X26.448 Y94.55 E.49423
G1 X25.798 Y94.55 E.02362
G1 X16.826 Y85.578 E.46083
G1 X16.826 Y86.228 E.02362
G1 X25.148 Y94.55 E.42743
G1 X24.497 Y94.55 E.02362
G1 X16.826 Y86.878 E.39403
G1 X16.826 Y87.529 E.02362
G1 X23.847 Y94.55 E.36063
G1 X23.197 Y94.55 E.02362
G1 X16.826 Y88.179 E.32723
G1 X16.826 Y88.829 E.02362
G1 X22.547 Y94.55 E.29383
G1 X21.896 Y94.55 E.02362
G1 X16.826 Y89.479 E.26043
G1 X16.826 Y90.13 E.02362
G1 X21.246 Y94.55 E.22703
G1 X20.596 Y94.55 E.02362
G1 X16.826 Y90.78 E.19363
G1 X16.826 Y91.43 E.02362
G1 X19.946 Y94.55 E.16023
G1 X19.295 Y94.55 E.02362
G1 X16.826 Y92.08 E.12683
G1 X16.826 Y92.731 E.02362
G1 X18.645 Y94.55 E.09343
G1 X17.995 Y94.55 E.02362
G1 X16.826 Y93.381 E.06003
G1 X16.826 Y94.031 E.02362
G1 X17.55 Y94.755 E.03719
; stop printing object aleta.STL id:4948450727604478048 copy 0
;TIME_ELAPSED:100.163315

M106 S255
;LAYER_CHANGE
;Z:0.4
;HEIGHT:0.2
;BEFORE_LAYER_CHANGE
;0.4
G92 E0

G1 E-1.2 F2400
;WIPE_START
G1 F9000
G1 X16.826 Y94.031
G1 X16.826 Y93.381
G1 X17.057 Y93.611
;WIPE_END
;_SET_FAN_SPEED_CHANGING_LAYER
M204 P2500
; printing object aleta.STL id:4948450727604478048 copy 0
M204 T2500
G1 X18.639 Y86.145 Z.6
G1 X33.647 Y15.302 Z.6
G1 Z.4
M73 P3 R47
M73 P3 R47
G1 E1.2 F1800
M204 P2000
;TYPE:Inner wall
;WIDTH:0.449999
G1 F5400
G1 X33.647 Y95.147 E2.56755
G1 X17.97 Y95.147 E.50412
G1 X17.97 Y85.367 E.3145
G1 X17.922 Y85.235 E.0045
G1 X17.767 Y85.163 E.00551
G1 X15.752 Y85.241 E.06484
;WIDTH:0.410242
G1 F4525.285
G1 X15.679 Y85.367 E.00423
G1 X15.732 Y85.221 E.00451
;WIDTH:0.449999
G1 F5295.155
G1 X15.81 Y83.207 E.06481
G1 F5400
G1 X15.81 Y82.49 E.02306
G1 X15.81 Y27.497 E1.76837
G1 X15.81 Y26.781 E.02302
G1 F5156.978
G1 X15.724 Y24.77 E.06473
;WIDTH:0.406937
G1 F4472.201
G1 X15.676 Y24.644 E.00388
G1 X15.744 Y24.749 E.0036
;WIDTH:0.449999
G1 F5400
G1 X17.755 Y24.836 E.06472
G1 X17.898 Y24.777 E.00497
G1 X17.958 Y24.632 E.00505
G1 X17.958 Y14.852 E.3145
G1 X33.647 Y14.852 E.5045
G1 X33.647 Y15.262 E.01318
G1 X34.04 Y14.46 F9000
M204 P1000
;TYPE:Outer wall
;WIDTH:0.419999
G1 F3600
G1 X34.04 Y95.54 E2.41509
G1 X33.41 Y95.54 E.01877
G1 X16.466 Y95.54 E.5047
G1 X15.626 Y95.54 E.02502
G1 F3000
G1 X15.426 Y95.54 E.00596
M204 P500
;TYPE:Overhang wall
G1 X15.426 Y14.46 E2.41509
M204 P1000
;TYPE:Outer wall
G1 X15.626 Y14.46 E.00596
M106 S255
G1 F3600
G1 X16.466 Y14.46 E.02502
G1 X33.37 Y14.46 E.50351
G1 X34 Y14.46 E.01877
G1 E-1.2 F2400
;WIPE_START
G1 F9000
G1 X34 Y16.46
;WIPE_END
G1 X32.272 Y23.894 Z.8
G1 X15.679 Y95.278 Z.8
G1 Z.4
G1 E1.2 F1800
M204 P2000
;TYPE:Inner wall
;WIDTH:0.38292
G1 F4591.306
G1 X15.679 Y94.565 E.01915
G1 X15.679 Y86.08 E.22789
G1 X15.679 Y85.367 E.01915
G1 E-1.2 F2400
;WIPE_START
G1 F9000
G1 X15.679 Y87.367
;WIPE_END
G1 X15.679 Y79.735 Z.8
G1 X15.676 Y24.644 Z.8
G1 Z.4
G1 E1.2 F1800
G1 F4526.197
G1 X15.676 Y23.927 E.01926
G1 F4517.8
G1 X15.675 Y15.434 E.2281
G1 X15.675 Y14.717 E.01926
G1 X15.831 Y14.544 F9000
M204 P500
;TYPE:Bridge
;WIDTH:0.401146
G1 F3000
G1 X15.831 Y24.575 E.28385
G1 X16.189 Y24.575 E.01014
G1 X16.189 Y24.429 E.00414
G1 X16.548 Y24.429 E.01014
G1 X16.548 Y24.736 E.0087
G1 X17.079 Y24.735 F9000
M204 P2500
M205 X8 Y8
;TYPE:Top surface
;WIDTH:0.42793
G1 F3000
M106 S255
G1 X17.689 Y24.126 E.02621
G1 X17.689 Y23.581 E.01656
G1 X17.209 Y24.061 E.02063
G1 X16.664 Y24.061 E.01656
G1 X17.689 Y23.037 E.04404
