;TIME:952.29
;Filament used:2.17039m
;Layer height:0.200
; HEADER_BLOCK_START
; generated by Creality_Print V6.0.4.1793 on 2025-03-05 at 22:21:27
; total layer number: 25
; filament_density: 1.24
; filament_diameter: 1.75
; max_z_height: 5.00
; HEADER_BLOCK_END

; MINX = 96.50
; MINY = 69.25
; MINZ = 0.00
; MAXX = 123.50
; MAXY = 150.75
; MAXZ = 5.00

; THUMBNAIL_BLOCK_START

;
; THUMBNAIL_BLOCK_END

; THUMBNAIL_BLOCK_START

;
; THUMBNAIL_BLOCK_END

; external perimeters extrusion width = 0.42mm
; perimeters extrusion width = 0.45mm
; infill extrusion width = 0.45mm
; solid infill extrusion width = 0.42mm
; top infill extrusion width = 0.42mm
; first layer extrusion width = 0.50mm

; EXECUTABLE_BLOCK_START
M73 P0 R15
M201 X5000 Y5000 Z500 E5000
M203 X500 Y500 Z30 E100
M204 P5000 R2500 T5000 ; sets acceleration (P, T) and retract acceleration (R), mm/sec^2
M205 X10.00 Y10.00 Z0.40 E5.00 ; sets the jerk limits, mm/sec
;TYPE:Custom
M220 S100 ;Reset Feedrate 
M221 S100 ;Reset Flowrate 
 
M140 S60 ;Set final bed temp 
G28 ;Home 
 
G92 E0 ;Reset Extruder 
G1 Z2.0 F3000 ;Move Z Axis up 
M104 S205 ;Set final nozzle temp 
G1 X-2.1 Y20 Z0.28 F5000.0 ;Move to start position 
M190 S60 ;Wait for bed temp to stabilize 
M109 S205 ;Wait for nozzle temp to stabilize 
G1 X-2.1 Y145.0 Z0.28 F1500.0 E15 ;Draw the first line 
G1 X-2.4 Y145.0 Z0.28 F5000.0 ;Move to side a little 
G1 X-2.4 Y20 Z0.28 F1500.0 E30 ;Draw the second line 
G92 E0  ;Reset Extruder 
G1 E-1.0000 F1800 ;Retract a bit 
M73 P1 R15
M73 P1 R15
G1 Z2.0 F3000 ;Move Z Axis up 
G1 E0.0000 F1800
G90
G21
M83 ; use relative distances for extrusion
" "
G1 E-1.2 F2400
M106 S0
;LAYER_CHANGE
;Z:0.2
;HEIGHT:0.2
;BEFORE_LAYER_CHANGE
;0.2
G92 E0

;_SET_FAN_SPEED_CHANGING_LAYER
M204 P500
M205 X10 Y10
M204 T500
G1 Z.4 F9000
G1 X78.631 Y57.526
G1 Z.2
G1 E1.2 F1800
;TYPE:Skirt
;WIDTH:0.5
G1 F3000
G1 X81.22 Y54.308 E.14912
G1 X84.379 Y51.648 E.14912
G1 X87.991 Y49.646 E.14912
G1 X91.921 Y48.375 E.14912
G1 X96.5 Y47.879 E.16629
G1 X122.123 Y47.879 E.92515
G1 X126.234 Y48.278 E.14912
G1 X130.191 Y49.46 E.14912
G1 X133.847 Y51.381 E.14912
G1 X137.065 Y53.97 E.14912
G1 X139.725 Y57.129 E.14912
G1 X141.728 Y60.741 E.14912
G1 X142.998 Y64.671 E.14912
G1 X143.494 Y69.25 E.16629
G1 X143.494 Y150.75 E2.94264
G1 X143.095 Y154.861 E.14912
G1 X141.913 Y158.818 E.14912
G1 X139.992 Y162.474 E.14912
G1 X137.403 Y165.692 E.14912
G1 X134.244 Y168.352 E.14912
G1 X130.632 Y170.354 E.14912
G1 X126.702 Y171.625 E.14912
G1 X122.123 Y172.121 E.16629
G1 X96.5 Y172.121 E.92515
G1 X92.389 Y171.722 E.14912
G1 X88.432 Y170.54 E.14912
G1 X84.776 Y168.619 E.14912
G1 X81.558 Y166.03 E.14912
G1 X78.898 Y162.871 E.14912
G1 X76.896 Y159.259 E.14912
G1 X75.625 Y155.329 E.14912
G1 X75.129 Y150.75 E.16629
G1 X75.129 Y69.25 E2.94264
G1 X75.528 Y65.139 E.14912
G1 X76.71 Y61.182 E.14912
G1 X78.613 Y57.562 E.14767
G1 X79.025 Y57.781 F9000
G1 F3000
G1 X79.086 Y57.667 E.00468
G1 X81.671 Y54.502 E.14751
G1 X84.821 Y51.901 E.14751
G1 X88.416 Y49.961 E.14751
G1 X92.321 Y48.758 E.14751
G1 X96.5 Y48.336 E.15167
M73 P2 R15
M73 P2 R15
G1 X122.123 Y48.336 E.92515
G1 X126.189 Y48.735 E.14751
G1 X130.1 Y49.917 E.14751
G1 X133.706 Y51.836 E.14751
G1 X136.871 Y54.421 E.14751
G1 X139.472 Y57.571 E.14751
G1 X141.412 Y61.166 E.14751
G1 X142.615 Y65.071 E.14751
G1 X143.037 Y69.25 E.15167
G1 X143.037 Y150.75 E2.94264
G1 X142.638 Y154.816 E.14751
G1 X141.456 Y158.727 E.14751
G1 X139.537 Y162.333 E.14751
G1 X136.953 Y165.498 E.14751
G1 X133.802 Y168.099 E.14751
G1 X130.207 Y170.039 E.14751
G1 X126.303 Y171.242 E.14751
G1 X122.123 Y171.664 E.15167
G1 X96.5 Y171.664 E.92515
G1 X92.434 Y171.265 E.14751
G1 X88.523 Y170.083 E.14751
G1 X84.917 Y168.164 E.14751
G1 X81.752 Y165.579 E.14751
G1 X79.151 Y162.429 E.14751
G1 X77.211 Y158.834 E.14751
G1 X76.008 Y154.929 E.14751
G1 X75.586 Y150.75 E.15167
G1 X75.586 Y69.25 E2.94264
G1 X75.985 Y65.184 E.14751
G1 X77.167 Y61.273 E.14751
G1 X79.007 Y57.817 E.14138
G1 X79.418 Y58.038 F9000
G1 F3000
G1 X79.541 Y57.809 E.0094
G1 X82.121 Y54.699 E.14589
G1 X85.261 Y52.157 E.14589
G1 X88.84 Y50.281 E.14589
G1 X92.718 Y49.146 E.14589
G1 X96.5 Y48.793 E.13716
G1 X122.123 Y48.793 E.92515
G1 X126.144 Y49.192 E.14589
G1 X130.008 Y50.373 E.14589
G1 X133.564 Y52.291 E.14589
G1 X136.674 Y54.871 E.14589
G1 X139.216 Y58.011 E.14589
G1 X141.092 Y61.59 E.14589
G1 X142.228 Y65.468 E.14589
G1 X142.58 Y69.25 E.13716
G1 X142.58 Y150.75 E2.94264
G1 X142.181 Y154.771 E.14589
M73 P3 R15
M73 P3 R15
G1 X141 Y158.635 E.14589
G1 X139.082 Y162.191 E.14589
G1 X136.502 Y165.301 E.14589
G1 X133.362 Y167.843 E.14589
G1 X129.783 Y169.719 E.14589
G1 X125.905 Y170.854 E.14589
G1 X122.123 Y171.207 E.13716
G1 X96.5 Y171.207 E.92515
G1 X92.479 Y170.808 E.14589
G1 X88.615 Y169.627 E.14589
G1 X85.059 Y167.709 E.14589
G1 X81.949 Y165.129 E.14589
G1 X79.407 Y161.989 E.14589
G1 X77.531 Y158.41 E.14589
G1 X76.396 Y154.532 E.14589
G1 X76.043 Y150.75 E.13716
G1 X76.043 Y69.25 E2.94264
G1 X76.442 Y65.229 E.14589
G1 X77.623 Y61.365 E.14589
G1 X79.399 Y58.073 E.13504
; printing object aleta inicio.STL id:0 copy 0
G1 E-1.2 F2400
;WIPE_START
G1 F9000
G1 X79.541 Y57.809
G1 X80.626 Y56.501
;WIPE_END
G1 X83.64 Y63.513 Z.6
G1 X120.766 Y149.893 Z.6
G1 Z.2
G1 E1.2 F1800
;TYPE:Inner wall
;WIDTH:0.499999
G1 X97.357 Y149.893 E.8452
G1 X97.357 Y70.107 E2.88074
G1 X121.266 Y70.107 E.86326
G1 X121.266 Y149.893 E2.88074
M73 P4 R15
M73 P4 R15
G1 X120.806 Y149.893 E.01661
G1 E-1.2 F2400
;WIPE_START
G1 F9000
G1 X118.806 Y149.893
;WIPE_END
G1 X121.723 Y150.35 Z.6
G1 Z.2
G1 E1.2 F1800
;TYPE:Outer wall
G1 X96.9 Y150.35 E.89626
G1 X96.9 Y69.65 E2.91375
G1 X121.723 Y69.65 E.89626
G1 X121.723 Y150.31 E2.91231
G1 E-1.2 F2400
M73 P5 R15
;WIPE_START
M73 P5 R15
G1 F9000
G1 X119.723 Y150.313
;WIPE_END
G1 Z.6
G1 X121.129 Y71.173
G1 Z.6
G1 Z.2
G1 E1.2 F1800
;TYPE:Bottom surface
;WIDTH:0.50204
G1 F4800
G1 X120.406 Y70.45 E.03706
G1 X119.757 Y70.45 E.02355
G1 X120.923 Y71.616 E.05982
G1 X120.923 Y72.265 E.02355
G1 X119.108 Y70.45 E.09312
G1 X118.458 Y70.45 E.02355
G1 X120.923 Y72.915 E.12642
G1 X120.923 Y73.564 E.02355
G1 X117.809 Y70.45 E.15972
G1 X117.16 Y70.45 E.02355
G1 X120.923 Y74.213 E.19302
G1 X120.923 Y74.863 E.02355
G1 X116.511 Y70.45 E.22633
G1 X115.861 Y70.45 E.02355
G1 X120.923 Y75.512 E.25963
G1 X120.923 Y76.161 E.02355
G1 X115.212 Y70.45 E.29293
G1 X114.563 Y70.45 E.02355
G1 X120.923 Y76.81 E.32623
G1 X120.923 Y77.46 E.02355
G1 X113.913 Y70.45 E.35953
G1 X113.264 Y70.45 E.02355
G1 X120.923 Y78.109 E.39283
G1 X120.923 Y78.758 E.02355
G1 X112.615 Y70.45 E.42614
G1 X111.965 Y70.45 E.02355
G1 X120.923 Y79.408 E.45944
G1 X120.923 Y80.057 E.02355
G1 X111.316 Y70.45 E.49274
G1 X110.667 Y70.45 E.02355
M73 P5 R14
M73 P5 R14
G1 X120.923 Y80.706 E.52604
G1 X120.923 Y81.356 E.02355
G1 X110.018 Y70.45 E.55934
G1 X109.368 Y70.45 E.02355
G1 X120.923 Y82.005 E.59265
G1 X120.923 Y82.654 E.02355
G1 X108.719 Y70.45 E.62595
G1 X108.07 Y70.45 E.02355
G1 X120.923 Y83.303 E.65925
G1 X120.923 Y83.953 E.02355
G1 X107.42 Y70.45 E.69255
G1 X106.771 Y70.45 E.02355
G1 X120.923 Y84.602 E.72585
G1 X120.923 Y85.251 E.02355
G1 X106.122 Y70.45 E.75916
G1 X105.473 Y70.45 E.02355
G1 X120.923 Y85.901 E.79246
G1 X120.923 Y86.55 E.02355
G1 X104.823 Y70.45 E.82576
G1 X104.174 Y70.45 E.02355
G1 X120.923 Y87.199 E.85906
G1 X120.923 Y87.848 E.02355
M73 P6 R14
M73 P6 R14
G1 X103.525 Y70.45 E.89236
G1 X102.875 Y70.45 E.02355
G1 X120.923 Y88.498 E.92567
G1 X120.923 Y89.147 E.02355
G1 X102.226 Y70.45 E.95897
G1 X101.577 Y70.45 E.02355
G1 X120.923 Y89.796 E.99227
G1 X120.923 Y90.446 E.02355
G1 X100.928 Y70.45 E1.02557
G1 X100.278 Y70.45 E.02355
G1 X120.923 Y91.095 E1.05887
G1 X120.923 Y91.744 E.02355
G1 X99.629 Y70.45 E1.09218
G1 X98.98 Y70.45 E.02355
G1 X120.923 Y92.394 E1.12548
G1 X120.923 Y93.043 E.02355
G1 X98.33 Y70.45 E1.15878
G1 X97.7 Y70.45 E.02286
G1 X97.7 Y70.469 E.00068
G1 X120.923 Y93.692 E1.19112
G1 X120.923 Y94.341 E.02355
G1 X97.7 Y71.118 E1.19112
G1 X97.7 Y71.767 E.02355
G1 X120.923 Y94.991 E1.19112
G1 X120.923 Y95.64 E.02355
G1 X97.7 Y72.417 E1.19112
G1 X97.7 Y73.066 E.02355
G1 X120.923 Y96.289 E1.19112
G1 X120.923 Y96.939 E.02355
G1 X97.7 Y73.715 E1.19112
G1 X97.7 Y74.364 E.02355
G1 X120.923 Y97.588 E1.19112
G1 X120.923 Y98.237 E.02355
G1 X97.7 Y75.014 E1.19112
G1 X97.7 Y75.663 E.02355
G1 X120.923 Y98.886 E1.19112
G1 X120.923 Y99.536 E.02355
M73 P7 R14
M73 P7 R14
G1 X97.7 Y76.312 E1.19112
G1 X97.7 Y76.962 E.02355
G1 X120.923 Y100.185 E1.19112
G1 X120.923 Y100.834 E.02355
G1 X97.7 Y77.611 E1.19112
G1 X97.7 Y78.26 E.02355
G1 X120.923 Y101.484 E1.19112
G1 X120.923 Y102.133 E.02355
G1 X97.7 Y78.91 E1.19112
G1 X97.7 Y79.559 E.02355
G1 X120.923 Y102.782 E1.19112
G1 X120.923 Y103.432 E.02355
G1 X97.7 Y80.208 E1.19112
G1 X97.7 Y80.857 E.02355
G1 X120.923 Y104.081 E1.19112
G1 X120.923 Y104.73 E.02355
G1 X97.7 Y81.507 E1.19112
G1 X97.7 Y82.156 E.02355
G1 X120.923 Y105.379 E1.19112
G1 X120.923 Y106.029 E.02355
G1 X97.7 Y82.805 E1.19112
G1 X97.7 Y83.455 E.02355
G1 X120.923 Y106.678 E1.19112
G1 X120.923 Y107.327 E.02355
G1 X97.7 Y84.104 E1.19112
G1 X97.7 Y84.753 E.02355
G1 X120.923 Y107.977 E1.19112
G1 X120.923 Y108.626 E.02355
G1 X97.7 Y85.402 E1.19112
G1 X97.7 Y86.052 E.02355
G1 X120.923 Y109.275 E1.19112
G1 X120.923 Y109.924 E.02355
G1 X97.7 Y86.701 E1.19112
G1 X97.7 Y87.35 E.02355
M73 P8 R14
M73 P8 R14
G1 X120.923 Y110.574 E1.19112
G1 X120.923 Y111.223 E.02355
G1 X97.7 Y88 E1.19112
G1 X97.7 Y88.649 E.02355
G1 X120.923 Y111.872 E1.19112
G1 X120.923 Y112.522 E.02355
G1 X97.7 Y89.298 E1.19112
G1 X97.7 Y89.948 E.02355
G1 X120.923 Y113.171 E1.19112
G1 X120.923 Y113.82 E.02355
G1 X97.7 Y90.597 E1.19112
G1 X97.7 Y91.246 E.02355
G1 X120.923 Y114.469 E1.19112
G1 X120.923 Y115.119 E.02355
G1 X97.7 Y91.895 E1.19112
G1 X97.7 Y92.545 E.02355
G1 X120.923 Y115.768 E1.19112
G1 X120.923 Y116.417 E.02355
G1 X97.7 Y93.194 E1.19112
G1 X97.7 Y93.843 E.02355
G1 X120.923 Y117.067 E1.19112
G1 X120.923 Y117.716 E.02355
G1 X97.7 Y94.493 E1.19112
G1 X97.7 Y95.142 E.02355
G1 X120.923 Y118.365 E1.19112
G1 X120.923 Y119.015 E.02355
G1 X97.7 Y95.791 E1.19112
G1 X97.7 Y96.44 E.02355
G1 X120.923 Y119.664 E1.19112
G1 X120.923 Y120.313 E.02355
G1 X97.7 Y97.09 E1.19112
G1 X97.7 Y97.739 E.02355
G1 X120.923 Y120.962 E1.19112
G1 X120.923 Y121.612 E.02355
M73 P9 R14
M73 P9 R14
G1 X97.7 Y98.388 E1.19112
G1 X97.7 Y99.038 E.02355
G1 X120.923 Y122.261 E1.19112
G1 X120.923 Y122.91 E.02355
G1 X97.7 Y99.687 E1.19112
G1 X97.7 Y100.336 E.02355
G1 X120.923 Y123.56 E1.19112
G1 X120.923 Y124.209 E.02355
G1 X97.7 Y100.986 E1.19112
G1 X97.7 Y101.635 E.02355
G1 X120.923 Y124.858 E1.19112
G1 X120.923 Y125.507 E.02355
G1 X97.7 Y102.284 E1.19112
G1 X97.7 Y102.933 E.02355
G1 X120.923 Y126.157 E1.19112
G1 X120.923 Y126.806 E.02355
G1 X97.7 Y103.583 E1.19112
G1 X97.7 Y104.232 E.02355
G1 X120.923 Y127.455 E1.19112
G1 X120.923 Y128.105 E.02355
G1 X97.7 Y104.881 E1.19112
G1 X97.7 Y105.531 E.02355
G1 X120.923 Y128.754 E1.19112
G1 X120.923 Y129.403 E.02355
G1 X97.7 Y106.18 E1.19112
G1 X97.7 Y106.829 E.02355
G1 X120.923 Y130.053 E1.19112
G1 X120.923 Y130.702 E.02355
G1 X97.7 Y107.478 E1.19112
G1 X97.7 Y108.128 E.02355
G1 X120.923 Y131.351 E1.19112
G1 X120.923 Y132 E.02355
M73 P10 R14
M73 P10 R14
G1 X97.7 Y108.777 E1.19112
G1 X97.7 Y109.426 E.02355
G1 X120.923 Y132.65 E1.19112
G1 X120.923 Y133.299 E.02355
G1 X97.7 Y110.076 E1.19112
G1 X97.7 Y110.725 E.02355
G1 X120.923 Y133.948 E1.19112
G1 X120.923 Y134.598 E.02355
G1 X97.7 Y111.374 E1.19112
G1 X97.7 Y112.024 E.02355
G1 X120.923 Y135.247 E1.19112
G1 X120.923 Y135.896 E.02355
G1 X97.7 Y112.673 E1.19112
G1 X97.7 Y113.322 E.02355
G1 X120.923 Y136.545 E1.19112
G1 X120.923 Y137.195 E.02355
G1 X97.7 Y113.971 E1.19112
G1 X97.7 Y114.621 E.02355
G1 X120.923 Y137.844 E1.19112
G1 X120.923 Y138.493 E.02355
G1 X97.7 Y115.27 E1.19112
G1 X97.7 Y115.919 E.02355
G1 X120.923 Y139.143 E1.19112
G1 X120.923 Y139.792 E.02355
G1 X97.7 Y116.569 E1.19112
G1 X97.7 Y117.218 E.02355
G1 X120.923 Y140.441 E1.19112
G1 X120.923 Y141.091 E.02355
G1 X97.7 Y117.867 E1.19112
G1 X97.7 Y118.516 E.02355
G1 X120.923 Y141.74 E1.19112
G1 X120.923 Y142.389 E.02355
G1 X97.7 Y119.166 E1.19112
G1 X97.7 Y119.815 E.02355
M73 P11 R14
M73 P11 R14
G1 X120.923 Y143.038 E1.19112
G1 X120.923 Y143.688 E.02355
G1 X97.7 Y120.464 E1.19112
G1 X97.7 Y121.114 E.02355
G1 X120.923 Y144.337 E1.19112
G1 X120.923 Y144.986 E.02355
G1 X97.7 Y121.763 E1.19112
G1 X97.7 Y122.412 E.02355
G1 X120.923 Y145.636 E1.19112
G1 X120.923 Y146.285 E.02355
G1 X97.7 Y123.062 E1.19112
G1 X97.7 Y123.711 E.02355
G1 X120.923 Y146.934 E1.19112
G1 X120.923 Y147.583 E.02355
G1 X97.7 Y124.36 E1.19112
G1 X97.7 Y125.009 E.02355
G1 X120.923 Y148.233 E1.19112
G1 X120.923 Y148.882 E.02355
G1 X97.7 Y125.659 E1.19112
G1 X97.7 Y126.308 E.02355
G1 X120.923 Y149.531 E1.19112
G1 X120.923 Y149.55 E.00068
G1 X120.293 Y149.55 E.02287
G1 X97.7 Y126.957 E1.15878
G1 X97.7 Y127.607 E.02355
G1 X119.643 Y149.55 E1.12547
G1 X118.994 Y149.55 E.02355
G1 X97.7 Y128.256 E1.09217
G1 X97.7 Y128.905 E.02355
G1 X118.345 Y149.55 E1.05887
G1 X117.696 Y149.55 E.02355
M73 P11 R13
M73 P11 R13
G1 X97.7 Y129.554 E1.02557
G1 X97.7 Y130.204 E.02355
G1 X117.046 Y149.55 E.99227
G1 X116.397 Y149.55 E.02355
G1 X97.7 Y130.853 E.95896
G1 X97.7 Y131.502 E.02355
M73 P12 R13
M73 P12 R13
G1 X115.748 Y149.55 E.92566
G1 X115.098 Y149.55 E.02355
G1 X97.7 Y132.152 E.89236
G1 X97.7 Y132.801 E.02355
G1 X114.449 Y149.55 E.85906
G1 X113.8 Y149.55 E.02355
G1 X97.7 Y133.45 E.82576
G1 X97.7 Y134.1 E.02355
G1 X113.15 Y149.55 E.79245
G1 X112.501 Y149.55 E.02355
G1 X97.7 Y134.749 E.75915
G1 X97.7 Y135.398 E.02355
G1 X111.852 Y149.55 E.72585
G1 X111.203 Y149.55 E.02355
G1 X97.7 Y136.047 E.69255
G1 X97.7 Y136.697 E.02355
G1 X110.553 Y149.55 E.65925
G1 X109.904 Y149.55 E.02355
G1 X97.7 Y137.346 E.62594
G1 X97.7 Y137.995 E.02355
G1 X109.255 Y149.55 E.59264
G1 X108.605 Y149.55 E.02355
G1 X97.7 Y138.645 E.55934
G1 X97.7 Y139.294 E.02355
G1 X107.956 Y149.55 E.52604
G1 X107.307 Y149.55 E.02355
G1 X97.7 Y139.943 E.49274
G1 X97.7 Y140.592 E.02355
G1 X106.658 Y149.55 E.45943
G1 X106.008 Y149.55 E.02355
G1 X97.7 Y141.242 E.42613
G1 X97.7 Y141.891 E.02355
G1 X105.359 Y149.55 E.39283
G1 X104.71 Y149.55 E.02355
G1 X97.7 Y142.54 E.35953
G1 X97.7 Y143.19 E.02355
G1 X104.06 Y149.55 E.32623
G1 X103.411 Y149.55 E.02355
G1 X97.7 Y143.839 E.29292
G1 X97.7 Y144.488 E.02355
G1 X102.762 Y149.55 E.25962
G1 X102.112 Y149.55 E.02355
G1 X97.7 Y145.138 E.22632
G1 X97.7 Y145.787 E.02355
G1 X101.463 Y149.55 E.19302
G1 X100.814 Y149.55 E.02355
G1 X97.7 Y146.436 E.15972
G1 X97.7 Y147.085 E.02355
G1 X100.165 Y149.55 E.12641
G1 X99.515 Y149.55 E.02355
G1 X97.7 Y147.735 E.09311
G1 X97.7 Y148.384 E.02355
G1 X98.866 Y149.55 E.05981
G1 X98.217 Y149.55 E.02355
G1 X97.494 Y148.828 E.03706
; stop printing object aleta inicio.STL id:0 copy 0
;TIME_ELAPSED:123.339996

M106 S255
;LAYER_CHANGE
;Z:0.4
;HEIGHT:0.2
;BEFORE_LAYER_CHANGE
;0.4
G92 E0

G1 E-1.2 F2400
;WIPE_START
G1 F9000
G1 X98.217 Y149.55
G1 X98.866 Y149.55
G1 X98.633 Y149.318
;WIPE_END
;_SET_FAN_SPEED_CHANGING_LAYER
M204 P2500
; printing object aleta inicio.STL id:0 copy 0
M204 T2500
G1 X97.102 Y149.698 Z.6
G1 Z.4
G1 E1.2 F1800
M204 P2000
;TYPE:Inner wall
;WIDTH:0.449999
G1 F5400
G1 X97.102 Y69.852 E2.56755
G1 X104.638 Y69.852 E.24231
M73 P13 R13
M73 P13 R13
G1 X104.638 Y79.632 E.3145
G1 X104.694 Y79.773 E.00486
G1 X104.841 Y79.836 E.00516
G1 X107.159 Y79.836 E.07453
G1 X107.296 Y79.783 E.00473
G1 X107.362 Y79.632 E.00529
G1 X107.362 Y69.852 E.3145
G1 X121.94 Y69.852 E.46875
G1 X121.94 Y150.148 E2.58202
G1 X107.354 Y150.148 E.46901
G1 X107.354 Y140.368 E.3145
G1 X107.302 Y140.231 E.00471
G1 X107.151 Y140.164 E.0053
G1 X104.832 Y140.164 E.07455
G1 X104.685 Y140.227 E.00516
G1 X104.629 Y140.368 E.00486
G1 X104.629 Y150.148 E.3145
G1 X97.102 Y150.148 E.24203
G1 X97.102 Y149.738 E.01318
G1 X96.71 Y150.54 F9000
M204 P1000
;TYPE:Outer wall
;WIDTH:0.419999
G1 F3600
G1 X96.71 Y149.91 E.01877
G1 X96.71 Y70.09 E2.37756
G1 X96.71 Y69.46 E.01877
G1 X97.34 Y69.46 E.01877
G1 X121.283 Y69.46 E.71318
G1 X122.123 Y69.46 E.02502
G1 F3000
G1 X122.323 Y69.46 E.00596
