;TIME:1291.72
;Filament used:2.30579m
;Layer height:0.200
; HEADER_BLOCK_START
; generated by Creality_Print V6.0.4.1793 on 2025-03-05 at 22:17:43
; total layer number: 24
; filament_density: 1.24
; filament_diameter: 1.75
; max_z_height: 2.96
; HEADER_BLOCK_END

; MINX = 89.50
; MINY = 70.50
; MINZ = 0.00
; MAXX = 130.50
; MAXY = 149.50
; MAXZ = 3.00

; THUMBNAIL_BLOCK_START

;
; THUMBNAIL_BLOCK_END

; THUMBNAIL_BLOCK_START

;
; THUMBNAIL_BLOCK_END

; external perimeters extrusion width = 0.42mm
; perimeters extrusion width = 0.45mm
; infill extrusion width = 0.45mm
; solid infill extrusion width = 0.42mm
; top infill extrusion width = 0.42mm
; first layer extrusion width = 0.46mm

; EXECUTABLE_BLOCK_START
M73 P0 R21
M201 X5000 Y5000 Z500 E5000
M203 X500 Y500 Z30 E100
M204 P5000 R2500 T5000 ; sets acceleration (P, T) and retract acceleration (R), mm/sec^2
M205 X10.00 Y10.00 Z0.40 E5.00 ; sets the jerk limits, mm/sec
;TYPE:Custom
M220 S100 ;Reset Feedrate 
M221 S100 ;Reset Flowrate 
 
M140 S60 ;Set final bed temp 
G28 ;Home 
 
G92 E0 ;Reset Extruder 
G1 Z2.0 F3000 ;Move Z Axis up 
M104 S205 ;Set final nozzle temp 
G1 X-2.1 Y20 Z0.28 F5000.0 ;Move to start position 
M190 S60 ;Wait for bed temp to stabilize 
M109 S205 ;Wait for nozzle temp to stabilize 
G1 X-2.1 Y145.0 Z0.28 F1500.0 E15 ;Draw the first line 
G1 X-2.4 Y145.0 Z0.28 F5000.0 ;Move to side a little 
G1 X-2.4 Y20 Z0.28 F1500.0 E30 ;Draw the second line 
G92 E0  ;Reset Extruder 
G1 E-1.0000 F1800 ;Retract a bit 
G1 Z2.0 F3000 ;Move Z Axis up 
G1 E0.0000 F1800
G90
G21
M83 ; use relative distances for extrusion
" "
G1 E-1.2 F2400
M106 S0
;LAYER_CHANGE
;Z:0.2
;HEIGHT:0.2
;BEFORE_LAYER_CHANGE
;0.2
G92 E0

;_SET_FAN_SPEED_CHANGING_LAYER
M204 P500
M205 X8 Y8
M204 T500
G1 Z.4 F9000
G1 X73.128 Y58.813
G1 Z.2
G1 E1.2 F1800
;TYPE:Skirt
;WIDTH:0.46
G1 F3000
G1 X75.715 Y55.609 E.13569
G1 X78.872 Y52.964 E.13569
G1 X82.48 Y50.978 E.13569
G1 X86.403 Y49.725 E.13569
G1 X90.877 Y49.249 E.14823
G1 X130.5 Y49.249 E1.30544
G1 X134.599 Y49.648 E.13569
M73 P1 R21
M73 P1 R21
G1 X138.544 Y50.83 E.13569
G1 X142.187 Y52.751 E.13569
G1 X145.391 Y55.338 E.13569
G1 X148.036 Y58.495 E.13569
G1 X150.022 Y62.103 E.13569
G1 X151.275 Y66.026 E.13569
G1 X151.751 Y70.5 E.14823
G1 X151.751 Y149.5 E2.60276
G1 X151.352 Y153.599 E.13569
G1 X150.17 Y157.544 E.13569
G1 X148.249 Y161.187 E.13569
G1 X145.662 Y164.391 E.13569
G1 X142.505 Y167.036 E.13569
G1 X138.897 Y169.022 E.13569
G1 X134.974 Y170.275 E.13569
G1 X130.5 Y170.751 E.14823
G1 X102.5 Y170.751 E.9225
G1 X98.401 Y170.352 E.13569
G1 X94.456 Y169.17 E.13569
G1 X90.813 Y167.249 E.13569
G1 X87.609 Y164.662 E.13569
G1 X84.964 Y161.505 E.13569
G1 X83.533 Y159.085 E.09262
G1 X71.91 Y136.085 E.84903
G1 X70.417 Y132.247 E.13569
G1 X69.626 Y126.5 E.19112
G1 X69.626 Y70.5 E1.84499
G1 X70.025 Y66.401 E.13569
G1 X71.207 Y62.456 E.13569
G1 X73.109 Y58.848 E.13437
G1 X73.486 Y59.049 F9000
G1 F3000
G1 X73.543 Y58.942 E.00402
G1 X76.126 Y55.787 E.13434
G1 X79.275 Y53.195 E.13434
G1 X82.868 Y51.267 E.13434
G1 X86.767 Y50.075 E.13434
G1 X90.877 Y49.666 E.13607
G1 X130.5 Y49.666 E1.30544
G1 X134.558 Y50.065 E.13434
G1 X138.461 Y51.247 E.13434
G1 X142.058 Y53.166 E.13434
G1 X145.213 Y55.749 E.13434
G1 X147.805 Y58.898 E.13434
G1 X149.733 Y62.491 E.13434
G1 X150.925 Y66.39 E.13434
G1 X151.334 Y70.5 E.13607
G1 X151.334 Y149.5 E2.60276
G1 X150.935 Y153.558 E.13434
G1 X149.753 Y157.461 E.13434
G1 X147.834 Y161.058 E.13434
G1 X145.251 Y164.213 E.13434
G1 X142.102 Y166.805 E.13434
G1 X138.509 Y168.733 E.13434
G1 X134.61 Y169.925 E.13434
G1 X130.5 Y170.334 E.13607
G1 X102.5 Y170.334 E.9225
G1 X98.442 Y169.935 E.13434
G1 X94.539 Y168.753 E.13434
G1 X90.942 Y166.834 E.13434
G1 X87.787 Y164.251 E.13434
G1 X85.195 Y161.102 E.13434
G1 X83.905 Y158.897 E.08417
G1 X72.282 Y135.897 E.84903
G1 X70.808 Y132.095 E.13434
G1 X70.043 Y126.5 E.18605
G1 X70.043 Y70.5 E1.84499
G1 X70.442 Y66.442 E.13434
M73 P2 R21
M73 P2 R21
G1 X71.624 Y62.539 E.13434
G1 X73.467 Y59.084 E.12901
G1 X73.842 Y59.287 F9000
G1 F3000
G1 X73.958 Y59.072 E.00806
G1 X76.537 Y55.966 E.13299
G1 X79.677 Y53.429 E.13299
G1 X83.254 Y51.559 E.13299
G1 X87.129 Y50.43 E.13299
G1 X90.877 Y50.083 E.124
G1 X130.5 Y50.083 E1.30544
G1 X134.517 Y50.482 E.13299
G1 X138.377 Y51.663 E.13299
G1 X141.928 Y53.581 E.13299
G1 X145.034 Y56.16 E.13299
G1 X147.571 Y59.3 E.13299
G1 X149.441 Y62.877 E.13299
G1 X150.57 Y66.752 E.13299
G1 X150.917 Y70.5 E.124
G1 X150.917 Y149.5 E2.60276
G1 X150.518 Y153.517 E.13299
G1 X149.337 Y157.377 E.13299
G1 X147.419 Y160.928 E.13299
G1 X144.84 Y164.034 E.13299
G1 X141.7 Y166.571 E.13299
G1 X138.123 Y168.441 E.13299
G1 X134.248 Y169.57 E.13299
G1 X130.5 Y169.917 E.124
G1 X102.5 Y169.917 E.9225
G1 X98.483 Y169.518 E.13299
G1 X94.623 Y168.337 E.13299
G1 X91.072 Y166.419 E.13299
G1 X87.966 Y163.84 E.13299
G1 X85.429 Y160.7 E.13299
G1 X84.278 Y158.709 E.07579
G1 X72.654 Y135.709 E.84903
G1 X71.199 Y131.944 E.13299
G1 X70.46 Y126.5 E.181
G1 X70.46 Y70.5 E1.84499
G1 X70.859 Y66.483 E.13299
M73 P2 R20
M73 P2 R20
G1 X72.04 Y62.623 E.13299
G1 X73.823 Y59.322 E.12361
; printing object Aleta servo.STL id:45360352215105536 copy 0
G1 E-1.2 F2400
;WIPE_START
G1 F3000
G1 X73.958 Y59.072
G1 X75.054 Y57.752
;WIPE_END
G1 X77.943 Y64.817 Z.6 F9000
G1 X103.147 Y126.45 Z.6
G1 Z.2
G1 E1.2 F1800
;TYPE:Inner wall
;WIDTH:0.459999
G1 X103.147 Y126.394 E.00183
G1 X103.02 Y126.1 E.01055
G1 X102.802 Y125.919 E.00932
G1 X102.521 Y125.853 E.00951
G1 X91.524 Y125.853 E.36233
G1 X91.524 Y71.147 E1.80235
G1 X129.853 Y71.147 E1.2628
G1 X129.853 Y148.853 E2.56012
G1 X103.147 Y148.853 E.87986
M73 P3 R20
M73 P3 R20
G1 X103.147 Y126.49 E.73677
G1 X102.73 Y126.479 F9000
;TYPE:Outer wall
G1 F1800
G1 X102.674 Y126.337 E.00502
G1 X102.521 Y126.27 E.00549
G1 X91.107 Y126.27 E.37607
G1 X91.107 Y70.73 E1.82983
G1 X130.27 Y70.73 E1.29028
G1 X130.27 Y149.27 E2.5876
G1 X102.73 Y149.27 E.90734
G1 X102.73 Y126.519 E.74958
G1 E-1.2 F2400
;WIPE_START
G1 F1800
G1 X102.674 Y126.337
G1 X102.521 Y126.27
G1 X100.878 Y126.27
;WIPE_END
G1 Z.6 F9000
G1 X129.728 Y72.117
G1 Z.6
M73 P4 R20
M73 P4 R20
G1 Z.2
G1 E1.2 F1800
;TYPE:Bottom surface
;WIDTH:0.460734
G1 F4800
G1 X129.071 Y71.46 E.03067
G1 X128.48 Y71.46 E.0195
G1 X129.54 Y72.52 E.04948
G1 X129.54 Y73.111 E.0195
G1 X127.889 Y71.46 E.07706
G1 X127.298 Y71.46 E.0195
G1 X129.54 Y73.702 E.10464
G1 X129.54 Y74.293 E.0195
G1 X126.707 Y71.46 E.13222
G1 X126.116 Y71.46 E.0195
G1 X129.54 Y74.884 E.1598
G1 X129.54 Y75.474 E.0195
G1 X125.526 Y71.46 E.18738
G1 X124.935 Y71.46 E.0195
G1 X129.54 Y76.065 E.21496
G1 X129.54 Y76.656 E.0195
G1 X124.344 Y71.46 E.24254
G1 X123.753 Y71.46 E.0195
G1 X129.54 Y77.247 E.27012
G1 X129.54 Y77.838 E.0195
G1 X123.162 Y71.46 E.2977
G1 X122.571 Y71.46 E.0195
G1 X129.54 Y78.429 E.32528
G1 X129.54 Y79.02 E.0195
G1 X121.98 Y71.46 E.35286
G1 X121.389 Y71.46 E.0195
G1 X129.54 Y79.611 E.38044
G1 X129.54 Y80.201 E.0195
G1 X120.799 Y71.46 E.40802
G1 X120.208 Y71.46 E.0195
G1 X129.54 Y80.792 E.4356
G1 X129.54 Y81.383 E.0195
G1 X119.617 Y71.46 E.46317
G1 X119.026 Y71.46 E.0195
G1 X129.54 Y81.974 E.49075
G1 X129.54 Y82.565 E.0195
G1 X118.435 Y71.46 E.51833
G1 X117.844 Y71.46 E.0195
G1 X129.54 Y83.156 E.54591
G1 X129.54 Y83.747 E.0195
G1 X117.253 Y71.46 E.57349
G1 X116.662 Y71.46 E.0195
G1 X129.54 Y84.338 E.60107
G1 X129.54 Y84.929 E.0195
G1 X116.071 Y71.46 E.62865
G1 X115.481 Y71.46 E.0195
G1 X129.54 Y85.519 E.65623
G1 X129.54 Y86.11 E.0195
G1 X114.89 Y71.46 E.68381
G1 X114.299 Y71.46 E.0195
G1 X129.54 Y86.701 E.71139
G1 X129.54 Y87.292 E.0195
G1 X113.708 Y71.46 E.73897
G1 X113.117 Y71.46 E.0195
G1 X129.54 Y87.883 E.76655
G1 X129.54 Y88.474 E.0195
G1 X112.526 Y71.46 E.79413
G1 X111.935 Y71.46 E.0195
G1 X129.54 Y89.065 E.82171
G1 X129.54 Y89.656 E.0195
G1 X111.344 Y71.46 E.84928
G1 X110.754 Y71.46 E.0195
G1 X129.54 Y90.246 E.87686
G1 X129.54 Y90.837 E.0195
G1 X110.163 Y71.46 E.90444
G1 X109.572 Y71.46 E.0195
G1 X129.54 Y91.428 E.93202
G1 X129.54 Y92.019 E.0195
G1 X108.981 Y71.46 E.9596
G1 X108.39 Y71.46 E.0195
G1 X129.54 Y92.61 E.98718
G1 X129.54 Y93.201 E.0195
G1 X107.799 Y71.46 E1.01476
G1 X107.208 Y71.46 E.0195
M73 P5 R20
M73 P5 R20
G1 X129.54 Y93.792 E1.04234
G1 X129.54 Y94.383 E.0195
G1 X106.617 Y71.46 E1.06992
G1 X106.027 Y71.46 E.0195
G1 X129.54 Y94.973 E1.0975
G1 X129.54 Y95.564 E.0195
G1 X105.436 Y71.46 E1.12508
G1 X104.845 Y71.46 E.0195
G1 X129.54 Y96.155 E1.15266
G1 X129.54 Y96.746 E.0195
G1 X104.254 Y71.46 E1.18024
G1 X103.663 Y71.46 E.0195
G1 X129.54 Y97.337 E1.20782
G1 X129.54 Y97.928 E.0195
G1 X103.072 Y71.46 E1.2354
G1 X102.481 Y71.46 E.0195
G1 X129.54 Y98.519 E1.26297
G1 X129.54 Y99.11 E.0195
G1 X101.89 Y71.46 E1.29055
G1 X101.3 Y71.46 E.0195
G1 X129.54 Y99.7 E1.31813
G1 X129.54 Y100.291 E.0195
G1 X100.709 Y71.46 E1.34571
G1 X100.118 Y71.46 E.0195
G1 X129.54 Y100.882 E1.37329
G1 X129.54 Y101.473 E.0195
G1 X99.527 Y71.46 E1.40087
G1 X98.936 Y71.46 E.0195
G1 X129.54 Y102.064 E1.42845
G1 X129.54 Y102.655 E.0195
G1 X98.345 Y71.46 E1.45603
G1 X97.754 Y71.46 E.0195
G1 X129.54 Y103.246 E1.48361
G1 X129.54 Y103.837 E.0195
G1 X97.163 Y71.46 E1.51119
G1 X96.573 Y71.46 E.0195
G1 X129.54 Y104.427 E1.53877
G1 X129.54 Y105.018 E.0195
G1 X95.982 Y71.46 E1.56635
G1 X95.391 Y71.46 E.0195
M73 P6 R20
M73 P6 R20
G1 X129.54 Y105.609 E1.59393
G1 X129.54 Y106.2 E.0195
G1 X94.8 Y71.46 E1.62151
G1 X94.209 Y71.46 E.0195
G1 X129.54 Y106.791 E1.64909
G1 X129.54 Y107.382 E.0195
G1 X93.618 Y71.46 E1.67666
G1 X93.027 Y71.46 E.0195
G1 X129.54 Y107.973 E1.70424
G1 X129.54 Y108.564 E.0195
G1 X92.436 Y71.46 E1.73182
G1 X91.845 Y71.46 E.0195
G1 X129.54 Y109.155 E1.7594
G1 X129.54 Y109.745 E.0195
G1 X91.837 Y72.042 E1.75981
G1 X91.837 Y72.633 E.0195
G1 X129.54 Y110.336 E1.75981
G1 X129.54 Y110.927 E.0195
G1 X91.837 Y73.224 E1.75981
G1 X91.837 Y73.815 E.0195
G1 X129.54 Y111.518 E1.75981
G1 X129.54 Y112.109 E.0195
G1 X91.837 Y74.406 E1.75981
G1 X91.837 Y74.996 E.0195
G1 X129.54 Y112.7 E1.75981
G1 X129.54 Y113.291 E.0195
G1 X91.837 Y75.587 E1.75981
G1 X91.837 Y76.178 E.0195
G1 X129.54 Y113.882 E1.75981
G1 X129.54 Y114.472 E.0195
G1 X91.837 Y76.769 E1.75981
G1 X91.837 Y77.36 E.0195
M73 P7 R20
M73 P7 R20
G1 X129.54 Y115.063 E1.75981
G1 X129.54 Y115.654 E.0195
G1 X91.837 Y77.951 E1.75981
G1 X91.837 Y78.542 E.0195
M73 P7 R19
M73 P7 R19
G1 X129.54 Y116.245 E1.75981
G1 X129.54 Y116.836 E.0195
G1 X91.837 Y79.133 E1.75981
G1 X91.837 Y79.723 E.0195
G1 X129.54 Y117.427 E1.75981
G1 X129.54 Y118.018 E.0195
G1 X91.837 Y80.314 E1.75981
G1 X91.837 Y80.905 E.0195
G1 X129.54 Y118.609 E1.75981
G1 X129.54 Y119.199 E.0195
G1 X91.837 Y81.496 E1.75981
G1 X91.837 Y82.087 E.0195
G1 X129.54 Y119.79 E1.75981
G1 X129.54 Y120.381 E.0195
G1 X91.837 Y82.678 E1.75981
G1 X91.837 Y83.269 E.0195
G1 X129.54 Y120.972 E1.75981
G1 X129.54 Y121.563 E.0195
G1 X91.837 Y83.86 E1.75981
G1 X91.837 Y84.45 E.0195
G1 X129.54 Y122.154 E1.75981
G1 X129.54 Y122.745 E.0195
G1 X91.837 Y85.041 E1.75981
G1 X91.837 Y85.632 E.0195
G1 X129.54 Y123.336 E1.75981
G1 X129.54 Y123.926 E.0195
M73 P8 R19
M73 P8 R19
G1 X91.837 Y86.223 E1.75981
G1 X91.837 Y86.814 E.0195
G1 X129.54 Y124.517 E1.75981
G1 X129.54 Y125.108 E.0195
G1 X91.837 Y87.405 E1.75981
G1 X91.837 Y87.996 E.0195
G1 X129.54 Y125.699 E1.75981
G1 X129.54 Y126.29 E.0195
G1 X91.837 Y88.587 E1.75981
G1 X91.837 Y89.178 E.0195
G1 X129.54 Y126.881 E1.75981
G1 X129.54 Y127.472 E.0195
G1 X91.837 Y89.768 E1.75981
G1 X91.837 Y90.359 E.0195
G1 X129.54 Y128.063 E1.75981
G1 X129.54 Y128.654 E.0195
G1 X91.837 Y90.95 E1.75981
G1 X91.837 Y91.541 E.0195
G1 X129.54 Y129.244 E1.75981
G1 X129.54 Y129.835 E.0195
G1 X91.837 Y92.132 E1.75981
G1 X91.837 Y92.723 E.0195
G1 X129.54 Y130.426 E1.75981
G1 X129.54 Y131.017 E.0195
G1 X91.837 Y93.314 E1.75981
G1 X91.837 Y93.905 E.0195
G1 X129.54 Y131.608 E1.75981
G1 X129.54 Y132.199 E.0195
G1 X91.837 Y94.495 E1.75981
G1 X91.837 Y95.086 E.0195
G1 X129.54 Y132.79 E1.75981
G1 X129.54 Y133.381 E.0195
M73 P9 R19
M73 P9 R19
G1 X91.837 Y95.677 E1.75981
G1 X91.837 Y96.268 E.0195
G1 X129.54 Y133.971 E1.75981
G1 X129.54 Y134.562 E.0195
G1 X91.837 Y96.859 E1.75981
G1 X91.837 Y97.45 E.0195
G1 X129.54 Y135.153 E1.75981
G1 X129.54 Y135.744 E.0195
G1 X91.837 Y98.041 E1.75981
G1 X91.837 Y98.632 E.0195
G1 X129.54 Y136.335 E1.75981
G1 X129.54 Y136.926 E.0195
G1 X91.837 Y99.222 E1.75981
G1 X91.837 Y99.813 E.0195
G1 X129.54 Y137.517 E1.75981
G1 X129.54 Y138.108 E.0195
G1 X91.837 Y100.404 E1.75981
G1 X91.837 Y100.995 E.0195
G1 X129.54 Y138.698 E1.75981
G1 X129.54 Y139.289 E.0195
G1 X91.837 Y101.586 E1.75981
G1 X91.837 Y102.177 E.0195
G1 X129.54 Y139.88 E1.75981
G1 X129.54 Y140.471 E.0195
G1 X91.837 Y102.768 E1.75981
G1 X91.837 Y103.359 E.0195
G1 X129.54 Y141.062 E1.75981
G1 X129.54 Y141.653 E.0195
G1 X91.837 Y103.949 E1.75981
G1 X91.837 Y104.54 E.0195
M73 P10 R19
M73 P10 R19
G1 X129.54 Y142.244 E1.75981
G1 X129.54 Y142.835 E.0195
G1 X91.837 Y105.131 E1.75981
G1 X91.837 Y105.722 E.0195
G1 X129.54 Y143.425 E1.75981
G1 X129.54 Y144.016 E.0195
G1 X91.837 Y106.313 E1.75981
G1 X91.837 Y106.904 E.0195
G1 X129.54 Y144.607 E1.75981
G1 X129.54 Y145.198 E.0195
G1 X91.837 Y107.495 E1.75981
G1 X91.837 Y108.086 E.0195
G1 X129.54 Y145.789 E1.75981
G1 X129.54 Y146.38 E.0195
G1 X91.837 Y108.676 E1.75981
G1 X91.837 Y109.267 E.0195
G1 X129.54 Y146.971 E1.75981
G1 X129.54 Y147.562 E.0195
G1 X91.837 Y109.858 E1.75981
G1 X91.837 Y110.449 E.0195
G1 X129.54 Y148.152 E1.75981
G1 X129.54 Y148.54 E.01279
G1 X129.337 Y148.54 E.00671
G1 X91.837 Y111.04 E1.75032
G1 X91.837 Y111.631 E.0195
G1 X128.746 Y148.54 E1.72274
G1 X128.155 Y148.54 E.0195
G1 X91.837 Y112.222 E1.69516
G1 X91.837 Y112.813 E.0195
G1 X127.564 Y148.54 E1.66758
G1 X126.973 Y148.54 E.0195
G1 X91.837 Y113.404 E1.64001
G1 X91.837 Y113.994 E.0195
M73 P11 R19
M73 P11 R19
G1 X126.382 Y148.54 E1.61243
G1 X125.792 Y148.54 E.0195
G1 X91.837 Y114.585 E1.58485
G1 X91.837 Y115.176 E.0195
G1 X102.202 Y125.542 E.48382
G1 X101.612 Y125.542 E.0195
G1 X91.837 Y115.767 E.45624
G1 X91.837 Y116.358 E.0195
G1 X101.021 Y125.542 E.42865
G1 X100.43 Y125.542 E.0195
G1 X91.837 Y116.949 E.40107
G1 X91.837 Y117.54 E.0195
G1 X99.839 Y125.541 E.37349
G1 X99.248 Y125.541 E.0195
G1 X91.837 Y118.131 E.3459
G1 X91.837 Y118.721 E.0195
G1 X98.657 Y125.541 E.31832
G1 X98.066 Y125.541 E.0195
G1 X91.837 Y119.312 E.29073
G1 X91.837 Y119.903 E.0195
G1 X97.475 Y125.541 E.26315
G1 X96.884 Y125.541 E.0195
G1 X91.837 Y120.494 E.23557
G1 X91.837 Y121.085 E.0195
G1 X96.293 Y125.541 E.20798
G1 X95.702 Y125.541 E.0195
G1 X91.837 Y121.676 E.1804
G1 X91.837 Y122.267 E.0195
G1 X95.111 Y125.541 E.15281
G1 X94.52 Y125.541 E.0195
G1 X91.837 Y122.858 E.12523
G1 X91.837 Y123.448 E.0195
G1 X93.929 Y125.54 E.09765
G1 X93.338 Y125.54 E.0195
G1 X91.837 Y124.039 E.07006
G1 X91.837 Y124.63 E.0195
G1 X92.747 Y125.54 E.04248
G1 X92.156 Y125.54 E.0195
G1 X91.649 Y125.033 E.02365
G1 E-1.2 F2400
;WIPE_START
G1 F4800
G1 X92.156 Y125.54
G1 X92.747 Y125.54
G1 X92.257 Y125.051
;WIPE_END
G1 X99.814 Y126.122 Z.6 F9000
G1 X103.272 Y126.612 Z.6
G1 Z.2
G1 E1.2 F1800
G1 F4800
G1 X125.201 Y148.54 E1.02352
G1 X124.61 Y148.54 E.0195
G1 X103.46 Y127.39 E.98718
G1 X103.46 Y127.981 E.0195
G1 X124.019 Y148.54 E.9596
G1 X123.428 Y148.54 E.0195
G1 X103.46 Y128.572 E.93202
G1 X103.46 Y129.163 E.0195
G1 X122.837 Y148.54 E.90444
G1 X122.246 Y148.54 E.0195
G1 X103.46 Y129.754 E.87686
G1 X103.46 Y130.345 E.0195
G1 X121.655 Y148.54 E.84928
G1 X121.065 Y148.54 E.0195
M73 P11 R18
M73 P11 R18
G1 X103.46 Y130.935 E.8217
G1 X103.46 Y131.526 E.0195
G1 X120.474 Y148.54 E.79412
G1 X119.883 Y148.54 E.0195
G1 X103.46 Y132.117 E.76654
G1 X103.46 Y132.708 E.0195
G1 X119.292 Y148.54 E.73896
G1 X118.701 Y148.54 E.0195
G1 X103.46 Y133.299 E.71138
G1 X103.46 Y133.89 E.0195
G1 X118.11 Y148.54 E.6838
G1 X117.519 Y148.54 E.0195
M73 P12 R18
M73 P12 R18
G1 X103.46 Y134.481 E.65623
G1 X103.46 Y135.072 E.0195
G1 X116.928 Y148.54 E.62865
G1 X116.338 Y148.54 E.0195
G1 X103.46 Y135.662 E.60107
G1 X103.46 Y136.253 E.0195
G1 X115.747 Y148.54 E.57349
G1 X115.156 Y148.54 E.0195
G1 X103.46 Y136.844 E.54591
G1 X103.46 Y137.435 E.0195
G1 X114.565 Y148.54 E.51833
