;TIME:928.96
;Filament used:2.15851m
;Layer height:0.200
; HEADER_BLOCK_START
; generated by Creality_Print V6.0.4.1793 on 2025-03-05 at 22:20:51
; total layer number: 25
; filament_density: 1.24
; filament_diameter: 1.75
; max_z_height: 5.00
; HEADER_BLOCK_END

; MINX = 94.50
; MINY = 69.25
; MINZ = 0.00
; MAXX = 125.50
; MAXY = 150.75
; MAXZ = 5.00

; THUMBNAIL_BLOCK_START

;
; THUMBNAIL_BLOCK_END

; THUMBNAIL_BLOCK_START

;
; THUMBNAIL_BLOCK_END

; external perimeters extrusion width = 0.42mm
; perimeters extrusion width = 0.45mm
; infill extrusion width = 0.45mm
; solid infill extrusion width = 0.42mm
; top infill extrusion width = 0.42mm
; first layer extrusion width = 0.50mm

; EXECUTABLE_BLOCK_START
M73 P0 R15
M201 X5000 Y5000 Z500 E5000
M203 X500 Y500 Z30 E100
M204 P5000 R2500 T5000 ; sets acceleration (P, T) and retract acceleration (R), mm/sec^2
M205 X10.00 Y10.00 Z0.40 E5.00 ; sets the jerk limits, mm/sec
;TYPE:Custom
M220 S100 ;Reset Feedrate 
M221 S100 ;Reset Flowrate 
 
M140 S60 ;Set final bed temp 
G28 ;Home 
 
G92 E0 ;Reset Extruder 
G1 Z2.0 F3000 ;Move Z Axis up 
M104 S205 ;Set final nozzle temp 
G1 X-2.1 Y20 Z0.28 F5000.0 ;Move to start position 
M190 S60 ;Wait for bed temp to stabilize 
M109 S205 ;Wait for nozzle temp to stabilize 
G1 X-2.1 Y145.0 Z0.28 F1500.0 E15 ;Draw the first line 
G1 X-2.4 Y145.0 Z0.28 F5000.0 ;Move to side a little 
G1 X-2.4 Y20 Z0.28 F1500.0 E30 ;Draw the second line 
G92 E0  ;Reset Extruder 
G1 E-1.0000 F1800 ;Retract a bit 
M73 P1 R15
M73 P1 R15
G1 Z2.0 F3000 ;Move Z Axis up 
G1 E0.0000 F1800
G90
G21
M83 ; use relative distances for extrusion
" "
G1 E-1.2 F2400
M106 S0
;LAYER_CHANGE
;Z:0.2
;HEIGHT:0.2
;BEFORE_LAYER_CHANGE
;0.2
G92 E0

;_SET_FAN_SPEED_CHANGING_LAYER
M204 P500
M205 X10 Y10
M204 T500
G1 Z.4 F9000
G1 X78.008 Y57.526
G1 Z.2
G1 E1.2 F1800
;TYPE:Skirt
;WIDTH:0.5
G1 F3000
G1 X80.597 Y54.308 E.14912
G1 X83.756 Y51.648 E.14912
G1 X87.368 Y49.646 E.14912
G1 X91.298 Y48.375 E.14912
G1 X95.877 Y47.879 E.16629
G1 X125.5 Y47.879 E1.06957
G1 X129.611 Y48.278 E.14912
G1 X133.568 Y49.46 E.14912
G1 X137.224 Y51.381 E.14912
G1 X140.442 Y53.97 E.14912
G1 X143.102 Y57.129 E.14912
G1 X145.104 Y60.741 E.14912
G1 X146.375 Y64.671 E.14912
G1 X146.871 Y69.25 E.16629
G1 X146.871 Y125.75 E2.03999
G1 X146.472 Y129.861 E.14912
G1 X144.615 Y135.308 E.20778
G1 X132.115 Y160.308 E1.00919
G1 X129.92 Y163.806 E.14912
G1 X127.093 Y166.816 E.14912
G1 X123.739 Y169.227 E.14912
G1 X119.985 Y170.948 E.14912
G1 X115.969 Y171.914 E.14912
G1 X113 Y172.121 E.10747
G1 X95.877 Y172.121 E.61825
G1 X91.766 Y171.722 E.14912
G1 X87.809 Y170.54 E.14912
G1 X84.153 Y168.619 E.14912
G1 X80.935 Y166.03 E.14912
G1 X78.275 Y162.871 E.14912
G1 X76.272 Y159.259 E.14912
G1 X75.002 Y155.329 E.14912
G1 X74.506 Y150.75 E.16629
G1 X74.506 Y69.25 E2.94264
G1 X74.905 Y65.139 E.14912
G1 X76.087 Y61.182 E.14912
G1 X77.99 Y57.562 E.14767
G1 X78.402 Y57.781 F9000
M73 P2 R15
M73 P2 R15
G1 F3000
G1 X78.463 Y57.667 E.00468
G1 X81.047 Y54.502 E.14751
G1 X84.198 Y51.901 E.14751
G1 X87.793 Y49.961 E.14751
G1 X91.697 Y48.758 E.14751
G1 X95.877 Y48.336 E.15167
G1 X125.5 Y48.336 E1.06957
G1 X129.566 Y48.735 E.14751
G1 X133.477 Y49.917 E.14751
G1 X137.083 Y51.836 E.14751
G1 X140.248 Y54.421 E.14751
G1 X142.849 Y57.571 E.14751
G1 X144.789 Y61.166 E.14751
G1 X145.992 Y65.071 E.14751
G1 X146.414 Y69.25 E.15167
G1 X146.414 Y125.75 E2.03999
G1 X146.015 Y129.816 E.14751
G1 X144.206 Y135.103 E.20176
G1 X131.706 Y160.103 E1.00919
G1 X129.531 Y163.561 E.14751
G1 X126.725 Y166.531 E.14751
G1 X123.395 Y168.898 E.14751
G1 X119.668 Y170.573 E.14751
G1 X115.688 Y171.491 E.14751
G1 X113 Y171.664 E.09724
G1 X95.877 Y171.664 E.61825
G1 X91.811 Y171.265 E.14751
G1 X87.9 Y170.083 E.14751
G1 X84.294 Y168.164 E.14751
G1 X81.129 Y165.579 E.14751
G1 X78.528 Y162.429 E.14751
G1 X76.588 Y158.834 E.14751
G1 X75.385 Y154.929 E.14751
G1 X74.963 Y150.75 E.15167
G1 X74.963 Y69.25 E2.94264
G1 X75.362 Y65.184 E.14751
G1 X76.544 Y61.273 E.14751
G1 X78.384 Y57.817 E.14138
G1 X78.795 Y58.038 F9000
G1 F3000
G1 X78.918 Y57.809 E.0094
G1 X81.498 Y54.699 E.14589
G1 X84.638 Y52.157 E.14589
G1 X88.217 Y50.281 E.14589
G1 X92.095 Y49.146 E.14589
G1 X95.877 Y48.793 E.13716
G1 X125.5 Y48.793 E1.06957
G1 X129.521 Y49.192 E.14589
G1 X133.385 Y50.373 E.14589
G1 X136.941 Y52.291 E.14589
G1 X140.051 Y54.871 E.14589
G1 X142.593 Y58.011 E.14589
G1 X144.469 Y61.59 E.14589
G1 X145.604 Y65.468 E.14589
G1 X145.957 Y69.25 E.13716
G1 X145.957 Y125.75 E2.03999
G1 X145.558 Y129.771 E.14589
M73 P3 R15
M73 P3 R15
G1 X143.797 Y134.899 E.19576
G1 X131.297 Y159.899 E1.00919
G1 X129.142 Y163.317 E.14589
G1 X126.358 Y166.244 E.14589
G1 X123.052 Y168.567 E.14589
G1 X119.354 Y170.195 E.14589
G1 X115.408 Y171.065 E.14589
M73 P3 R14
M73 P3 R14
G1 X113 Y171.207 E.08709
G1 X95.877 Y171.207 E.61825
G1 X91.856 Y170.808 E.14589
G1 X87.992 Y169.627 E.14589
G1 X84.436 Y167.709 E.14589
G1 X81.326 Y165.129 E.14589
G1 X78.784 Y161.989 E.14589
G1 X76.908 Y158.41 E.14589
G1 X75.772 Y154.532 E.14589
G1 X75.42 Y150.75 E.13716
G1 X75.42 Y69.25 E2.94264
G1 X75.819 Y65.229 E.14589
G1 X77 Y61.365 E.14589
G1 X78.776 Y58.073 E.13504
; printing object aleta servo.STL id:4562764976167616512 copy 0
G1 E-1.2 F2400
;WIPE_START
G1 F9000
G1 X78.918 Y57.809
G1 X80.003 Y56.501
;WIPE_END
G1 X83.193 Y63.435 Z.6
G1 X112.143 Y126.359 Z.6
G1 Z.2
G1 E1.2 F1800
;TYPE:Inner wall
;WIDTH:0.499999
G1 X112.143 Y149.893 E.84973
G1 X96.734 Y149.893 E.55636
G1 X96.734 Y70.107 E2.88074
G1 X124.643 Y70.107 E1.00768
M73 P4 R14
M73 P4 R14
G1 X124.643 Y124.893 E1.9781
G1 X112.697 Y124.893 E.43132
G1 X112.399 Y125.044 E.01206
G1 X112.217 Y125.268 E.01041
G1 X112.143 Y125.579 E.01154
G1 X112.143 Y126.319 E.02672
G1 X112.6 Y125.579 F9000
;TYPE:Outer wall
G1 F1800
G1 X112.6 Y150.35 E.8944
G1 X96.277 Y150.35 E.58936
G1 X96.277 Y69.65 E2.91375
G1 X125.1 Y69.65 E1.04069
G1 X125.1 Y125.35 E2.0111
G1 X112.829 Y125.35 E.44307
M73 P5 R14
M73 P5 R14
G1 X112.672 Y125.412 E.00609
G1 X112.616 Y125.542 E.00509
G1 E-1.2 F2400
;WIPE_START
G1 F9000
G1 X112.615 Y127.542
;WIPE_END
G1 Z.6
G1 X123.577 Y70.244
G1 Z.6
G1 Z.2
G1 E1.2 F1800
;TYPE:Bottom surface
;WIDTH:0.502486
G1 F4800
G1 X124.3 Y70.968 E.03715
G1 X124.3 Y71.618 E.02359
G1 X123.132 Y70.45 E.05995
G1 X122.482 Y70.45 E.02359
G1 X124.3 Y72.268 E.09332
G1 X124.3 Y72.918 E.02359
G1 X121.832 Y70.45 E.12669
G1 X121.183 Y70.45 E.02359
G1 X124.3 Y73.567 E.16005
G1 X124.3 Y74.217 E.02359
G1 X120.533 Y70.45 E.19342
G1 X119.883 Y70.45 E.02359
G1 X124.3 Y74.867 E.22679
G1 X124.3 Y75.517 E.02359
G1 X119.233 Y70.45 E.26015
G1 X118.583 Y70.45 E.02359
G1 X124.3 Y76.167 E.29352
G1 X124.3 Y76.817 E.02359
G1 X117.933 Y70.45 E.32689
G1 X117.283 Y70.45 E.02359
G1 X124.3 Y77.467 E.36025
G1 X124.3 Y78.117 E.02359
G1 X116.633 Y70.45 E.39362
G1 X115.983 Y70.45 E.02359
G1 X124.3 Y78.767 E.42699
G1 X124.3 Y79.417 E.02359
G1 X115.333 Y70.45 E.46035
G1 X114.683 Y70.45 E.02359
G1 X124.3 Y80.067 E.49372
G1 X124.3 Y80.717 E.02359
G1 X114.033 Y70.45 E.52709
G1 X113.383 Y70.45 E.02359
G1 X124.3 Y81.367 E.56045
G1 X124.3 Y82.016 E.02359
G1 X112.734 Y70.45 E.59382
G1 X112.084 Y70.45 E.02359
G1 X124.3 Y82.666 E.62719
G1 X124.3 Y83.316 E.02359
G1 X111.434 Y70.45 E.66056
G1 X110.784 Y70.45 E.02359
G1 X124.3 Y83.966 E.69392
G1 X124.3 Y84.616 E.02359
G1 X110.134 Y70.45 E.72729
G1 X109.484 Y70.45 E.02359
G1 X124.3 Y85.266 E.76066
G1 X124.3 Y85.916 E.02359
M73 P6 R14
M73 P6 R14
G1 X108.834 Y70.45 E.79402
G1 X108.184 Y70.45 E.02359
G1 X124.3 Y86.566 E.82739
G1 X124.3 Y87.216 E.02359
G1 X107.534 Y70.45 E.86076
G1 X106.884 Y70.45 E.02359
G1 X124.3 Y87.866 E.89412
G1 X124.3 Y88.516 E.02359
G1 X106.234 Y70.45 E.92749
G1 X105.584 Y70.45 E.02359
G1 X124.3 Y89.166 E.96086
G1 X124.3 Y89.816 E.02359
G1 X104.934 Y70.45 E.99422
G1 X104.285 Y70.45 E.02359
G1 X124.3 Y90.465 E1.02759
G1 X124.3 Y91.115 E.02359
G1 X103.635 Y70.45 E1.06096
G1 X102.985 Y70.45 E.02359
G1 X124.3 Y91.765 E1.09432
G1 X124.3 Y92.415 E.02359
G1 X102.335 Y70.45 E1.12769
G1 X101.685 Y70.45 E.02359
G1 X124.3 Y93.065 E1.16106
G1 X124.3 Y93.715 E.02359
G1 X101.035 Y70.45 E1.19442
G1 X100.385 Y70.45 E.02359
G1 X124.3 Y94.365 E1.22779
G1 X124.3 Y95.015 E.02359
G1 X99.735 Y70.45 E1.26116
G1 X99.085 Y70.45 E.02359
G1 X124.3 Y95.665 E1.29452
G1 X124.3 Y96.315 E.02359
G1 X98.435 Y70.45 E1.32789
G1 X97.785 Y70.45 E.02359
G1 X124.3 Y96.965 E1.36126
G1 X124.3 Y97.615 E.02359
M73 P7 R14
M73 P7 R14
G1 X97.135 Y70.45 E1.39462
G1 X97.077 Y70.45 E.00213
G1 X97.077 Y71.041 E.02147
G1 X124.3 Y98.265 E1.39763
G1 X124.3 Y98.915 E.02359
G1 X97.077 Y71.691 E1.39763
G1 X97.077 Y72.341 E.02359
G1 X124.3 Y99.564 E1.39763
G1 X124.3 Y100.214 E.02359
G1 X97.077 Y72.991 E1.39763
G1 X97.077 Y73.641 E.02359
G1 X124.3 Y100.864 E1.39763
G1 X124.3 Y101.514 E.02359
G1 X97.077 Y74.291 E1.39763
G1 X97.077 Y74.941 E.02359
G1 X124.3 Y102.164 E1.39763
G1 X124.3 Y102.814 E.02359
G1 X97.077 Y75.591 E1.39763
G1 X97.077 Y76.241 E.02359
G1 X124.3 Y103.464 E1.39763
G1 X124.3 Y104.114 E.02359
G1 X97.077 Y76.891 E1.39763
G1 X97.077 Y77.54 E.02359
G1 X124.3 Y104.764 E1.39763
G1 X124.3 Y105.414 E.02359
G1 X97.077 Y78.19 E1.39763
G1 X97.077 Y78.84 E.02359
G1 X124.3 Y106.064 E1.39763
G1 X124.3 Y106.714 E.02359
M73 P8 R14
M73 P8 R14
G1 X97.077 Y79.49 E1.39763
G1 X97.077 Y80.14 E.02359
G1 X124.3 Y107.364 E1.39763
G1 X124.3 Y108.013 E.02359
G1 X97.077 Y80.79 E1.39763
G1 X97.077 Y81.44 E.02359
G1 X124.3 Y108.663 E1.39763
G1 X124.3 Y109.313 E.02359
G1 X97.077 Y82.09 E1.39763
G1 X97.077 Y82.74 E.02359
G1 X124.3 Y109.963 E1.39763
G1 X124.3 Y110.613 E.02359
G1 X97.077 Y83.39 E1.39763
G1 X97.077 Y84.04 E.02359
G1 X124.3 Y111.263 E1.39763
G1 X124.3 Y111.913 E.02359
G1 X97.077 Y84.69 E1.39763
G1 X97.077 Y85.34 E.02359
G1 X124.3 Y112.563 E1.39763
G1 X124.3 Y113.213 E.02359
G1 X97.077 Y85.989 E1.39763
G1 X97.077 Y86.639 E.02359
G1 X124.3 Y113.863 E1.39763
G1 X124.3 Y114.513 E.02359
G1 X97.077 Y87.289 E1.39763
G1 X97.077 Y87.939 E.02359
G1 X124.3 Y115.163 E1.39763
G1 X124.3 Y115.813 E.02359
G1 X97.077 Y88.589 E1.39763
G1 X97.077 Y89.239 E.02359
M73 P9 R14
M73 P9 R14
G1 X124.3 Y116.462 E1.39763
G1 X124.3 Y117.112 E.02359
G1 X97.077 Y89.889 E1.39763
G1 X97.077 Y90.539 E.02359
G1 X124.3 Y117.762 E1.39763
G1 X124.3 Y118.412 E.02359
G1 X97.077 Y91.189 E1.39763
G1 X97.077 Y91.839 E.02359
G1 X124.3 Y119.062 E1.39763
G1 X124.3 Y119.712 E.02359
G1 X97.077 Y92.489 E1.39763
G1 X97.077 Y93.139 E.02359
G1 X124.3 Y120.362 E1.39763
G1 X124.3 Y121.012 E.02359
G1 X97.077 Y93.789 E1.39763
G1 X97.077 Y94.439 E.02359
G1 X124.3 Y121.662 E1.39763
G1 X124.3 Y122.312 E.02359
M73 P9 R13
M73 P9 R13
G1 X97.077 Y95.088 E1.39763
G1 X97.077 Y95.738 E.02359
G1 X124.3 Y122.962 E1.39763
G1 X124.3 Y123.612 E.02359
G1 X97.077 Y96.388 E1.39763
G1 X97.077 Y97.038 E.02359
G1 X124.3 Y124.262 E1.39763
G1 X124.3 Y124.55 E.01048
G1 X123.939 Y124.55 E.01312
G1 X97.077 Y97.688 E1.37908
G1 X97.077 Y98.338 E.02359
G1 X123.289 Y124.55 E1.34572
G1 X122.639 Y124.551 E.02359
M73 P10 R13
M73 P10 R13
G1 X97.077 Y98.988 E1.31236
G1 X97.077 Y99.638 E.02359
G1 X121.99 Y124.551 E1.27901
G1 X121.34 Y124.551 E.02359
G1 X97.077 Y100.288 E1.24565
G1 X97.077 Y100.938 E.02359
G1 X120.69 Y124.551 E1.21229
G1 X120.04 Y124.551 E.02359
G1 X97.077 Y101.588 E1.17893
G1 X97.077 Y102.238 E.02359
G1 X119.39 Y124.551 E1.14557
G1 X118.741 Y124.551 E.02359
G1 X97.077 Y102.888 E1.11221
G1 X97.077 Y103.537 E.02359
G1 X118.091 Y124.552 E1.07885
G1 X117.441 Y124.552 E.02359
G1 X97.077 Y104.187 E1.04549
G1 X97.077 Y104.837 E.02359
G1 X116.791 Y124.552 E1.01213
G1 X116.142 Y124.552 E.02359
G1 X97.077 Y105.487 E.97877
G1 X97.077 Y106.137 E.02359
G1 X115.492 Y124.552 E.94541
G1 X114.842 Y124.552 E.02359
G1 X97.077 Y106.787 E.91205
G1 X97.077 Y107.437 E.02359
G1 X114.192 Y124.552 E.8787
G1 X113.542 Y124.553 E.02359
G1 X97.077 Y108.087 E.84534
G1 X97.077 Y108.737 E.02359
G1 X112.893 Y124.553 E.81198
G2 X112.362 Y124.672 I-.034 J1.093 E.01996
G1 X97.077 Y109.387 E.78472
G1 X97.077 Y110.037 E.02359
G1 X112.009 Y124.969 E.76661
G2 X111.814 Y125.424 I1 J.697 E.0181
M73 P11 R13
M73 P11 R13
G1 X97.077 Y110.687 E.75662
G1 X97.077 Y111.337 E.02359
G1 X111.8 Y126.06 E.75589
G1 X111.8 Y126.71 E.02359
G1 X97.077 Y111.986 E.75589
G1 X97.077 Y112.636 E.02359
G1 X111.8 Y127.36 E.75589
G1 X111.8 Y128.01 E.02359
G1 X97.077 Y113.286 E.75589
G1 X97.077 Y113.936 E.02359
G1 X111.8 Y128.66 E.75589
G1 X111.8 Y129.31 E.02359
G1 X97.077 Y114.586 E.75589
G1 X97.077 Y115.236 E.02359
G1 X111.8 Y129.959 E.75589
G1 X111.8 Y130.609 E.02359
G1 X97.077 Y115.886 E.75589
G1 X97.077 Y116.536 E.02359
G1 X111.8 Y131.259 E.75589
G1 X111.8 Y131.909 E.02359
G1 X97.077 Y117.186 E.75589
G1 X97.077 Y117.836 E.02359
G1 X111.8 Y132.559 E.75589
G1 X111.8 Y133.209 E.02359
G1 X97.077 Y118.486 E.75589
G1 X97.077 Y119.136 E.02359
G1 X111.8 Y133.859 E.75589
G1 X111.8 Y134.509 E.02359
G1 X97.077 Y119.786 E.75589
G1 X97.077 Y120.435 E.02359
G1 X111.8 Y135.159 E.75589
G1 X111.8 Y135.809 E.02359
G1 X97.077 Y121.085 E.75589
G1 X97.077 Y121.735 E.02359
G1 X111.8 Y136.459 E.75589
G1 X111.8 Y137.109 E.02359
G1 X97.077 Y122.385 E.75589
G1 X97.077 Y123.035 E.02359
G1 X111.8 Y137.759 E.75589
G1 X111.8 Y138.408 E.02359
G1 X97.077 Y123.685 E.75589
G1 X97.077 Y124.335 E.02359
G1 X111.8 Y139.058 E.75589
G1 X111.8 Y139.708 E.02359
M73 P12 R13
M73 P12 R13
G1 X97.077 Y124.985 E.75589
G1 X97.077 Y125.635 E.02359
G1 X111.8 Y140.358 E.75589
G1 X111.8 Y141.008 E.02359
G1 X97.077 Y126.285 E.75589
G1 X97.077 Y126.935 E.02359
G1 X111.8 Y141.658 E.75589
G1 X111.8 Y142.308 E.02359
G1 X97.077 Y127.585 E.75589
G1 X97.077 Y128.235 E.02359
G1 X111.8 Y142.958 E.75589
G1 X111.8 Y143.608 E.02359
G1 X97.077 Y128.885 E.75589
G1 X97.077 Y129.534 E.02359
G1 X111.8 Y144.258 E.75589
G1 X111.8 Y144.908 E.02359
G1 X97.077 Y130.184 E.75589
G1 X97.077 Y130.834 E.02359
G1 X111.8 Y145.558 E.75589
G1 X111.8 Y146.208 E.02359
G1 X97.077 Y131.484 E.75589
G1 X97.077 Y132.134 E.02359
G1 X111.8 Y146.857 E.75589
G1 X111.8 Y147.507 E.02359
G1 X97.077 Y132.784 E.75589
G1 X97.077 Y133.434 E.02359
G1 X111.8 Y148.157 E.75589
G1 X111.8 Y148.807 E.02359
G1 X97.077 Y134.084 E.75589
G1 X97.077 Y134.734 E.02359
G1 X111.8 Y149.457 E.75589
G1 X111.8 Y149.55 E.00337
G1 X111.243 Y149.55 E.02022
G1 X97.077 Y135.384 E.72729
G1 X97.077 Y136.034 E.02359
G1 X110.593 Y149.55 E.69393
G1 X109.943 Y149.55 E.02359
G1 X97.077 Y136.684 E.66056
G1 X97.077 Y137.334 E.02359
G1 X109.293 Y149.55 E.62719
G1 X108.643 Y149.55 E.02359
G1 X97.077 Y137.983 E.59382
G1 X97.077 Y138.633 E.02359
G1 X107.993 Y149.55 E.56046
G1 X107.344 Y149.55 E.02359
G1 X97.077 Y139.283 E.52709
G1 X97.077 Y139.933 E.02359
M73 P13 R13
M73 P13 R13
G1 X106.694 Y149.55 E.49372
G1 X106.044 Y149.55 E.02359
G1 X97.077 Y140.583 E.46036
G1 X97.077 Y141.233 E.02359
G1 X105.394 Y149.55 E.42699
G1 X104.744 Y149.55 E.02359
G1 X97.077 Y141.883 E.39362
G1 X97.077 Y142.533 E.02359
G1 X104.094 Y149.55 E.36026
G1 X103.444 Y149.55 E.02359
G1 X97.077 Y143.183 E.32689
G1 X97.077 Y143.833 E.02359
G1 X102.794 Y149.55 E.29352
G1 X102.144 Y149.55 E.02359
G1 X97.077 Y144.483 E.26016
G1 X97.077 Y145.133 E.02359
G1 X101.494 Y149.55 E.22679
G1 X100.844 Y149.55 E.02359
G1 X97.077 Y145.783 E.19342
G1 X97.077 Y146.432 E.02359
G1 X100.194 Y149.55 E.16006
G1 X99.544 Y149.55 E.02359
G1 X97.077 Y147.082 E.12669
G1 X97.077 Y147.732 E.02359
G1 X98.895 Y149.55 E.09332
G1 X98.245 Y149.55 E.02359
G1 X97.077 Y148.382 E.05996
G1 X97.077 Y149.032 E.02359
G1 X97.8 Y149.756 E.03715
; stop printing object aleta servo.STL id:4562764976167616512 copy 0
;TIME_ELAPSED:124.277496

M106 S255
;LAYER_CHANGE
;Z:0.4
;HEIGHT:0.2
;BEFORE_LAYER_CHANGE
;0.4
G92 E0

G1 E-1.2 F2400
;WIPE_START
G1 F9000
G1 X97.077 Y149.032
G1 X97.077 Y148.382
G1 X97.308 Y148.613
;WIPE_END
;_SET_FAN_SPEED_CHANGING_LAYER
M204 P2500
; printing object aleta servo.STL id:4562764976167616512 copy 0
M204 T2500
G1 X101.597 Y142.3 Z.6
G1 X112.398 Y126.403 Z.6
G1 Z.4
G1 E1.2 F1800
M204 P2000
;TYPE:Inner wall
;WIDTH:0.449999
G1 F5400
G1 X112.398 Y150.148 E.76354
G1 X98.354 Y150.148 E.45159
G1 X98.354 Y140.368 E.3145
G1 X98.299 Y140.228 E.00485
