;TIME:1364.97
;Filament used:2.33541m
;Layer height:0.200
; HEADER_BLOCK_START
; generated by Creality_Print V6.0.5.1840 on 2025-03-25 at 14:13:00
; total layer number: 77
; filament_density: 1.24
; filament_diameter: 1.75
; max_z_height: 15.60
; HEADER_BLOCK_END

; MINX = 100.00
; MINY = 54.98
; MINZ = 0.00
; MAXX = 120.00
; MAXY = 165.02
; MAXZ = 15.59

; THUMBNAIL_BLOCK_START

;
; THUMBNAIL_BLOCK_END

; THUMBNAIL_BLOCK_START

;
; THUMBNAIL_BLOCK_END

; external perimeters extrusion width = 0.42mm
; perimeters extrusion width = 0.45mm
; infill extrusion width = 0.45mm
; solid infill extrusion width = 0.42mm
; top infill extrusion width = 0.42mm
; first layer extrusion width = 0.50mm

; EXECUTABLE_BLOCK_START
M73 P0 R22
M201 X5000 Y5000 Z500 E5000
M203 X500 Y500 Z30 E100
M204 P5000 R2500 T5000 ; sets acceleration (P, T) and retract acceleration (R), mm/sec^2
M205 X10.00 Y10.00 Z0.40 E5.00 ; sets the jerk limits, mm/sec
;TYPE:Custom
M220 S100 ;Reset Feedrate 
M221 S100 ;Reset Flowrate 
 
M140 S60 ;Set final bed temp 
G28 ;Home 
 
G92 E0 ;Reset Extruder 
G1 Z2.0 F3000 ;Move Z Axis up 
M104 S205 ;Set final nozzle temp 
G1 X-2.1 Y20 Z0.28 F5000.0 ;Move to start position 
M190 S60 ;Wait for bed temp to stabilize 
M109 S205 ;Wait for nozzle temp to stabilize 
G1 X-2.1 Y145.0 Z0.28 F1500.0 E15 ;Draw the first line 
G1 X-2.4 Y145.0 Z0.28 F5000.0 ;Move to side a little 
G1 X-2.4 Y20 Z0.28 F1500.0 E30 ;Draw the second line 
G92 E0  ;Reset Extruder 
G1 E-1.0000 F1800 ;Retract a bit 
G1 Z2.0 F3000 ;Move Z Axis up 
G1 E0.0000 F1800
G90
G21
M83 ; use relative distances for extrusion
" "
G1 E-1.2 F2400
M106 S0
;LAYER_CHANGE
;Z:0.2
;HEIGHT:0.2
;BEFORE_LAYER_CHANGE
;0.2
G92 E0

;_SET_FAN_SPEED_CHANGING_LAYER
M204 P500
M205 X10 Y10
M204 T500
G1 Z.4 F9000
G1 X82.128 Y44.884
G1 Z.2
G1 E1.2 F1800
;TYPE:Skirt
;WIDTH:0.5
G1 F3000
G1 X84.717 Y41.666 E.14912
G1 X87.876 Y39.006 E.14912
G1 X91.488 Y37.003 E.14912
G1 X95.418 Y35.733 E.14912
G1 X99.997 Y35.237 E.16629
G1 X120.003 Y35.237 E.72234
G1 X124.114 Y35.636 E.14912
G1 X128.071 Y36.818 E.14912
G1 X131.727 Y38.739 E.14912
G1 X134.945 Y41.328 E.14912
G1 X137.605 Y44.487 E.14912
G1 X139.607 Y48.099 E.14912
G1 X140.878 Y52.029 E.14912
G1 X141.374 Y56.608 E.16629
G1 X141.374 Y162.362 E3.81838
G1 X140.975 Y166.473 E.14912
M73 P1 R22
M73 P1 R22
G1 X139.793 Y170.43 E.14912
G1 X137.872 Y174.086 E.14912
G1 X135.283 Y177.304 E.14912
G1 X132.124 Y179.964 E.14912
G1 X128.512 Y181.967 E.14912
G1 X124.582 Y183.237 E.14912
G1 X120.045 Y183.734 E.16479
G1 X99.938 Y183.753 E.72598
G1 X95.828 Y183.343 E.14912
G1 X91.875 Y182.149 E.14912
G1 X88.224 Y180.218 E.14912
G1 X85.013 Y177.62 E.14912
G1 X82.362 Y174.454 E.14912
G1 X80.369 Y170.836 E.14912
G1 X79.109 Y166.903 E.14912
G1 X78.626 Y162.382 E.16417
G1 X78.626 Y56.608 E3.81908
G1 X79.025 Y52.497 E.14912
G1 X80.207 Y48.54 E.14912
G1 X82.11 Y44.92 E.14767
G1 X82.522 Y45.139 F9000
G1 F3000
G1 X82.583 Y45.025 E.00468
G1 X85.168 Y41.86 E.14751
G1 X88.318 Y39.259 E.14751
G1 X91.913 Y37.319 E.14751
G1 X95.818 Y36.116 E.14751
G1 X99.997 Y35.694 E.15167
G1 X120.003 Y35.694 E.72234
G1 X124.069 Y36.093 E.14751
G1 X127.98 Y37.275 E.14751
G1 X131.586 Y39.194 E.14751
G1 X134.751 Y41.778 E.14751
G1 X137.352 Y44.929 E.14751
G1 X139.292 Y48.524 E.14751
G1 X140.495 Y52.428 E.14751
G1 X140.917 Y56.608 E.15167
G1 X140.917 Y162.362 E3.81838
G1 X140.518 Y166.428 E.14751
G1 X139.336 Y170.339 E.14751
G1 X137.417 Y173.946 E.14751
G1 X134.832 Y177.11 E.14751
G1 X131.682 Y179.712 E.14751
G1 X128.087 Y181.651 E.14751
G1 X124.182 Y182.855 E.14751
G1 X120.044 Y183.277 E.1502
G1 X99.939 Y183.296 E.7259
G1 X95.874 Y182.886 E.14751
G1 X91.967 Y181.693 E.14751
G1 X88.366 Y179.763 E.14751
G1 X85.209 Y177.17 E.14751
G1 X82.616 Y174.013 E.14751
G1 X80.686 Y170.412 E.14751
G1 X79.493 Y166.505 E.14751
G1 X79.083 Y162.382 E.14959
G1 X79.083 Y56.608 E3.81908
G1 X79.482 Y52.542 E.14751
G1 X80.664 Y48.631 E.14751
G1 X82.504 Y45.174 E.14138
G1 X82.915 Y45.396 F9000
G1 F3000
G1 X83.038 Y45.167 E.0094
G1 X85.618 Y42.057 E.14589
G1 X88.758 Y39.515 E.14589
M73 P2 R22
M73 P2 R22
G1 X92.337 Y37.639 E.14589
G1 X96.215 Y36.503 E.14589
G1 X99.997 Y36.151 E.13716
G1 X120.003 Y36.151 E.72234
G1 X124.024 Y36.55 E.14589
G1 X127.888 Y37.731 E.14589
G1 X131.444 Y39.649 E.14589
G1 X134.554 Y42.229 E.14589
G1 X137.096 Y45.369 E.14589
G1 X138.972 Y48.948 E.14589
G1 X140.107 Y52.826 E.14589
G1 X140.46 Y56.608 E.13716
G1 X140.46 Y162.362 E3.81838
G1 X140.061 Y166.383 E.14589
G1 X138.88 Y170.247 E.14589
G1 X136.962 Y173.803 E.14589
G1 X134.382 Y176.913 E.14589
G1 X131.242 Y179.456 E.14589
G1 X127.663 Y181.331 E.14589
G1 X123.785 Y182.467 E.14589
G1 X120.043 Y182.819 E.13572
G1 X99.941 Y182.839 E.72582
G1 X95.921 Y182.429 E.14589
G1 X92.06 Y181.237 E.14589
G1 X88.509 Y179.309 E.14589
G1 X85.406 Y176.721 E.14589
G1 X82.873 Y173.573 E.14589
G1 X81.007 Y169.989 E.14589
G1 X79.882 Y166.109 E.14589
G1 X79.54 Y162.382 E.13513
G1 X79.54 Y56.608 E3.81908
G1 X79.939 Y52.587 E.14589
G1 X81.12 Y48.723 E.14589
G1 X82.896 Y45.431 E.13504
; printing object Caixa_ulleres_test.stl id:0 copy 0
G1 E-1.2 F2400
;WIPE_START
G1 F9000
G1 X83.038 Y45.167
G1 X84.123 Y43.859
;WIPE_END
G1 X87.614 Y50.646 Z.6
G1 X119.146 Y111.96 Z.6
G1 Z.2
G1 E1.2 F1800
;TYPE:Inner wall
;WIDTH:0.499999
G1 X119.146 Y161.503 E1.78879
G1 X109.995 Y161.469 E.3304
G1 X106.363 Y161.532 E.13116
G1 X100.854 Y161.526 E.1989
G1 X100.854 Y111.46 E1.80768
G1 X119.146 Y111.46 E.66044
G1 X119.146 Y111.92 E.01661
G1 E-1.2 F2400
;WIPE_START
G1 F9000
G1 X119.146 Y113.92
;WIPE_END
G1 X119.603 Y111.003 Z.6
G1 Z.2
M73 P3 R22
M73 P3 R22
G1 E1.2 F1800
;TYPE:Outer wall
G1 X119.603 Y161.961 E1.83991
G1 X109.998 Y161.926 E.34679
G1 X106.367 Y161.989 E.13114
G1 X100.397 Y161.982 E.21554
G1 X100.397 Y111.003 E1.84067
G1 X119.563 Y111.003 E.69201
G1 E-1.2 F2400
M73 P3 R21
;WIPE_START
M73 P3 R21
G1 F9000
G1 X119.565 Y113.003
;WIPE_END
G1 Z.6
G1 X119.009 Y112.521
G1 Z.6
G1 Z.2
G1 E1.2 F1800
;TYPE:Bottom surface
;WIDTH:0.500188
G1 F4800
G1 X118.29 Y111.803 E.03671
G1 X117.643 Y111.803 E.02336
G1 X118.803 Y112.962 E.05924
G1 X118.803 Y113.609 E.02336
G1 X116.997 Y111.803 E.09227
G1 X116.35 Y111.803 E.02336
G1 X118.803 Y114.256 E.12531
G1 X118.803 Y114.902 E.02336
G1 X115.703 Y111.803 E.15834
G1 X115.057 Y111.803 E.02336
G1 X118.803 Y115.549 E.19137
G1 X118.803 Y116.196 E.02336
G1 X114.41 Y111.803 E.22441
G1 X113.763 Y111.803 E.02336
G1 X118.803 Y116.842 E.25744
G1 X118.803 Y117.489 E.02336
G1 X113.117 Y111.803 E.29048
G1 X112.47 Y111.803 E.02336
G1 X118.803 Y118.136 E.32351
G1 X118.803 Y118.782 E.02336
G1 X111.823 Y111.803 E.35654
G1 X111.177 Y111.803 E.02336
G1 X118.803 Y119.429 E.38958
G1 X118.803 Y120.076 E.02336
G1 X110.53 Y111.803 E.42261
G1 X109.883 Y111.803 E.02336
G1 X118.803 Y120.722 E.45565
G1 X118.803 Y121.369 E.02336
G1 X109.237 Y111.803 E.48868
G1 X108.59 Y111.803 E.02336
G1 X118.803 Y122.016 E.52171
G1 X118.803 Y122.663 E.02336
G1 X107.943 Y111.803 E.55475
G1 X107.297 Y111.803 E.02336
G1 X118.803 Y123.309 E.58778
G1 X118.803 Y123.956 E.02336
G1 X106.65 Y111.803 E.62081
G1 X106.003 Y111.803 E.02336
G1 X118.803 Y124.603 E.65385
G1 X118.803 Y125.249 E.02336
G1 X105.357 Y111.803 E.68688
G1 X104.71 Y111.803 E.02336
G1 X118.803 Y125.896 E.71992
G1 X118.803 Y126.543 E.02336
G1 X104.063 Y111.803 E.75295
G1 X103.417 Y111.803 E.02336
G1 X118.803 Y127.189 E.78598
G1 X118.803 Y127.836 E.02336
G1 X102.77 Y111.803 E.81902
G1 X102.123 Y111.803 E.02336
G1 X118.803 Y128.483 E.85205
G1 X118.803 Y129.129 E.02336
G1 X101.477 Y111.803 E.88509
G1 X101.197 Y111.803 E.0101
G1 X101.197 Y112.17 E.01326
G1 X118.803 Y129.776 E.89937
G1 X118.803 Y130.423 E.02336
M73 P4 R21
M73 P4 R21
G1 X101.197 Y112.816 E.89937
G1 X101.197 Y113.463 E.02336
G1 X118.803 Y131.069 E.89937
G1 X118.803 Y131.716 E.02336
G1 X101.197 Y114.11 E.89937
G1 X101.197 Y114.756 E.02336
G1 X118.803 Y132.363 E.89937
G1 X118.803 Y133.009 E.02336
G1 X101.197 Y115.403 E.89937
G1 X101.197 Y116.05 E.02336
G1 X118.803 Y133.656 E.89937
G1 X118.803 Y134.303 E.02336
G1 X101.197 Y116.696 E.89937
G1 X101.197 Y117.343 E.02336
G1 X118.803 Y134.949 E.89937
G1 X118.803 Y135.596 E.02336
G1 X101.197 Y117.99 E.89937
G1 X101.197 Y118.636 E.02336
G1 X118.803 Y136.243 E.89937
G1 X118.803 Y136.889 E.02336
G1 X101.197 Y119.283 E.89937
G1 X101.197 Y119.93 E.02336
G1 X118.803 Y137.536 E.89937
G1 X118.803 Y138.183 E.02336
G1 X101.197 Y120.576 E.89937
G1 X101.197 Y121.223 E.02336
G1 X118.803 Y138.829 E.89937
G1 X118.803 Y139.476 E.02336
G1 X101.197 Y121.87 E.89937
G1 X101.197 Y122.516 E.02336
G1 X118.803 Y140.123 E.89937
G1 X118.803 Y140.769 E.02336
G1 X101.197 Y123.163 E.89937
G1 X101.197 Y123.81 E.02336
G1 X118.803 Y141.416 E.89937
G1 X118.803 Y142.063 E.02336
G1 X101.197 Y124.457 E.89937
G1 X101.197 Y125.103 E.02336
G1 X118.803 Y142.709 E.89937
G1 X118.803 Y143.356 E.02336
G1 X101.197 Y125.75 E.89937
G1 X101.197 Y126.397 E.02336
G1 X118.803 Y144.003 E.89937
G1 X118.803 Y144.649 E.02336
G1 X101.197 Y127.043 E.89937
G1 X101.197 Y127.69 E.02336
G1 X118.803 Y145.296 E.89937
G1 X118.803 Y145.943 E.02336
G1 X101.197 Y128.337 E.89937
G1 X101.197 Y128.983 E.02336
G1 X118.803 Y146.589 E.89937
G1 X118.803 Y147.236 E.02336
G1 X101.197 Y129.63 E.89937
G1 X101.197 Y130.277 E.02336
G1 X118.803 Y147.883 E.89937
G1 X118.803 Y148.529 E.02336
G1 X101.197 Y130.923 E.89937
G1 X101.197 Y131.57 E.02336
M73 P5 R21
M73 P5 R21
G1 X118.803 Y149.176 E.89937
G1 X118.803 Y149.823 E.02336
G1 X101.197 Y132.217 E.89937
G1 X101.197 Y132.863 E.02336
G1 X118.803 Y150.47 E.89937
G1 X118.803 Y151.116 E.02336
G1 X101.197 Y133.51 E.89937
G1 X101.197 Y134.157 E.02336
G1 X118.803 Y151.763 E.89937
G1 X118.803 Y152.41 E.02336
G1 X101.197 Y134.803 E.89937
G1 X101.197 Y135.45 E.02336
G1 X118.803 Y153.056 E.89937
G1 X118.803 Y153.703 E.02336
G1 X101.197 Y136.097 E.89937
G1 X101.197 Y136.743 E.02336
G1 X118.803 Y154.35 E.89937
G1 X118.803 Y154.996 E.02336
G1 X101.197 Y137.39 E.89937
G1 X101.197 Y138.037 E.02336
G1 X118.803 Y155.643 E.89937
G1 X118.803 Y156.29 E.02336
G1 X101.197 Y138.683 E.89937
G1 X101.197 Y139.33 E.02336
G1 X118.803 Y156.936 E.89937
G1 X118.803 Y157.583 E.02336
G1 X101.197 Y139.977 E.89937
G1 X101.197 Y140.623 E.02336
G1 X118.803 Y158.23 E.89937
G1 X118.803 Y158.876 E.02336
G1 X101.197 Y141.27 E.89937
G1 X101.197 Y141.917 E.02336
G1 X118.803 Y159.523 E.89937
G1 X118.803 Y160.17 E.02336
G1 X101.197 Y142.563 E.89937
G1 X101.197 Y143.21 E.02336
G1 X118.803 Y160.816 E.89937
G1 X118.803 Y161.159 E.01236
G1 X118.498 Y161.157 E.01104
G1 X101.197 Y143.857 E.88377
G1 X101.197 Y144.503 E.02336
G1 X117.849 Y161.155 E.85061
G1 X117.199 Y161.153 E.02344
G1 X101.197 Y145.15 E.81745
G1 X101.197 Y145.797 E.02336
G1 X116.55 Y161.15 E.7843
G1 X115.901 Y161.148 E.02344
G1 X101.197 Y146.443 E.75114
G1 X101.197 Y147.09 E.02336
G1 X115.252 Y161.146 E.71799
G1 X114.603 Y161.143 E.02344
G1 X101.197 Y147.737 E.68483
G1 X101.197 Y148.383 E.02336
G1 X113.954 Y161.141 E.65167
G1 X113.305 Y161.138 E.02344
G1 X101.197 Y149.03 E.61852
G1 X101.197 Y149.677 E.02336
G1 X112.656 Y161.136 E.58536
G1 X112.007 Y161.134 E.02344
G1 X101.197 Y150.323 E.55221
G1 X101.197 Y150.97 E.02336
G1 X111.358 Y161.131 E.51905
G1 X110.709 Y161.129 E.02344
M73 P6 R21
M73 P6 R21
G1 X101.197 Y151.617 E.4859
G1 X101.197 Y152.264 E.02336
G1 X110.06 Y161.126 E.45274
G2 X109.423 Y161.136 I-.086 J15.175 E.02301
G1 X101.197 Y152.91 E.4202
G1 X101.197 Y153.557 E.02336
G1 X108.787 Y161.147 E.38773
G1 X108.152 Y161.158 E.02296
G1 X101.197 Y154.204 E.35526
G1 X101.197 Y154.85 E.02336
G1 X107.516 Y161.169 E.32279
G1 X106.88 Y161.18 E.02296
G1 X101.197 Y155.497 E.29032
G1 X101.197 Y156.144 E.02336
G1 X106.242 Y161.189 E.25774
G1 X105.595 Y161.188 E.02338
G1 X101.197 Y156.79 E.22467
G1 X101.197 Y157.437 E.02336
G1 X104.948 Y161.188 E.1916
G1 X104.3 Y161.187 E.02338
G1 X101.197 Y158.084 E.15853
G1 X101.197 Y158.73 E.02336
G1 X103.653 Y161.186 E.12546
G1 X103.005 Y161.185 E.02338
G1 X101.197 Y159.377 E.09238
G1 X101.197 Y160.024 E.02336
G1 X102.358 Y161.185 E.05931
G1 X101.711 Y161.184 E.02338
G1 X100.991 Y160.465 E.03675
G1 E-1.2 F2400
;WIPE_START
G1 F9000
G1 X101.711 Y161.184
G1 X102.358 Y161.185
G1 X102.121 Y160.948
;WIPE_END
G1 X104.375 Y153.656 Z.6
G1 X118.646 Y107.492 Z.6
G1 Z.2
G1 E1.2 F1800
;TYPE:Inner wall
;WIDTH:0.499999
G1 X100.854 Y107.492 E.64239
G1 X100.854 Y57.465 E1.80628
G1 X119.146 Y57.465 E.66044
G1 X119.146 Y107.492 E1.80628
G1 X118.686 Y107.492 E.01661
G1 E-1.2 F2400
;WIPE_START
G1 F9000
G1 X116.686 Y107.492
;WIPE_END
G1 X119.603 Y107.949 Z.6
G1 Z.2
G1 E1.2 F1800
;TYPE:Outer wall
G1 X100.397 Y107.949 E.69345
G1 X100.397 Y57.008 E1.83929
G1 X119.603 Y57.008 E.69345
G1 X119.603 Y107.909 E1.83784
G1 E-1.2 F2400
M73 P7 R21
;WIPE_START
M73 P7 R21
G1 F9000
G1 X117.603 Y107.913
;WIPE_END
G1 X117.82 Y100.284 Z.6
G1 X119.009 Y58.535 Z.6
G1 Z.2
G1 E1.2 F1800
;TYPE:Bottom surface
;WIDTH:0.50432
G1 F4800
G1 X118.281 Y57.808 E.0375
G1 X117.629 Y57.808 E.02378
G1 X118.803 Y58.982 E.06053
G1 X118.803 Y59.635 E.02378
G1 X116.976 Y57.808 E.09416
G1 X116.324 Y57.808 E.02378
G1 X118.803 Y60.287 E.12779
G1 X118.803 Y60.94 E.02378
G1 X115.671 Y57.808 E.16143
G1 X115.019 Y57.808 E.02378
G1 X118.803 Y61.592 E.19506
G1 X118.803 Y62.245 E.02378
G1 X114.366 Y57.808 E.2287
G1 X113.714 Y57.808 E.02378
G1 X118.803 Y62.897 E.26233
G1 X118.803 Y63.55 E.02378
G1 X113.061 Y57.808 E.29596
G1 X112.409 Y57.808 E.02378
G1 X118.803 Y64.202 E.3296
G1 X118.803 Y64.855 E.02378
G1 X111.756 Y57.808 E.36323
G1 X111.104 Y57.808 E.02378
G1 X118.803 Y65.507 E.39686
G1 X118.803 Y66.16 E.02378
G1 X110.451 Y57.808 E.4305
G1 X109.799 Y57.808 E.02378
G1 X118.803 Y66.812 E.46413
G1 X118.803 Y67.465 E.02378
G1 X109.146 Y57.808 E.49776
G1 X108.494 Y57.808 E.02378
G1 X118.803 Y68.117 E.5314
G1 X118.803 Y68.77 E.02378
G1 X107.841 Y57.808 E.56503
G1 X107.189 Y57.808 E.02378
G1 X118.803 Y69.422 E.59866
G1 X118.803 Y70.075 E.02378
G1 X106.536 Y57.808 E.6323
G1 X105.884 Y57.808 E.02378
G1 X118.803 Y70.727 E.66593
G1 X118.803 Y71.38 E.02378
G1 X105.231 Y57.808 E.69957
G1 X104.578 Y57.808 E.02378
G1 X118.803 Y72.032 E.7332
G1 X118.803 Y72.685 E.02378
G1 X103.926 Y57.808 E.76683
G1 X103.273 Y57.808 E.02378
G1 X118.803 Y73.337 E.80047
G1 X118.803 Y73.99 E.02378
G1 X102.621 Y57.808 E.8341
G1 X101.968 Y57.808 E.02378
G1 X118.803 Y74.642 E.86773
G1 X118.803 Y75.295 E.02378
G1 X101.316 Y57.808 E.90137
G1 X101.197 Y57.808 E.00434
G1 X101.197 Y58.341 E.01945
M73 P7 R20
M73 P7 R20
G1 X118.803 Y75.947 E.9075
G1 X118.803 Y76.6 E.02378
G1 X101.197 Y58.994 E.9075
G1 X101.197 Y59.646 E.02378
G1 X118.803 Y77.253 E.9075
G1 X118.803 Y77.905 E.02378
G1 X101.197 Y60.299 E.9075
G1 X101.197 Y60.951 E.02378
G1 X118.803 Y78.558 E.9075
G1 X118.803 Y79.21 E.02378
G1 X101.197 Y61.604 E.9075
G1 X101.197 Y62.256 E.02378
G1 X118.803 Y79.863 E.9075
G1 X118.803 Y80.515 E.02378
G1 X101.197 Y62.909 E.9075
G1 X101.197 Y63.561 E.02378
G1 X118.803 Y81.168 E.9075
M73 P8 R20
M73 P8 R20
G1 X118.803 Y81.82 E.02378
G1 X101.197 Y64.214 E.9075
G1 X101.197 Y64.866 E.02378
G1 X118.803 Y82.473 E.9075
G1 X118.803 Y83.125 E.02378
G1 X101.197 Y65.519 E.9075
G1 X101.197 Y66.171 E.02378
G1 X118.803 Y83.778 E.9075
G1 X118.803 Y84.43 E.02378
G1 X101.197 Y66.824 E.9075
G1 X101.197 Y67.476 E.02378
G1 X118.803 Y85.083 E.9075
G1 X118.803 Y85.735 E.02378
G1 X101.197 Y68.129 E.9075
G1 X101.197 Y68.782 E.02378
G1 X118.803 Y86.388 E.9075
G1 X118.803 Y87.04 E.02378
G1 X101.197 Y69.434 E.9075
G1 X101.197 Y70.087 E.02378
G1 X118.803 Y87.693 E.9075
G1 X118.803 Y88.345 E.02378
G1 X101.197 Y70.739 E.9075
G1 X101.197 Y71.392 E.02378
G1 X118.803 Y88.998 E.9075
G1 X118.803 Y89.65 E.02378
G1 X101.197 Y72.044 E.9075
G1 X101.197 Y72.697 E.02378
G1 X118.803 Y90.303 E.9075
G1 X118.803 Y90.955 E.02378
G1 X101.197 Y73.349 E.9075
G1 X101.197 Y74.002 E.02378
G1 X118.803 Y91.608 E.9075
G1 X118.803 Y92.26 E.02378
G1 X101.197 Y74.654 E.9075
G1 X101.197 Y75.307 E.02378
G1 X118.803 Y92.913 E.9075
G1 X118.803 Y93.565 E.02378
G1 X101.197 Y75.959 E.9075
G1 X101.197 Y76.612 E.02378
G1 X118.803 Y94.218 E.9075
G1 X118.803 Y94.87 E.02378
G1 X101.197 Y77.264 E.9075
