;TIME:1559.28
;Filament used:3.04049m
;Layer height:0.200
; HEADER_BLOCK_START
; generated by Creality_Print V6.0.5.1840 on 2025-03-25 at 21:01:35
; total layer number: 68
; filament_density: 1.24
; filament_diameter: 1.75
; max_z_height: 13.60
; HEADER_BLOCK_END

; MINX = 31.82
; MINY = 57.37
; MINZ = 0.00
; MAXX = 187.82
; MAXY = 162.37
; MAXZ = 13.50

; THUMBNAIL_BLOCK_START

;
; THUMBNAIL_BLOCK_END

; THUMBNAIL_BLOCK_START

;
; THUMBNAIL_BLOCK_END

; external perimeters extrusion width = 0.42mm
; perimeters extrusion width = 0.45mm
; infill extrusion width = 0.45mm
; solid infill extrusion width = 0.42mm
; top infill extrusion width = 0.42mm
; first layer extrusion width = 0.50mm

; EXECUTABLE_BLOCK_START
M73 P0 R25
M201 X5000 Y5000 Z500 E5000
M203 X500 Y500 Z30 E100
M204 P5000 R2500 T5000 ; sets acceleration (P, T) and retract acceleration (R), mm/sec^2
M205 X10.00 Y10.00 Z0.40 E5.00 ; sets the jerk limits, mm/sec
;TYPE:Custom
M220 S100 ;Reset Feedrate 
M221 S100 ;Reset Flowrate 
 
M140 S60 ;Set final bed temp 
G28 ;Home 
 
G92 E0 ;Reset Extruder 
G1 Z2.0 F3000 ;Move Z Axis up 
M104 S205 ;Set final nozzle temp 
G1 X-2.1 Y20 Z0.28 F5000.0 ;Move to start position 
M190 S60 ;Wait for bed temp to stabilize 
M109 S205 ;Wait for nozzle temp to stabilize 
G1 X-2.1 Y145.0 Z0.28 F1500.0 E15 ;Draw the first line 
G1 X-2.4 Y145.0 Z0.28 F5000.0 ;Move to side a little 
G1 X-2.4 Y20 Z0.28 F1500.0 E30 ;Draw the second line 
G92 E0  ;Reset Extruder 
G1 E-1.0000 F1800 ;Retract a bit 
G1 Z2.0 F3000 ;Move Z Axis up 
G1 E0.0000 F1800
G90
G21
M83 ; use relative distances for extrusion
" "
G1 E-1.2 F2400
M106 S0
;LAYER_CHANGE
;Z:0.2
;HEIGHT:0.2
;BEFORE_LAYER_CHANGE
;0.2
G92 E0

;_SET_FAN_SPEED_CHANGING_LAYER
M204 P500
M205 X10 Y10
; printing object Caixa Ulleres v5.stl id:8171063952611762432 copy 0
M204 T500
G1 Z.4 F9000
G1 X98.175 Y111.227
G1 Z.2
G1 E1.2 F1800
;TYPE:Inner wall
;WIDTH:0.499999
G1 X123.937 Y111.227 E.93018
G1 X123.937 Y161.512 E1.81562
G1 X97.675 Y161.512 E.94823
G1 X97.675 Y111.227 E1.81562
G1 X98.135 Y111.227 E.01661
M73 P1 R25
M73 P1 R25
G1 E-1.2 F2400
;WIPE_START
G1 F9000
G1 X100.135 Y111.227
;WIPE_END
G1 X97.218 Y110.769 Z.6
G1 Z.2
G1 E1.2 F1800
;TYPE:Outer wall
G1 X124.394 Y110.769 E.98123
G1 X124.394 Y161.969 E1.84863
G1 X97.218 Y161.969 E.98123
G1 X97.218 Y110.809 E1.84718
G1 E-1.2 F2400
;WIPE_START
G1 F9000
G1 X99.218 Y110.807
;WIPE_END
G1 Z.6
G1 X123.8 Y112.294
G1 Z.6
G1 Z.2
G1 E1.2 F1800
;TYPE:Bottom surface
;WIDTH:0.502788
G1 F4800
G1 X123.076 Y111.569 E.0372
G1 X122.426 Y111.569 E.02362
G1 X123.594 Y112.738 E.06005
G1 X123.594 Y113.389 E.02362
G1 X121.775 Y111.569 E.09346
G1 X121.125 Y111.569 E.02362
G1 X123.594 Y114.039 E.12687
G1 X123.594 Y114.689 E.02362
G1 X120.475 Y111.569 E.16028
G1 X119.824 Y111.569 E.02362
G1 X123.594 Y115.34 E.19369
G1 X123.594 Y115.99 E.02362
G1 X119.174 Y111.569 E.2271
G1 X118.523 Y111.569 E.02362
G1 X123.594 Y116.64 E.26051
G1 X123.594 Y117.291 E.02362
G1 X117.873 Y111.569 E.29392
G1 X117.223 Y111.569 E.02362
G1 X123.594 Y117.941 E.32733
G1 X123.594 Y118.591 E.02362
G1 X116.572 Y111.569 E.36074
G1 X115.922 Y111.569 E.02362
G1 X123.594 Y119.242 E.39415
G1 X123.594 Y119.892 E.02362
G1 X115.272 Y111.569 E.42756
G1 X114.621 Y111.569 E.02362
G1 X123.594 Y120.542 E.46098
G1 X123.594 Y121.193 E.02362
G1 X113.971 Y111.569 E.49439
G1 X113.321 Y111.569 E.02362
G1 X123.594 Y121.843 E.5278
G1 X123.594 Y122.494 E.02362
G1 X112.67 Y111.569 E.56121
G1 X112.02 Y111.569 E.02362
G1 X123.594 Y123.144 E.59462
G1 X123.594 Y123.794 E.02362
G1 X111.37 Y111.569 E.62803
G1 X110.719 Y111.569 E.02362
G1 X123.594 Y124.445 E.66144
G1 X123.594 Y125.095 E.02362
G1 X110.069 Y111.569 E.69485
G1 X109.419 Y111.569 E.02362
G1 X123.594 Y125.745 E.72826
G1 X123.594 Y126.396 E.02362
G1 X108.768 Y111.569 E.76167
G1 X108.118 Y111.569 E.02362
G1 X123.594 Y127.046 E.79508
G1 X123.594 Y127.696 E.02362
G1 X107.467 Y111.569 E.82849
G1 X106.817 Y111.569 E.02362
G1 X123.594 Y128.347 E.8619
G1 X123.594 Y128.997 E.02362
M73 P2 R25
M73 P2 R25
G1 X106.167 Y111.569 E.89531
G1 X105.516 Y111.569 E.02362
G1 X123.594 Y129.647 E.92872
G1 X123.594 Y130.298 E.02362
G1 X104.866 Y111.569 E.96213
G1 X104.216 Y111.569 E.02362
G1 X123.594 Y130.948 E.99554
G1 X123.594 Y131.598 E.02362
G1 X103.565 Y111.569 E1.02896
G1 X102.915 Y111.569 E.02362
G1 X123.594 Y132.249 E1.06237
G1 X123.594 Y132.899 E.02362
G1 X102.265 Y111.569 E1.09578
G1 X101.614 Y111.569 E.02362
G1 X123.594 Y133.549 E1.12919
G1 X123.594 Y134.2 E.02362
G1 X100.964 Y111.569 E1.1626
G1 X100.314 Y111.569 E.02362
G1 X123.594 Y134.85 E1.19601
G1 X123.594 Y135.501 E.02362
G1 X99.663 Y111.569 E1.22942
G1 X99.013 Y111.569 E.02362
G1 X123.594 Y136.151 E1.26283
G1 X123.594 Y136.801 E.02362
G1 X98.363 Y111.569 E1.29624
G1 X98.018 Y111.569 E.01253
G1 X98.018 Y111.875 E.0111
G1 X123.594 Y137.452 E1.31396
G1 X123.594 Y138.102 E.02362
G1 X98.018 Y112.525 E1.31396
G1 X98.018 Y113.176 E.02362
G1 X123.594 Y138.752 E1.31396
G1 X123.594 Y139.403 E.02362
G1 X98.018 Y113.826 E1.31396
G1 X98.018 Y114.476 E.02362
G1 X123.594 Y140.053 E1.31396
G1 X123.594 Y140.703 E.02362
G1 X98.018 Y115.127 E1.31396
G1 X98.018 Y115.777 E.02362
G1 X123.594 Y141.354 E1.31396
G1 X123.594 Y142.004 E.02362
G1 X98.018 Y116.427 E1.31396
G1 X98.018 Y117.078 E.02362
G1 X123.594 Y142.654 E1.31396
G1 X123.594 Y143.305 E.02362
G1 X98.018 Y117.728 E1.31396
G1 X98.018 Y118.378 E.02362
G1 X123.594 Y143.955 E1.31396
G1 X123.594 Y144.605 E.02362
G1 X98.018 Y119.029 E1.31396
G1 X98.018 Y119.679 E.02362
G1 X123.594 Y145.256 E1.31396
G1 X123.594 Y145.906 E.02362
G1 X98.018 Y120.329 E1.31396
G1 X98.018 Y120.98 E.02362
G1 X123.594 Y146.557 E1.31396
M73 P3 R25
M73 P3 R25
G1 X123.594 Y147.207 E.02362
G1 X98.018 Y121.63 E1.31396
G1 X98.018 Y122.28 E.02362
G1 X123.594 Y147.857 E1.31396
G1 X123.594 Y148.508 E.02362
G1 X98.018 Y122.931 E1.31396
G1 X98.018 Y123.581 E.02362
G1 X123.594 Y149.158 E1.31396
G1 X123.594 Y149.808 E.02362
G1 X98.018 Y124.231 E1.31396
G1 X98.018 Y124.882 E.02362
G1 X123.594 Y150.459 E1.31396
G1 X123.594 Y151.109 E.02362
G1 X98.018 Y125.532 E1.31396
G1 X98.018 Y126.183 E.02362
G1 X123.594 Y151.759 E1.31396
G1 X123.594 Y152.41 E.02362
G1 X98.018 Y126.833 E1.31396
G1 X98.018 Y127.483 E.02362
G1 X123.594 Y153.06 E1.31396
G1 X123.594 Y153.71 E.02362
G1 X98.018 Y128.134 E1.31396
G1 X98.018 Y128.784 E.02362
G1 X123.594 Y154.361 E1.31396
G1 X123.594 Y155.011 E.02362
G1 X98.018 Y129.434 E1.31396
G1 X98.018 Y130.085 E.02362
G1 X123.594 Y155.661 E1.31396
G1 X123.594 Y156.312 E.02362
G1 X98.018 Y130.735 E1.31396
G1 X98.018 Y131.385 E.02362
G1 X123.594 Y156.962 E1.31396
G1 X123.594 Y157.612 E.02362
G1 X98.018 Y132.036 E1.31396
G1 X98.018 Y132.686 E.02362
G1 X123.594 Y158.263 E1.31396
G1 X123.594 Y158.913 E.02362
G1 X98.018 Y133.336 E1.31396
G1 X98.018 Y133.987 E.02362
G1 X123.594 Y159.564 E1.31396
G1 X123.594 Y160.214 E.02362
G1 X98.018 Y134.637 E1.31396
G1 X98.018 Y135.287 E.02362
M73 P3 R24
M73 P3 R24
G1 X123.594 Y160.864 E1.31396
G1 X123.594 Y161.17 E.01109
G1 X123.249 Y161.17 E.01253
G1 X98.018 Y135.938 E1.29624
G1 X98.018 Y136.588 E.02362
G1 X122.599 Y161.17 E1.26282
G1 X121.949 Y161.17 E.02362
G1 X98.018 Y137.239 E1.22941
G1 X98.018 Y137.889 E.02362
M73 P4 R24
M73 P4 R24
G1 X121.298 Y161.17 E1.196
G1 X120.648 Y161.17 E.02362
G1 X98.018 Y138.539 E1.16259
G1 X98.018 Y139.19 E.02362
G1 X119.998 Y161.17 E1.12918
G1 X119.347 Y161.17 E.02362
G1 X98.018 Y139.84 E1.09577
G1 X98.018 Y140.49 E.02362
G1 X118.697 Y161.17 E1.06236
G1 X118.047 Y161.17 E.02362
G1 X98.018 Y141.141 E1.02895
G1 X98.018 Y141.791 E.02362
G1 X117.396 Y161.17 E.99554
G1 X116.746 Y161.17 E.02362
G1 X98.018 Y142.441 E.96213
G1 X98.018 Y143.092 E.02362
G1 X116.096 Y161.17 E.92872
G1 X115.445 Y161.17 E.02362
G1 X98.018 Y143.742 E.89531
G1 X98.018 Y144.392 E.02362
G1 X114.795 Y161.17 E.8619
G1 X114.145 Y161.17 E.02362
G1 X98.018 Y145.043 E.82849
G1 X98.018 Y145.693 E.02362
G1 X113.494 Y161.17 E.79508
G1 X112.844 Y161.17 E.02362
G1 X98.018 Y146.343 E.76167
G1 X98.018 Y146.994 E.02362
G1 X112.193 Y161.17 E.72826
G1 X111.543 Y161.17 E.02362
G1 X98.018 Y147.644 E.69484
G1 X98.018 Y148.295 E.02362
G1 X110.893 Y161.17 E.66143
G1 X110.242 Y161.17 E.02362
G1 X98.018 Y148.945 E.62802
G1 X98.018 Y149.595 E.02362
G1 X109.592 Y161.17 E.59461
G1 X108.942 Y161.17 E.02362
G1 X98.018 Y150.246 E.5612
G1 X98.018 Y150.896 E.02362
G1 X108.291 Y161.17 E.52779
G1 X107.641 Y161.17 E.02362
G1 X98.018 Y151.546 E.49438
G1 X98.018 Y152.197 E.02362
G1 X106.991 Y161.17 E.46097
G1 X106.34 Y161.17 E.02362
G1 X98.018 Y152.847 E.42756
G1 X98.018 Y153.497 E.02362
G1 X105.69 Y161.17 E.39415
G1 X105.04 Y161.17 E.02362
G1 X98.018 Y154.148 E.36074
G1 X98.018 Y154.798 E.02362
G1 X104.389 Y161.17 E.32733
G1 X103.739 Y161.17 E.02362
G1 X98.018 Y155.448 E.29392
G1 X98.018 Y156.099 E.02362
G1 X103.089 Y161.17 E.26051
G1 X102.438 Y161.17 E.02362
G1 X98.018 Y156.749 E.2271
G1 X98.018 Y157.399 E.02362
G1 X101.788 Y161.17 E.19369
G1 X101.137 Y161.17 E.02362
G1 X98.018 Y158.05 E.16028
G1 X98.018 Y158.7 E.02362
G1 X100.487 Y161.17 E.12686
G1 X99.837 Y161.17 E.02362
G1 X98.018 Y159.35 E.09345
G1 X98.018 Y160.001 E.02362
G1 X99.186 Y161.17 E.06004
G1 X98.536 Y161.17 E.02362
G1 X97.812 Y160.445 E.0372
G1 E-1.2 F2400
;WIPE_START
G1 F9000
G1 X98.536 Y161.17
G1 X99.186 Y161.17
G1 X98.956 Y160.939
;WIPE_END
G1 X98.771 Y153.309 Z.6
G1 X97.675 Y108.012 Z.6
G1 Z.2
G1 E1.2 F1800
;TYPE:Inner wall
;WIDTH:0.499999
G1 X97.675 Y58.227 E1.79757
G1 X123.937 Y58.227 E.94823
M73 P5 R24
M73 P5 R24
G1 X123.937 Y108.512 E1.81562
G1 X97.675 Y108.512 E.94823
G1 X97.675 Y108.052 E.01661
G1 E-1.2 F2400
;WIPE_START
G1 F9000
G1 X97.675 Y106.052
;WIPE_END
G1 X97.218 Y108.969 Z.6
G1 Z.2
G1 E1.2 F1800
;TYPE:Outer wall
G1 X97.218 Y57.769 E1.84863
G1 X124.394 Y57.769 E.98123
G1 X124.394 Y108.969 E1.84863
G1 X97.258 Y108.969 E.97979
G1 E-1.2 F2400
;WIPE_START
G1 F9000
G1 X97.256 Y106.969
;WIPE_END
G1 X100.969 Y100.301 Z.6
G1 X123.8 Y59.294 Z.6
G1 Z.2
G1 E1.2 F1800
;TYPE:Bottom surface
;WIDTH:0.502788
G1 F4800
G1 X123.076 Y58.569 E.0372
G1 X122.426 Y58.569 E.02362
G1 X123.594 Y59.738 E.06005
G1 X123.594 Y60.389 E.02362
G1 X121.775 Y58.569 E.09346
G1 X121.125 Y58.569 E.02362
G1 X123.594 Y61.039 E.12687
G1 X123.594 Y61.689 E.02362
G1 X120.475 Y58.569 E.16028
G1 X119.824 Y58.569 E.02362
G1 X123.594 Y62.34 E.19369
G1 X123.594 Y62.99 E.02362
G1 X119.174 Y58.569 E.2271
G1 X118.523 Y58.569 E.02362
G1 X123.594 Y63.64 E.26051
G1 X123.594 Y64.291 E.02362
G1 X117.873 Y58.569 E.29392
G1 X117.223 Y58.569 E.02362
G1 X123.594 Y64.941 E.32733
G1 X123.594 Y65.591 E.02362
G1 X116.572 Y58.569 E.36074
G1 X115.922 Y58.569 E.02362
G1 X123.594 Y66.242 E.39415
G1 X123.594 Y66.892 E.02362
G1 X115.272 Y58.569 E.42756
G1 X114.621 Y58.569 E.02362
G1 X123.594 Y67.542 E.46098
G1 X123.594 Y68.193 E.02362
G1 X113.971 Y58.569 E.49439
G1 X113.321 Y58.569 E.02362
G1 X123.594 Y68.843 E.5278
G1 X123.594 Y69.494 E.02362
G1 X112.67 Y58.569 E.56121
G1 X112.02 Y58.569 E.02362
G1 X123.594 Y70.144 E.59462
G1 X123.594 Y70.794 E.02362
G1 X111.37 Y58.569 E.62803
G1 X110.719 Y58.569 E.02362
G1 X123.594 Y71.445 E.66144
G1 X123.594 Y72.095 E.02362
G1 X110.069 Y58.569 E.69485
M73 P6 R24
M73 P6 R24
G1 X109.419 Y58.569 E.02362
G1 X123.594 Y72.745 E.72826
G1 X123.594 Y73.396 E.02362
G1 X108.768 Y58.569 E.76167
G1 X108.118 Y58.569 E.02362
G1 X123.594 Y74.046 E.79508
G1 X123.594 Y74.696 E.02362
G1 X107.467 Y58.569 E.82849
G1 X106.817 Y58.569 E.02362
G1 X123.594 Y75.347 E.8619
G1 X123.594 Y75.997 E.02362
G1 X106.167 Y58.569 E.89531
G1 X105.516 Y58.569 E.02362
G1 X123.594 Y76.647 E.92872
G1 X123.594 Y77.298 E.02362
G1 X104.866 Y58.569 E.96213
G1 X104.216 Y58.569 E.02362
G1 X123.594 Y77.948 E.99554
G1 X123.594 Y78.598 E.02362
G1 X103.565 Y58.569 E1.02896
G1 X102.915 Y58.569 E.02362
G1 X123.594 Y79.249 E1.06237
G1 X123.594 Y79.899 E.02362
G1 X102.265 Y58.569 E1.09578
G1 X101.614 Y58.569 E.02362
G1 X123.594 Y80.549 E1.12919
G1 X123.594 Y81.2 E.02362
G1 X100.964 Y58.569 E1.1626
G1 X100.314 Y58.569 E.02362
G1 X123.594 Y81.85 E1.19601
G1 X123.594 Y82.501 E.02362
G1 X99.663 Y58.569 E1.22942
G1 X99.013 Y58.569 E.02362
G1 X123.594 Y83.151 E1.26283
G1 X123.594 Y83.801 E.02362
G1 X98.363 Y58.569 E1.29624
G1 X98.018 Y58.569 E.01253
G1 X98.018 Y58.875 E.0111
G1 X123.594 Y84.452 E1.31396
G1 X123.594 Y85.102 E.02362
G1 X98.018 Y59.525 E1.31396
G1 X98.018 Y60.176 E.02362
G1 X123.594 Y85.752 E1.31396
G1 X123.594 Y86.403 E.02362
G1 X98.018 Y60.826 E1.31396
G1 X98.018 Y61.476 E.02362
G1 X123.594 Y87.053 E1.31396
G1 X123.594 Y87.703 E.02362
G1 X98.018 Y62.127 E1.31396
G1 X98.018 Y62.777 E.02362
G1 X123.594 Y88.354 E1.31396
G1 X123.594 Y89.004 E.02362
G1 X98.018 Y63.427 E1.31396
G1 X98.018 Y64.078 E.02362
G1 X123.594 Y89.654 E1.31396
G1 X123.594 Y90.305 E.02362
G1 X98.018 Y64.728 E1.31396
G1 X98.018 Y65.378 E.02362
G1 X123.594 Y90.955 E1.31396
G1 X123.594 Y91.605 E.02362
M73 P7 R24
M73 P7 R24
G1 X98.018 Y66.029 E1.31396
G1 X98.018 Y66.679 E.02362
G1 X123.594 Y92.256 E1.31396
G1 X123.594 Y92.906 E.02362
G1 X98.018 Y67.329 E1.31396
G1 X98.018 Y67.98 E.02362
G1 X123.594 Y93.557 E1.31396
G1 X123.594 Y94.207 E.02362
G1 X98.018 Y68.63 E1.31396
G1 X98.018 Y69.28 E.02362
G1 X123.594 Y94.857 E1.31396
G1 X123.594 Y95.508 E.02362
G1 X98.018 Y69.931 E1.31396
G1 X98.018 Y70.581 E.02362
G1 X123.594 Y96.158 E1.31396
G1 X123.594 Y96.808 E.02362
G1 X98.018 Y71.231 E1.31396
G1 X98.018 Y71.882 E.02362
G1 X123.594 Y97.459 E1.31396
G1 X123.594 Y98.109 E.02362
G1 X98.018 Y72.532 E1.31396
G1 X98.018 Y73.183 E.02362
G1 X123.594 Y98.759 E1.31396
G1 X123.594 Y99.41 E.02362
G1 X98.018 Y73.833 E1.31396
G1 X98.018 Y74.483 E.02362
G1 X123.594 Y100.06 E1.31396
G1 X123.594 Y100.71 E.02362
G1 X98.018 Y75.134 E1.31396
G1 X98.018 Y75.784 E.02362
G1 X123.594 Y101.361 E1.31396
G1 X123.594 Y102.011 E.02362
G1 X98.018 Y76.434 E1.31396
G1 X98.018 Y77.085 E.02362
M73 P7 R23
M73 P7 R23
G1 X123.594 Y102.661 E1.31396
G1 X123.594 Y103.312 E.02362
G1 X98.018 Y77.735 E1.31396
G1 X98.018 Y78.385 E.02362
G1 X123.594 Y103.962 E1.31396
G1 X123.594 Y104.612 E.02362
G1 X98.018 Y79.036 E1.31396
G1 X98.018 Y79.686 E.02362
G1 X123.594 Y105.263 E1.31396
G1 X123.594 Y105.913 E.02362
G1 X98.018 Y80.336 E1.31396
G1 X98.018 Y80.987 E.02362
G1 X123.594 Y106.564 E1.31396
G1 X123.594 Y107.214 E.02362
G1 X98.018 Y81.637 E1.31396
G1 X98.018 Y82.287 E.02362
M73 P8 R23
M73 P8 R23
G1 X123.594 Y107.864 E1.31396
G1 X123.594 Y108.17 E.01109
G1 X123.249 Y108.17 E.01253
G1 X98.018 Y82.938 E1.29624
G1 X98.018 Y83.588 E.02362
G1 X122.599 Y108.17 E1.26282
G1 X121.949 Y108.17 E.02362
G1 X98.018 Y84.239 E1.22941
G1 X98.018 Y84.889 E.02362
G1 X121.298 Y108.17 E1.196
G1 X120.648 Y108.17 E.02362
G1 X98.018 Y85.539 E1.16259
G1 X98.018 Y86.19 E.02362
G1 X119.998 Y108.17 E1.12918
G1 X119.347 Y108.17 E.02362
G1 X98.018 Y86.84 E1.09577
G1 X98.018 Y87.49 E.02362
G1 X118.697 Y108.17 E1.06236
G1 X118.047 Y108.17 E.02362
G1 X98.018 Y88.141 E1.02895
G1 X98.018 Y88.791 E.02362
G1 X117.396 Y108.17 E.99554
G1 X116.746 Y108.17 E.02362
G1 X98.018 Y89.441 E.96213
G1 X98.018 Y90.092 E.02362
G1 X116.096 Y108.17 E.92872
G1 X115.445 Y108.17 E.02362
G1 X98.018 Y90.742 E.89531
G1 X98.018 Y91.392 E.02362
G1 X114.795 Y108.17 E.8619
G1 X114.145 Y108.17 E.02362
G1 X98.018 Y92.043 E.82849
G1 X98.018 Y92.693 E.02362
G1 X113.494 Y108.17 E.79508
G1 X112.844 Y108.17 E.02362
G1 X98.018 Y93.343 E.76167
G1 X98.018 Y93.994 E.02362
G1 X112.193 Y108.17 E.72826
G1 X111.543 Y108.17 E.02362
G1 X98.018 Y94.644 E.69484
G1 X98.018 Y95.295 E.02362
G1 X110.893 Y108.17 E.66143
G1 X110.242 Y108.17 E.02362
G1 X98.018 Y95.945 E.62802
G1 X98.018 Y96.595 E.02362
G1 X109.592 Y108.17 E.59461
G1 X108.942 Y108.17 E.02362
G1 X98.018 Y97.246 E.5612
G1 X98.018 Y97.896 E.02362
G1 X108.291 Y108.17 E.52779
G1 X107.641 Y108.17 E.02362
G1 X98.018 Y98.546 E.49438
G1 X98.018 Y99.197 E.02362
G1 X106.991 Y108.17 E.46097
G1 X106.34 Y108.17 E.02362
G1 X98.018 Y99.847 E.42756
G1 X98.018 Y100.497 E.02362
G1 X105.69 Y108.17 E.39415
G1 X105.04 Y108.17 E.02362
G1 X98.018 Y101.148 E.36074
G1 X98.018 Y101.798 E.02362
G1 X104.389 Y108.17 E.32733
