;TIME:7805.20
;Filament used:19.32684m
;Layer height:0.200
; HEADER_BLOCK_START
; generated by Creality_Print V6.0.5.1840 on 2025-03-26 at 11:13:30
; total layer number: 85
; filament_density: 1.24
; filament_diameter: 1.75
; max_z_height: 14.60
; HEADER_BLOCK_END

; MINX = 32.00
; MINY = 50.00
; MINZ = 0.00
; MAXX = 188.00
; MAXY = 170.00
; MAXZ = 14.56

; THUMBNAIL_BLOCK_START

;
; THUMBNAIL_BLOCK_END

; THUMBNAIL_BLOCK_START

;
; THUMBNAIL_BLOCK_END

; external perimeters extrusion width = 0.42mm
; perimeters extrusion width = 0.45mm
; infill extrusion width = 0.45mm
; solid infill extrusion width = 0.42mm
; top infill extrusion width = 0.42mm
; first layer extrusion width = 0.50mm

; EXECUTABLE_BLOCK_START
M73 P0 R130
M201 X5000 Y5000 Z500 E5000
M203 X500 Y500 Z30 E100
M204 P5000 R2500 T5000 ; sets acceleration (P, T) and retract acceleration (R), mm/sec^2
M205 X10.00 Y10.00 Z0.40 E5.00 ; sets the jerk limits, mm/sec
;TYPE:Custom
M220 S100 ;Reset Feedrate 
M221 S100 ;Reset Flowrate 
 
M140 S60 ;Set final bed temp 
G28 ;Home 
 
G92 E0 ;Reset Extruder 
G1 Z2.0 F3000 ;Move Z Axis up 
M104 S205 ;Set final nozzle temp 
G1 X-2.1 Y20 Z0.28 F5000.0 ;Move to start position 
M190 S60 ;Wait for bed temp to stabilize 
M109 S205 ;Wait for nozzle temp to stabilize 
G1 X-2.1 Y145.0 Z0.28 F1500.0 E15 ;Draw the first line 
G1 X-2.4 Y145.0 Z0.28 F5000.0 ;Move to side a little 
G1 X-2.4 Y20 Z0.28 F1500.0 E30 ;Draw the second line 
G92 E0  ;Reset Extruder 
G1 E-1.0000 F1800 ;Retract a bit 
M73 P0 R129
M73 P0 R129
G1 Z2.0 F3000 ;Move Z Axis up 
G1 E0.0000 F1800
G90
G21
M83 ; use relative distances for extrusion
" "
G1 E-1.2 F2400
M106 S0
;LAYER_CHANGE
;Z:0.2
;HEIGHT:0.2
;BEFORE_LAYER_CHANGE
;0.2
G92 E0

;_SET_FAN_SPEED_CHANGING_LAYER
M204 P500
M205 X10 Y10
M204 T500
G1 Z.4 F9000
G1 X22.529 Y34.778
G1 Z.2
G1 E1.2 F1800
;TYPE:Skirt
;WIDTH:0.5
G1 F3000
G1 X26.134 Y32.762 E.14912
G1 X29.093 Y31.716 E.11331
G1 X32.227 Y31.084 E.11546
G1 X35 Y30.904 E.10032
G1 X185 Y30.904 E5.4159
G1 X187.647 Y31.068 E.09575
G1 X191.068 Y31.762 E.12604
G1 X194.918 Y33.258 E.14912
G1 X198.407 Y35.467 E.14912
G1 X200.382 Y37.198 E.09483
G1 X203.09 Y40.317 E.14912
G1 X205.147 Y43.898 E.14912
G1 X206.477 Y47.808 E.14912
G1 X207.046 Y52.671 E.17679
G1 X207.126 Y104.814 E1.88268
G1 X207.1 Y167.22 E2.25321
G1 X206.699 Y171.33 E.14912
G1 X205.514 Y175.287 E.14912
G1 X203.591 Y178.942 E.14912
G1 X201.062 Y182.096 E.14597
G1 X200.62 Y182.551 E.0229
G1 X197.471 Y185.222 E.14912
G1 X193.866 Y187.238 E.14912
G1 X190.908 Y188.283 E.11329
G1 X187.773 Y188.916 E.11547
G1 X185 Y189.096 E.10032
G1 X35 Y189.096 E5.4159
G1 X32.227 Y188.916 E.10032
G1 X29.092 Y188.283 E.11547
G1 X25.082 Y186.742 E.15513
G1 X21.592 Y184.533 E.14912
G1 X19.618 Y182.802 E.09482
G1 X16.91 Y179.683 E.14912
G1 X14.853 Y176.102 E.14912
G1 X13.523 Y172.192 E.14912
G1 X12.954 Y167.329 E.1768
G1 X12.874 Y115.186 E1.88268
G1 X12.9 Y52.78 E2.25321
G1 X13.301 Y48.67 E.14912
G1 X14.486 Y44.713 E.14912
G1 X16.409 Y41.058 E.14912
G1 X18.938 Y37.904 E.14597
G1 X19.38 Y37.449 E.0229
G1 X22.499 Y34.804 E.14767
G1 X22.796 Y35.154 F9000
G1 F3000
G1 X22.826 Y35.129 E.00145
G1 X26.398 Y33.146 E.14751
G1 X29.216 Y32.156 E.10784
G1 X32.284 Y31.538 E.11299
G1 X35 Y31.361 E.09827
G1 X185 Y31.361 E5.4159
G1 X187.59 Y31.522 E.0937
G1 X190.944 Y32.202 E.12357
G1 X194.751 Y33.686 E.14751
G1 X199.68 Y37.162 E.21777
G1 X200.067 Y37.53 E.0193
G1 X202.743 Y40.618 E.14751
G1 X204.767 Y44.167 E.14751
G1 X206.062 Y48.041 E.14751
G1 X206.589 Y52.672 E.16827
G1 X206.669 Y104.814 E1.88266
G1 X206.643 Y167.219 E2.2532
G1 X206.242 Y171.285 E.14751
G1 X205.058 Y175.195 E.14751
G1 X203.136 Y178.801 E.14751
G1 X200.292 Y182.232 E.16091
G1 X197.174 Y184.871 E.14751
G1 X193.602 Y186.854 E.14751
G1 X190.784 Y187.843 E.10783
G1 X187.716 Y188.462 E.113
G1 X185 Y188.639 E.09827
G1 X35 Y188.639 E5.4159
G1 X32.284 Y188.462 E.09827
G1 X29.216 Y187.843 E.113
G1 X25.249 Y186.314 E.15352
G1 X20.32 Y182.838 E.21775
G1 X19.933 Y182.47 E.0193
G1 X17.257 Y179.382 E.14751
G1 X15.233 Y175.833 E.14751
G1 X13.938 Y171.959 E.14751
G1 X13.411 Y167.328 E.16828
G1 X13.331 Y115.186 E1.88266
G1 X13.357 Y52.781 E2.2532
G1 X13.758 Y48.715 E.14751
G1 X14.942 Y44.805 E.14751
G1 X16.864 Y41.199 E.14751
G1 X19.708 Y37.768 E.16091
G1 X22.765 Y35.18 E.14462
G1 X23.085 Y35.592 F9000
G1 F3000
G1 X23.827 Y35.016 E.03392
G1 X29.179 Y32.642 E.21142
G1 X32.341 Y31.991 E.11654
G1 X35 Y31.818 E.09622
G1 X185 Y31.818 E5.4159
G1 X187.534 Y31.976 E.09165
G1 X190.821 Y32.642 E.1211
G1 X194.584 Y34.114 E.14589
G1 X199.365 Y37.494 E.21142
G1 X199.753 Y37.862 E.0193
G1 X203.075 Y41.946 E.19009
G1 X204.904 Y45.663 E.14956
G1 X205.931 Y49.571 E.14589
G1 X206.186 Y52.781 E.11626
G1 X206.186 Y167.219 E4.13191
G1 X205.784 Y171.24 E.14589
G1 X204.601 Y175.103 E.14589
G1 X203.075 Y178.054 E.11995
G1 X199.753 Y182.138 E.19009
G1 X199.365 Y182.506 E.0193
G1 X196.173 Y184.984 E.14589
G1 X190.821 Y187.358 E.2114
G1 X187.659 Y188.009 E.11655
G1 X185 Y188.182 E.09622
G1 X35 Y188.182 E5.4159
G1 X32.341 Y188.009 E.09622
G1 X29.34 Y187.403 E.11053
G1 X25.416 Y185.886 E.15189
G1 X20.635 Y182.506 E.2114
G1 X20.247 Y182.138 E.0193
G1 X16.925 Y178.054 E.1901
G1 X15.096 Y174.337 E.14956
G1 X14.069 Y170.429 E.14589
G1 X13.814 Y167.219 E.11626
G1 X13.814 Y52.781 E4.13191
G1 X14.216 Y48.76 E.14589
G1 X15.399 Y44.897 E.14589
G1 X16.925 Y41.946 E.11994
G1 X20.247 Y37.862 E.1901
G1 X20.635 Y37.494 E.0193
G1 X23.053 Y35.617 E.11052
; printing object Caixa Ulleres v10.stl id:4562764976167616512 copy 0
G1 E-1.2 F2400
;WIPE_START
G1 F9000
G1 X23.827 Y35.016
G1 X24.76 Y34.602
;WIPE_END
G1 X25.827 Y42.16 Z.6
G1 X35.603 Y111.357 Z.6
G1 Z.2
G1 E1.2 F1800
;TYPE:Inner wall
;WIDTH:0.499999
G1 X184.897 Y111.371 E5.3904
G1 X184.871 Y166.868 E2.00377
G1 X35.129 Y166.868 E5.40656
G1 X35.103 Y111.357 E2.00427
G1 X35.563 Y111.357 E.01661
M73 P0 R128
M73 P0 R128
G1 E-1.2 F2400
;WIPE_START
G1 F9000
G1 X37.563 Y111.357
;WIPE_END
G1 X34.646 Y110.941 Z.6
G1 Z.2
G1 E1.2 F1800
;TYPE:Outer wall
G1 X35.017 Y110.9 E.0135
G1 X185.354 Y110.914 E5.42805
G1 X185.328 Y167.063 E2.02732
G1 X185.088 Y167.3 E.01218
G1 X184.965 Y167.325 E.00451
G1 X35.123 Y167.325 E5.4102
G1 X34.912 Y167.3 E.00765
M73 P1 R128
M73 P1 R128
G1 X34.672 Y167.063 E.01218
G1 X34.646 Y110.981 E2.02489
G1 E-1.2 F2400
;WIPE_START
G1 F9000
G1 X35.017 Y110.9
G1 X36.637 Y110.9
;WIPE_END
G1 Z.6
G1 X183.833 Y111.508
G1 Z.6
G1 Z.2
G1 E1.2 F1800
;TYPE:Bottom surface
;WIDTH:0.501214
G1 F4800
G1 X184.554 Y112.228 E.03689
G1 X184.553 Y112.876 E.02345
G1 X183.391 Y111.713 E.05953
G1 X182.743 Y111.713 E.02347
G1 X184.553 Y113.524 E.0927
G1 X184.553 Y114.172 E.02345
G1 X182.094 Y111.713 E.12587
G1 X181.446 Y111.713 E.02347
G1 X184.553 Y114.82 E.15904
G1 X184.552 Y115.468 E.02345
G1 X180.798 Y111.713 E.19221
G1 X180.15 Y111.713 E.02347
G1 X184.552 Y116.115 E.22538
G1 X184.552 Y116.763 E.02345
G1 X179.502 Y111.713 E.25855
G1 X178.853 Y111.713 E.02347
G1 X184.551 Y117.411 E.29172
G1 X184.551 Y118.059 E.02345
G1 X178.205 Y111.713 E.32489
G1 X177.557 Y111.713 E.02347
G1 X184.551 Y118.707 E.35806
G1 X184.55 Y119.354 E.02345
G1 X176.909 Y111.713 E.39123
G1 X176.261 Y111.713 E.02347
G1 X184.55 Y120.002 E.4244
G1 X184.55 Y120.65 E.02345
G1 X175.612 Y111.713 E.45757
G1 X174.964 Y111.713 E.02347
G1 X184.549 Y121.298 E.49074
G1 X184.549 Y121.946 E.02345
G1 X174.316 Y111.713 E.52391
G1 X173.668 Y111.713 E.02347
G1 X184.549 Y122.594 E.55708
G1 X184.549 Y123.241 E.02345
G1 X173.02 Y111.713 E.59025
G1 X172.372 Y111.712 E.02347
G1 X184.548 Y123.889 E.62342
G1 X184.548 Y124.537 E.02345
G1 X171.723 Y111.712 E.65658
G1 X171.075 Y111.712 E.02347
G1 X184.548 Y125.185 E.68975
G1 X184.547 Y125.833 E.02345
G1 X170.427 Y111.712 E.72292
G1 X169.779 Y111.712 E.02347
G1 X184.547 Y126.48 E.75609
G1 X184.547 Y127.128 E.02345
G1 X169.131 Y111.712 E.78926
G1 X168.482 Y111.712 E.02347
G1 X184.546 Y127.776 E.82243
G1 X184.546 Y128.424 E.02345
G1 X167.834 Y111.712 E.8556
G1 X167.186 Y111.712 E.02347
G1 X184.546 Y129.072 E.88877
G1 X184.546 Y129.72 E.02345
G1 X166.538 Y111.712 E.92194
G1 X165.89 Y111.712 E.02347
G1 X184.545 Y130.367 E.95511
G1 X184.545 Y131.015 E.02345
G1 X165.242 Y111.712 E.98828
G1 X164.593 Y111.712 E.02347
G1 X184.545 Y131.663 E1.02145
G1 X184.544 Y132.311 E.02345
G1 X163.945 Y111.712 E1.05462
G1 X163.297 Y111.712 E.02347
G1 X184.544 Y132.959 E1.08779
G1 X184.544 Y133.607 E.02345
G1 X162.649 Y111.712 E1.12096
G1 X162.001 Y111.712 E.02347
G1 X184.543 Y134.254 E1.15413
G1 X184.543 Y134.902 E.02345
G1 X161.352 Y111.711 E1.1873
G1 X160.704 Y111.711 E.02347
G1 X184.543 Y135.55 E1.22047
G1 X184.542 Y136.198 E.02345
G1 X160.056 Y111.711 E1.25364
G1 X159.408 Y111.711 E.02347
G1 X184.542 Y136.846 E1.28681
G1 X184.542 Y137.493 E.02345
G1 X158.76 Y111.711 E1.31998
G1 X158.111 Y111.711 E.02347
G1 X184.542 Y138.141 E1.35315
G1 X184.541 Y138.789 E.02345
G1 X157.463 Y111.711 E1.38632
G1 X156.815 Y111.711 E.02347
G1 X184.541 Y139.437 E1.41949
G1 X184.541 Y140.085 E.02345
G1 X156.167 Y111.711 E1.45266
G1 X155.519 Y111.711 E.02347
G1 X184.54 Y140.733 E1.48583
G1 X184.54 Y141.38 E.02345
G1 X154.871 Y111.711 E1.519
G1 X154.222 Y111.711 E.02347
G1 X184.54 Y142.028 E1.55217
G1 X184.539 Y142.676 E.02345
G1 X153.574 Y111.711 E1.58534
G1 X152.926 Y111.711 E.02347
G1 X184.539 Y143.324 E1.6185
G1 X184.539 Y143.972 E.02345
G1 X152.278 Y111.711 E1.65167
G1 X151.63 Y111.711 E.02347
G1 X184.538 Y144.619 E1.68484
G1 X184.538 Y145.267 E.02345
G1 X150.981 Y111.711 E1.71801
G1 X150.333 Y111.71 E.02347
G1 X184.538 Y145.915 E1.75118
G1 X184.538 Y146.563 E.02345
G1 X149.685 Y111.71 E1.78435
G1 X149.037 Y111.71 E.02347
G1 X184.537 Y147.211 E1.81752
G1 X184.537 Y147.859 E.02345
G1 X148.389 Y111.71 E1.85069
G1 X147.741 Y111.71 E.02347
G1 X184.537 Y148.506 E1.88386
G1 X184.536 Y149.154 E.02345
G1 X147.092 Y111.71 E1.91703
G1 X146.444 Y111.71 E.02347
G1 X184.536 Y149.802 E1.9502
G1 X184.536 Y150.45 E.02345
G1 X145.796 Y111.71 E1.98337
G1 X145.148 Y111.71 E.02347
G1 X184.535 Y151.098 E2.01654
G1 X184.535 Y151.745 E.02345
G1 X144.5 Y111.71 E2.04971
G1 X143.851 Y111.71 E.02347
G1 X184.535 Y152.393 E2.08288
G1 X184.535 Y153.041 E.02345
G1 X143.203 Y111.71 E2.11605
G1 X142.555 Y111.71 E.02347
G1 X184.534 Y153.689 E2.14922
G1 X184.534 Y154.337 E.02345
G1 X141.907 Y111.71 E2.18239
G1 X141.259 Y111.71 E.02347
G1 X184.534 Y154.985 E2.21556
G1 X184.533 Y155.632 E.02345
G1 X140.61 Y111.71 E2.24873
G1 X139.962 Y111.71 E.02347
G1 X184.533 Y156.28 E2.2819
G1 X184.533 Y156.928 E.02345
G1 X139.314 Y111.709 E2.31507
G1 X138.666 Y111.709 E.02347
G1 X184.532 Y157.576 E2.34824
G1 X184.532 Y158.224 E.02345
G1 X138.018 Y111.709 E2.38141
G1 X137.37 Y111.709 E.02347
G1 X184.532 Y158.871 E2.41458
G1 X184.531 Y159.519 E.02345
G1 X136.721 Y111.709 E2.44775
G1 X136.073 Y111.709 E.02347
G1 X184.531 Y160.167 E2.48092
G1 X184.531 Y160.815 E.02345
M73 P1 R127
M73 P1 R127
G1 X135.425 Y111.709 E2.51409
G1 X134.777 Y111.709 E.02347
G1 X184.531 Y161.463 E2.54726
G1 X184.53 Y162.111 E.02345
G1 X134.129 Y111.709 E2.58042
G1 X133.48 Y111.709 E.02347
G1 X184.53 Y162.758 E2.61359
G1 X184.53 Y163.406 E.02345
G1 X132.832 Y111.709 E2.64676
G1 X132.184 Y111.709 E.02347
G1 X184.529 Y164.054 E2.67993
G1 X184.529 Y164.702 E.02345
G1 X131.536 Y111.709 E2.7131
G1 X130.888 Y111.709 E.02347
G1 X184.529 Y165.35 E2.74627
G1 X184.528 Y165.997 E.02345
G1 X130.24 Y111.709 E2.77944
G1 X129.591 Y111.709 E.02347
G1 X184.408 Y166.525 E2.80645
G1 X183.76 Y166.525 E.02346
G1 X128.943 Y111.708 E2.80646
G1 X128.295 Y111.708 E.02347
G1 X183.112 Y166.525 E2.80646
G1 X182.463 Y166.525 E.02346
G1 X127.647 Y111.708 E2.80646
G1 X126.999 Y111.708 E.02347
G1 X181.815 Y166.525 E2.80647
G1 X181.167 Y166.525 E.02346
G1 X126.35 Y111.708 E2.80647
G1 X125.702 Y111.708 E.02347
G1 X180.519 Y166.525 E2.80647
G1 X179.871 Y166.525 E.02346
G1 X125.054 Y111.708 E2.80647
G1 X124.406 Y111.708 E.02347
G1 X179.223 Y166.525 E2.80648
G1 X178.575 Y166.525 E.02346
G1 X123.758 Y111.708 E2.80648
G1 X123.109 Y111.708 E.02347
G1 X177.927 Y166.525 E2.80648
G1 X177.278 Y166.525 E.02346
G1 X122.461 Y111.708 E2.80649
G1 X121.813 Y111.708 E.02347
G1 X176.63 Y166.525 E2.80649
G1 X175.982 Y166.525 E.02346
G1 X121.165 Y111.708 E2.80649
G1 X120.517 Y111.708 E.02347
G1 X175.334 Y166.525 E2.8065
G1 X174.686 Y166.525 E.02346
G1 X119.869 Y111.708 E2.8065
G1 X119.22 Y111.708 E.02347
G1 X174.038 Y166.525 E2.8065
G1 X173.39 Y166.525 E.02346
G1 X118.572 Y111.708 E2.80651
G1 X117.924 Y111.707 E.02347
G1 X172.742 Y166.525 E2.80651
G1 X172.093 Y166.525 E.02346
M73 P2 R127
M73 P2 R127
G1 X117.276 Y111.707 E2.80651
G1 X116.628 Y111.707 E.02347
G1 X171.445 Y166.525 E2.80651
G1 X170.797 Y166.525 E.02346
G1 X115.979 Y111.707 E2.80652
G1 X115.331 Y111.707 E.02347
G1 X170.149 Y166.525 E2.80652
G1 X169.501 Y166.525 E.02346
G1 X114.683 Y111.707 E2.80652
G1 X114.035 Y111.707 E.02347
G1 X168.853 Y166.525 E2.80653
G1 X168.205 Y166.525 E.02346
G1 X113.387 Y111.707 E2.80653
G1 X112.739 Y111.707 E.02347
G1 X167.557 Y166.525 E2.80653
G1 X166.908 Y166.525 E.02346
G1 X112.09 Y111.707 E2.80654
G1 X111.442 Y111.707 E.02347
G1 X166.26 Y166.525 E2.80654
G1 X165.612 Y166.525 E.02346
G1 X110.794 Y111.707 E2.80654
G1 X110.146 Y111.707 E.02347
G1 X164.964 Y166.525 E2.80654
G1 X164.316 Y166.525 E.02346
G1 X109.498 Y111.707 E2.80655
G1 X108.849 Y111.707 E.02347
G1 X163.668 Y166.525 E2.80655
G1 X163.02 Y166.525 E.02346
G1 X108.201 Y111.707 E2.80655
G1 X107.553 Y111.707 E.02347
G1 X162.372 Y166.525 E2.80656
G1 X161.723 Y166.525 E.02346
G1 X106.905 Y111.706 E2.80656
G1 X106.257 Y111.706 E.02347
G1 X161.075 Y166.525 E2.80656
G1 X160.427 Y166.525 E.02346
G1 X105.608 Y111.706 E2.80657
G1 X104.96 Y111.706 E.02347
G1 X159.779 Y166.525 E2.80657
G1 X159.131 Y166.525 E.02346
G1 X104.312 Y111.706 E2.80657
G1 X103.664 Y111.706 E.02347
G1 X158.483 Y166.525 E2.80658
G1 X157.835 Y166.525 E.02346
G1 X103.016 Y111.706 E2.80658
G1 X102.368 Y111.706 E.02347
G1 X157.187 Y166.525 E2.80658
G1 X156.538 Y166.525 E.02346
G1 X101.719 Y111.706 E2.80658
G1 X101.071 Y111.706 E.02347
G1 X155.89 Y166.525 E2.80659
G1 X155.242 Y166.525 E.02346
M73 P2 R126
M73 P2 R126
G1 X100.423 Y111.706 E2.80659
G1 X99.775 Y111.706 E.02347
G1 X154.594 Y166.525 E2.80659
G1 X153.946 Y166.525 E.02346
G1 X99.127 Y111.706 E2.8066
G1 X98.478 Y111.706 E.02347
G1 X153.298 Y166.525 E2.8066
G1 X152.65 Y166.525 E.02346
G1 X97.83 Y111.706 E2.8066
G1 X97.182 Y111.706 E.02347
G1 X152.002 Y166.525 E2.80661
G1 X151.353 Y166.525 E.02346
G1 X96.534 Y111.706 E2.80661
G1 X95.886 Y111.705 E.02347
G1 X150.705 Y166.525 E2.80661
G1 X150.057 Y166.525 E.02346
G1 X95.238 Y111.705 E2.80661
G1 X94.589 Y111.705 E.02347
G1 X149.409 Y166.525 E2.80662
G1 X148.761 Y166.525 E.02346
G1 X93.941 Y111.705 E2.80662
G1 X93.293 Y111.705 E.02347
G1 X148.113 Y166.525 E2.80662
G1 X147.465 Y166.525 E.02346
G1 X92.645 Y111.705 E2.80663
G1 X91.997 Y111.705 E.02347
G1 X146.817 Y166.525 E2.80663
G1 X146.168 Y166.525 E.02346
G1 X91.348 Y111.705 E2.80663
G1 X90.7 Y111.705 E.02347
G1 X145.52 Y166.525 E2.80664
G1 X144.872 Y166.525 E.02346
G1 X90.052 Y111.705 E2.80664
G1 X89.404 Y111.705 E.02347
G1 X144.224 Y166.525 E2.80664
G1 X143.576 Y166.525 E.02346
G1 X88.756 Y111.705 E2.80665
G1 X88.107 Y111.705 E.02347
G1 X142.928 Y166.525 E2.80665
G1 X142.28 Y166.525 E.02346
G1 X87.459 Y111.705 E2.80665
G1 X86.811 Y111.705 E.02347
G1 X141.632 Y166.525 E2.80665
G1 X140.983 Y166.525 E.02346
G1 X86.163 Y111.705 E2.80666
G1 X85.515 Y111.705 E.02347
G1 X140.335 Y166.525 E2.80666
G1 X139.687 Y166.525 E.02346
G1 X84.867 Y111.704 E2.80666
G1 X84.218 Y111.704 E.02347
G1 X139.039 Y166.525 E2.80667
G1 X138.391 Y166.525 E.02346
G1 X83.57 Y111.704 E2.80667
G1 X82.922 Y111.704 E.02347
G1 X137.743 Y166.525 E2.80667
G1 X137.095 Y166.525 E.02346
G1 X82.274 Y111.704 E2.80668
G1 X81.626 Y111.704 E.02347
G1 X136.447 Y166.525 E2.80668
G1 X135.798 Y166.525 E.02346
G1 X80.977 Y111.704 E2.80668
G1 X80.329 Y111.704 E.02347
G1 X135.15 Y166.525 E2.80668
G1 X134.502 Y166.525 E.02346
G1 X79.681 Y111.704 E2.80669
G1 X79.033 Y111.704 E.02347
G1 X133.854 Y166.525 E2.80669
G1 X133.206 Y166.525 E.02346
