;TIME:1311.97
;Filament used:2.17533m
;Layer height:0.200
; HEADER_BLOCK_START
; generated by Creality_Print V6.0.5.1840 on 2025-03-25 at 22:34:49
; total layer number: 76
; filament_density: 1.24
; filament_diameter: 1.75
; max_z_height: 13.52
; HEADER_BLOCK_END

; MINX = 32.00
; MINY = 47.50
; MINZ = 0.00
; MAXX = 188.00
; MAXY = 172.50
; MAXZ = 13.56

; THUMBNAIL_BLOCK_START

;
; THUMBNAIL_BLOCK_END

; THUMBNAIL_BLOCK_START

;
; THUMBNAIL_BLOCK_END

; external perimeters extrusion width = 0.42mm
; perimeters extrusion width = 0.45mm
; infill extrusion width = 0.45mm
; solid infill extrusion width = 0.42mm
; top infill extrusion width = 0.42mm
; first layer extrusion width = 0.50mm

; EXECUTABLE_BLOCK_START
M73 P0 R21
M201 X5000 Y5000 Z500 E5000
M203 X500 Y500 Z30 E100
M204 P5000 R2500 T5000 ; sets acceleration (P, T) and retract acceleration (R), mm/sec^2
M205 X10.00 Y10.00 Z0.40 E5.00 ; sets the jerk limits, mm/sec
;TYPE:Custom
M220 S100 ;Reset Feedrate 
M221 S100 ;Reset Flowrate 
 
M140 S60 ;Set final bed temp 
G28 ;Home 
 
G92 E0 ;Reset Extruder 
G1 Z2.0 F3000 ;Move Z Axis up 
M104 S205 ;Set final nozzle temp 
G1 X-2.1 Y20 Z0.28 F5000.0 ;Move to start position 
M190 S60 ;Wait for bed temp to stabilize 
M109 S205 ;Wait for nozzle temp to stabilize 
G1 X-2.1 Y145.0 Z0.28 F1500.0 E15 ;Draw the first line 
G1 X-2.4 Y145.0 Z0.28 F5000.0 ;Move to side a little 
G1 X-2.4 Y20 Z0.28 F1500.0 E30 ;Draw the second line 
G92 E0  ;Reset Extruder 
G1 E-1.0000 F1800 ;Retract a bit 
G1 Z2.0 F3000 ;Move Z Axis up 
G1 E0.0000 F1800
G90
G21
M83 ; use relative distances for extrusion
" "
G1 E-1.2 F2400
M106 S0
;LAYER_CHANGE
;Z:0.2
;HEIGHT:0.2
;BEFORE_LAYER_CHANGE
;0.2
G92 E0

;_SET_FAN_SPEED_CHANGING_LAYER
M204 P500
M205 X10 Y10
M204 T500
G1 Z.4 F9000
G1 X46.758 Y35.776
G1 Z.2
G1 E1.2 F1800
;TYPE:Skirt
;WIDTH:0.5
G1 F3000
G1 X49.347 Y32.558 E.14912
G1 X52.506 Y29.898 E.14912
G1 X56.118 Y27.896 E.14912
G1 X60.048 Y26.625 E.14912
G1 X64.627 Y26.129 E.16629
G1 X81.338 Y26.129 E.60338
G1 X85.449 Y26.528 E.14912
G1 X89.406 Y27.71 E.14912
G1 X93.062 Y29.631 E.14912
G1 X96.28 Y32.22 E.14912
G1 X98.94 Y35.379 E.14912
G1 X100.943 Y38.991 E.14912
G1 X102.213 Y42.921 E.14912
G1 X102.709 Y47.5 E.16629
G1 X102.709 Y172.5 E4.51325
G1 X102.31 Y176.611 E.14912
M73 P1 R21
M73 P1 R21
G1 X101.128 Y180.568 E.14912
G1 X99.207 Y184.224 E.14912
G1 X96.618 Y187.442 E.14912
G1 X93.459 Y190.102 E.14912
G1 X89.847 Y192.104 E.14912
G1 X85.917 Y193.375 E.14912
G1 X81.338 Y193.871 E.16629
G1 X64.627 Y193.871 E.60338
G1 X60.516 Y193.472 E.14912
G1 X56.559 Y192.29 E.14912
G1 X52.903 Y190.369 E.14912
G1 X49.685 Y187.78 E.14912
G1 X47.025 Y184.621 E.14912
G1 X45.022 Y181.009 E.14912
G1 X43.752 Y177.079 E.14912
G1 X43.256 Y172.5 E.16629
G1 X43.256 Y47.5 E4.51325
G1 X43.655 Y43.389 E.14912
G1 X44.837 Y39.432 E.14912
G1 X46.74 Y35.812 E.14767
G1 X47.152 Y36.031 F9000
G1 F3000
G1 X47.213 Y35.917 E.00468
G1 X49.797 Y32.752 E.14751
G1 X52.947 Y30.151 E.14751
G1 X56.543 Y28.211 E.14751
G1 X60.447 Y27.008 E.14751
G1 X64.627 Y26.586 E.15167
G1 X81.338 Y26.586 E.60338
G1 X85.404 Y26.985 E.14751
G1 X89.315 Y28.167 E.14751
G1 X92.921 Y30.086 E.14751
G1 X96.086 Y32.671 E.14751
G1 X98.687 Y35.821 E.14751
G1 X100.627 Y39.416 E.14751
G1 X101.83 Y43.321 E.14751
G1 X102.252 Y47.5 E.15167
G1 X102.252 Y172.5 E4.51325
G1 X101.853 Y176.566 E.14751
G1 X100.671 Y180.477 E.14751
G1 X98.752 Y184.083 E.14751
G1 X96.168 Y187.248 E.14751
G1 X93.017 Y189.849 E.14751
G1 X89.422 Y191.789 E.14751
G1 X85.518 Y192.992 E.14751
G1 X81.338 Y193.414 E.15167
G1 X64.627 Y193.414 E.60338
G1 X60.561 Y193.015 E.14751
G1 X56.65 Y191.833 E.14751
G1 X53.044 Y189.914 E.14751
G1 X49.879 Y187.329 E.14751
G1 X47.278 Y184.179 E.14751
G1 X45.338 Y180.584 E.14751
G1 X44.135 Y176.679 E.14751
G1 X43.713 Y172.5 E.15167
G1 X43.713 Y47.5 E4.51325
G1 X44.112 Y43.434 E.14751
M73 P2 R21
M73 P2 R21
G1 X45.294 Y39.523 E.14751
G1 X47.134 Y36.067 E.14138
G1 X47.545 Y36.288 F9000
G1 F3000
G1 X47.668 Y36.059 E.0094
G1 X50.248 Y32.949 E.14589
G1 X53.388 Y30.407 E.14589
G1 X56.967 Y28.531 E.14589
G1 X60.844 Y27.396 E.14589
G1 X64.627 Y27.043 E.13716
G1 X81.338 Y27.043 E.60338
G1 X85.359 Y27.442 E.14589
G1 X89.223 Y28.623 E.14589
G1 X92.779 Y30.541 E.14589
G1 X95.889 Y33.121 E.14589
G1 X98.431 Y36.261 E.14589
G1 X100.307 Y39.84 E.14589
G1 X101.443 Y43.718 E.14589
G1 X101.795 Y47.5 E.13716
G1 X101.795 Y172.5 E4.51325
G1 X101.396 Y176.521 E.14589
G1 X100.215 Y180.385 E.14589
G1 X98.297 Y183.941 E.14589
G1 X95.717 Y187.051 E.14589
G1 X92.577 Y189.593 E.14589
G1 X88.998 Y191.469 E.14589
G1 X85.12 Y192.604 E.14589
G1 X81.338 Y192.957 E.13716
G1 X64.627 Y192.957 E.60338
G1 X60.606 Y192.558 E.14589
G1 X56.742 Y191.377 E.14589
G1 X53.186 Y189.459 E.14589
G1 X50.076 Y186.879 E.14589
G1 X47.534 Y183.739 E.14589
G1 X45.658 Y180.16 E.14589
G1 X44.522 Y176.282 E.14589
G1 X44.17 Y172.5 E.13716
G1 X44.17 Y47.5 E4.51325
G1 X44.569 Y43.479 E.14589
G1 X45.75 Y39.615 E.14589
G1 X47.526 Y36.323 E.13504
; printing object Caixa Ulleres v6.stl id:4774440983433744233 copy 0
G1 E-1.2 F2400
;WIPE_START
G1 F9000
G1 X47.668 Y36.059
G1 X48.753 Y34.751
;WIPE_END
G1 X50.428 Y42.197 Z.6
G1 X65.984 Y111.357 Z.6
G1 Z.2
G1 E1.2 F1800
;TYPE:Inner wall
;WIDTH:0.499999
G1 X80.481 Y111.357 E.52343
G1 X80.481 Y171.643 E2.17668
G1 X65.484 Y171.643 E.54149
M73 P3 R21
M73 P3 R21
G1 X65.484 Y111.357 E2.17668
G1 X65.944 Y111.357 E.01661
G1 E-1.2 F2400
;WIPE_START
G1 F9000
G1 X67.944 Y111.357
;WIPE_END
G1 X65.027 Y110.9 Z.6
G1 Z.2
G1 E1.2 F1800
;TYPE:Outer wall
G1 X80.938 Y110.9 E.57449
G1 X80.938 Y172.1 E2.20968
G1 X65.027 Y172.1 E.57449
G1 X65.027 Y110.94 E2.20824
G1 E-1.2 F2400
;WIPE_START
G1 F9000
G1 X67.027 Y110.935
;WIPE_END
G1 Z.6
G1 X80.344 Y112.425
G1 Z.6
G1 Z.2
G1 E1.2 F1800
;TYPE:Bottom surface
;WIDTH:0.503006
G1 F4800
G1 X79.619 Y111.7 E.03725
G1 X78.969 Y111.7 E.02365
G1 X80.138 Y112.87 E.06012
G1 X80.138 Y113.52 E.02365
G1 X78.318 Y111.7 E.09356
G1 X77.667 Y111.7 E.02365
G1 X80.138 Y114.171 E.127
G1 X80.138 Y114.822 E.02365
G1 X77.017 Y111.7 E.16044
G1 X76.366 Y111.7 E.02365
G1 X80.138 Y115.472 E.19389
G1 X80.138 Y116.123 E.02365
G1 X75.715 Y111.7 E.22733
G1 X75.065 Y111.7 E.02365
G1 X80.138 Y116.773 E.26077
G1 X80.138 Y117.424 E.02365
G1 X74.414 Y111.7 E.29421
G1 X73.763 Y111.7 E.02365
G1 X80.138 Y118.075 E.32765
G1 X80.138 Y118.725 E.02365
G1 X73.113 Y111.7 E.3611
G1 X72.462 Y111.7 E.02365
G1 X80.138 Y119.376 E.39454
G1 X80.138 Y120.027 E.02365
G1 X71.811 Y111.7 E.42798
G1 X71.161 Y111.7 E.02365
G1 X80.138 Y120.677 E.46142
G1 X80.138 Y121.328 E.02365
G1 X70.51 Y111.7 E.49487
G1 X69.859 Y111.7 E.02365
M73 P4 R20
M73 P4 R20
G1 X80.138 Y121.979 E.52831
G1 X80.138 Y122.629 E.02365
G1 X69.209 Y111.7 E.56175
G1 X68.558 Y111.7 E.02365
G1 X80.138 Y123.28 E.59519
G1 X80.138 Y123.931 E.02365
G1 X67.907 Y111.7 E.62863
G1 X67.257 Y111.7 E.02365
G1 X80.138 Y124.581 E.66208
G1 X80.138 Y125.232 E.02365
G1 X66.606 Y111.7 E.69552
G1 X65.955 Y111.7 E.02365
G1 X80.138 Y125.883 E.72896
G1 X80.138 Y126.533 E.02365
G1 X65.827 Y112.222 E.73558
G1 X65.827 Y112.872 E.02365
G1 X80.138 Y127.184 E.73558
G1 X80.138 Y127.835 E.02365
G1 X65.827 Y113.523 E.73558
G1 X65.827 Y114.174 E.02365
G1 X80.138 Y128.485 E.73558
G1 X80.138 Y129.136 E.02365
G1 X65.827 Y114.824 E.73558
G1 X65.827 Y115.475 E.02365
G1 X80.138 Y129.787 E.73558
G1 X80.138 Y130.437 E.02365
G1 X65.827 Y116.126 E.73558
G1 X65.827 Y116.776 E.02365
G1 X80.138 Y131.088 E.73558
G1 X80.138 Y131.739 E.02365
G1 X65.827 Y117.427 E.73558
G1 X65.827 Y118.078 E.02365
G1 X80.138 Y132.389 E.73558
G1 X80.138 Y133.04 E.02365
G1 X65.827 Y118.728 E.73558
G1 X65.827 Y119.379 E.02365
G1 X80.138 Y133.691 E.73558
G1 X80.138 Y134.341 E.02365
G1 X65.827 Y120.03 E.73558
G1 X65.827 Y120.68 E.02365
G1 X80.138 Y134.992 E.73558
G1 X80.138 Y135.643 E.02365
G1 X65.827 Y121.331 E.73558
G1 X65.827 Y121.982 E.02365
G1 X80.138 Y136.293 E.73558
G1 X80.138 Y136.944 E.02365
G1 X65.827 Y122.632 E.73558
G1 X65.827 Y123.283 E.02365
G1 X80.138 Y137.595 E.73558
G1 X80.138 Y138.245 E.02365
G1 X65.827 Y123.934 E.73558
G1 X65.827 Y124.584 E.02365
G1 X80.138 Y138.896 E.73558
G1 X80.138 Y139.547 E.02365
G1 X65.827 Y125.235 E.73558
G1 X65.827 Y125.886 E.02365
G1 X80.138 Y140.197 E.73558
G1 X80.138 Y140.848 E.02365
G1 X65.827 Y126.536 E.73558
G1 X65.827 Y127.187 E.02365
G1 X80.138 Y141.499 E.73558
G1 X80.138 Y142.149 E.02365
G1 X65.827 Y127.838 E.73558
G1 X65.827 Y128.488 E.02365
G1 X80.138 Y142.8 E.73558
G1 X80.138 Y143.451 E.02365
M73 P5 R20
M73 P5 R20
G1 X65.827 Y129.139 E.73558
G1 X65.827 Y129.79 E.02365
G1 X80.138 Y144.101 E.73558
G1 X80.138 Y144.752 E.02365
G1 X65.827 Y130.44 E.73558
G1 X65.827 Y131.091 E.02365
G1 X80.138 Y145.403 E.73558
G1 X80.138 Y146.053 E.02365
G1 X65.827 Y131.742 E.73558
G1 X65.827 Y132.392 E.02365
G1 X80.138 Y146.704 E.73558
G1 X80.138 Y147.354 E.02365
G1 X65.827 Y133.043 E.73558
G1 X65.827 Y133.694 E.02365
G1 X80.138 Y148.005 E.73558
G1 X80.138 Y148.656 E.02365
G1 X65.827 Y134.344 E.73558
G1 X65.827 Y134.995 E.02365
G1 X80.138 Y149.306 E.73558
G1 X80.138 Y149.957 E.02365
G1 X65.827 Y135.646 E.73558
G1 X65.827 Y136.296 E.02365
G1 X80.138 Y150.608 E.73558
G1 X80.138 Y151.258 E.02365
G1 X65.827 Y136.947 E.73558
G1 X65.827 Y137.598 E.02365
G1 X80.138 Y151.909 E.73558
G1 X80.138 Y152.56 E.02365
G1 X65.827 Y138.248 E.73558
G1 X65.827 Y138.899 E.02365
G1 X80.138 Y153.21 E.73558
G1 X80.138 Y153.861 E.02365
G1 X65.827 Y139.55 E.73558
G1 X65.827 Y140.2 E.02365
G1 X80.138 Y154.512 E.73558
G1 X80.138 Y155.162 E.02365
G1 X65.827 Y140.851 E.73558
G1 X65.827 Y141.501 E.02365
G1 X80.138 Y155.813 E.73558
G1 X80.138 Y156.464 E.02365
G1 X65.827 Y142.152 E.73558
G1 X65.827 Y142.803 E.02365
G1 X80.138 Y157.114 E.73558
G1 X80.138 Y157.765 E.02365
G1 X65.827 Y143.453 E.73558
G1 X65.827 Y144.104 E.02365
G1 X80.138 Y158.416 E.73558
G1 X80.138 Y159.066 E.02365
G1 X65.827 Y144.755 E.73558
G1 X65.827 Y145.405 E.02365
G1 X80.138 Y159.717 E.73558
G1 X80.138 Y160.368 E.02365
G1 X65.827 Y146.056 E.73558
G1 X65.827 Y146.707 E.02365
G1 X80.138 Y161.018 E.73558
G1 X80.138 Y161.669 E.02365
G1 X65.827 Y147.357 E.73558
G1 X65.827 Y148.008 E.02365
G1 X80.138 Y162.32 E.73558
G1 X80.138 Y162.97 E.02365
G1 X65.827 Y148.659 E.73558
G1 X65.827 Y149.309 E.02365
G1 X80.138 Y163.621 E.73558
G1 X80.138 Y164.272 E.02365
M73 P6 R20
M73 P6 R20
G1 X65.827 Y149.96 E.73558
G1 X65.827 Y150.611 E.02365
G1 X80.138 Y164.922 E.73558
G1 X80.138 Y165.573 E.02365
G1 X65.827 Y151.261 E.73558
G1 X65.827 Y151.912 E.02365
G1 X80.138 Y166.224 E.73558
G1 X80.138 Y166.874 E.02365
G1 X65.827 Y152.563 E.73558
G1 X65.827 Y153.213 E.02365
G1 X80.138 Y167.525 E.73558
G1 X80.138 Y168.176 E.02365
G1 X65.827 Y153.864 E.73558
G1 X65.827 Y154.515 E.02365
G1 X80.138 Y168.826 E.73558
G1 X80.138 Y169.477 E.02365
G1 X65.827 Y155.165 E.73558
G1 X65.827 Y155.816 E.02365
G1 X80.138 Y170.128 E.73558
G1 X80.138 Y170.778 E.02365
G1 X65.827 Y156.467 E.73558
G1 X65.827 Y157.117 E.02365
G1 X80.009 Y171.3 E.72896
G1 X79.359 Y171.3 E.02365
G1 X65.827 Y157.768 E.69552
G1 X65.827 Y158.419 E.02365
G1 X78.708 Y171.3 E.66207
G1 X78.058 Y171.3 E.02365
G1 X65.827 Y159.069 E.62863
G1 X65.827 Y159.72 E.02365
G1 X77.407 Y171.3 E.59519
G1 X76.756 Y171.3 E.02365
G1 X65.827 Y160.371 E.56175
G1 X65.827 Y161.021 E.02365
G1 X76.106 Y171.3 E.52831
G1 X75.455 Y171.3 E.02365
G1 X65.827 Y161.672 E.49486
G1 X65.827 Y162.323 E.02365
G1 X74.804 Y171.3 E.46142
G1 X74.154 Y171.3 E.02365
G1 X65.827 Y162.973 E.42798
G1 X65.827 Y163.624 E.02365
G1 X73.503 Y171.3 E.39454
G1 X72.852 Y171.3 E.02365
G1 X65.827 Y164.275 E.36109
G1 X65.827 Y164.925 E.02365
G1 X72.202 Y171.3 E.32765
G1 X71.551 Y171.3 E.02365
G1 X65.827 Y165.576 E.29421
G1 X65.827 Y166.227 E.02365
G1 X70.9 Y171.3 E.26077
G1 X70.25 Y171.3 E.02365
G1 X65.827 Y166.877 E.22733
G1 X65.827 Y167.528 E.02365
G1 X69.599 Y171.3 E.19388
G1 X68.948 Y171.3 E.02365
G1 X65.827 Y168.179 E.16044
G1 X65.827 Y168.829 E.02365
G1 X68.298 Y171.3 E.127
G1 X67.647 Y171.3 E.02365
G1 X65.827 Y169.48 E.09356
G1 X65.827 Y170.131 E.02365
G1 X66.996 Y171.3 E.06011
G1 X66.346 Y171.3 E.02365
G1 X65.621 Y170.576 E.03724
G1 E-1.2 F2400
;WIPE_START
G1 F9000
G1 X66.346 Y171.3
G1 X66.996 Y171.3
G1 X66.767 Y171.071
;WIPE_END
G1 X66.611 Y163.44 Z.6
G1 X65.484 Y108.143 Z.6
G1 Z.2
G1 E1.2 F1800
;TYPE:Inner wall
;WIDTH:0.499999
G1 X65.484 Y48.357 E2.15863
G1 X80.481 Y48.357 E.54149
M73 P7 R20
M73 P7 R20
G1 X80.481 Y108.643 E2.17668
G1 X65.484 Y108.643 E.54149
G1 X65.484 Y108.183 E.01661
G1 E-1.2 F2400
;WIPE_START
G1 F9000
G1 X65.484 Y106.183
;WIPE_END
G1 X65.027 Y109.1 Z.6
G1 Z.2
G1 E1.2 F1800
;TYPE:Outer wall
G1 X65.027 Y47.9 E2.20968
G1 X80.938 Y47.9 E.57449
G1 X80.938 Y109.1 E2.20968
G1 X65.067 Y109.1 E.57305
G1 E-1.2 F2400
;WIPE_START
G1 F9000
G1 X65.066 Y107.1
;WIPE_END
G1 X67.02 Y99.722 Z.6
G1 X80.344 Y49.425 Z.6
G1 Z.2
G1 E1.2 F1800
;TYPE:Bottom surface
;WIDTH:0.503006
G1 F4800
G1 X79.619 Y48.7 E.03725
G1 X78.969 Y48.7 E.02365
G1 X80.138 Y49.87 E.06012
G1 X80.138 Y50.52 E.02365
G1 X78.318 Y48.7 E.09356
G1 X77.667 Y48.7 E.02365
G1 X80.138 Y51.171 E.127
G1 X80.138 Y51.821 E.02365
G1 X77.017 Y48.7 E.16044
G1 X76.366 Y48.7 E.02365
G1 X80.138 Y52.472 E.19389
G1 X80.138 Y53.123 E.02365
G1 X75.715 Y48.7 E.22733
G1 X75.065 Y48.7 E.02365
G1 X80.138 Y53.773 E.26077
G1 X80.138 Y54.424 E.02365
G1 X74.414 Y48.7 E.29421
G1 X73.763 Y48.7 E.02365
G1 X80.138 Y55.075 E.32765
G1 X80.138 Y55.725 E.02365
G1 X73.113 Y48.7 E.3611
G1 X72.462 Y48.7 E.02365
G1 X80.138 Y56.376 E.39454
G1 X80.138 Y57.027 E.02365
G1 X71.811 Y48.7 E.42798
G1 X71.161 Y48.7 E.02365
G1 X80.138 Y57.677 E.46142
G1 X80.138 Y58.328 E.02365
M73 P8 R20
M73 P8 R20
G1 X70.51 Y48.7 E.49487
G1 X69.859 Y48.7 E.02365
G1 X80.138 Y58.979 E.52831
G1 X80.138 Y59.629 E.02365
G1 X69.209 Y48.7 E.56175
G1 X68.558 Y48.7 E.02365
G1 X80.138 Y60.28 E.59519
G1 X80.138 Y60.931 E.02365
G1 X67.907 Y48.7 E.62864
G1 X67.257 Y48.7 E.02365
G1 X80.138 Y61.581 E.66208
G1 X80.138 Y62.232 E.02365
G1 X66.606 Y48.7 E.69552
G1 X65.955 Y48.7 E.02365
G1 X80.138 Y62.883 E.72896
G1 X80.138 Y63.533 E.02365
G1 X65.827 Y49.222 E.73558
G1 X65.827 Y49.872 E.02365
G1 X80.138 Y64.184 E.73558
G1 X80.138 Y64.835 E.02365
G1 X65.827 Y50.523 E.73558
G1 X65.827 Y51.174 E.02365
G1 X80.138 Y65.485 E.73558
G1 X80.138 Y66.136 E.02365
G1 X65.827 Y51.824 E.73558
G1 X65.827 Y52.475 E.02365
G1 X80.138 Y66.787 E.73558
G1 X80.138 Y67.437 E.02365
G1 X65.827 Y53.126 E.73558
G1 X65.827 Y53.776 E.02365
G1 X80.138 Y68.088 E.73558
G1 X80.138 Y68.739 E.02365
G1 X65.827 Y54.427 E.73558
G1 X65.827 Y55.078 E.02365
G1 X80.138 Y69.389 E.73558
G1 X80.138 Y70.04 E.02365
G1 X65.827 Y55.728 E.73558
G1 X65.827 Y56.379 E.02365
M73 P8 R19
M73 P8 R19
G1 X80.138 Y70.691 E.73558
G1 X80.138 Y71.341 E.02365
G1 X65.827 Y57.03 E.73558
G1 X65.827 Y57.68 E.02365
G1 X80.138 Y71.992 E.73558
G1 X80.138 Y72.643 E.02365
G1 X65.827 Y58.331 E.73558
G1 X65.827 Y58.982 E.02365
G1 X80.138 Y73.293 E.73558
G1 X80.138 Y73.944 E.02365
G1 X65.827 Y59.632 E.73558
G1 X65.827 Y60.283 E.02365
G1 X80.138 Y74.595 E.73558
G1 X80.138 Y75.245 E.02365
G1 X65.827 Y60.934 E.73558
G1 X65.827 Y61.584 E.02365
G1 X80.138 Y75.896 E.73558
G1 X80.138 Y76.547 E.02365
G1 X65.827 Y62.235 E.73558
G1 X65.827 Y62.886 E.02365
G1 X80.138 Y77.197 E.73558
G1 X80.138 Y77.848 E.02365
G1 X65.827 Y63.536 E.73558
G1 X65.827 Y64.187 E.02365
G1 X80.138 Y78.499 E.73558
G1 X80.138 Y79.149 E.02365
G1 X65.827 Y64.838 E.73558
G1 X65.827 Y65.488 E.02365
M73 P9 R19
M73 P9 R19
G1 X80.138 Y79.8 E.73558
G1 X80.138 Y80.451 E.02365
G1 X65.827 Y66.139 E.73558
G1 X65.827 Y66.79 E.02365
G1 X80.138 Y81.101 E.73558
G1 X80.138 Y81.752 E.02365
G1 X65.827 Y67.44 E.73558
G1 X65.827 Y68.091 E.02365
G1 X80.138 Y82.403 E.73558
G1 X80.138 Y83.053 E.02365
G1 X65.827 Y68.742 E.73558
G1 X65.827 Y69.392 E.02365
G1 X80.138 Y83.704 E.73558
G1 X80.138 Y84.354 E.02365
G1 X65.827 Y70.043 E.73558
G1 X65.827 Y70.694 E.02365
G1 X80.138 Y85.005 E.73558
G1 X80.138 Y85.656 E.02365
G1 X65.827 Y71.344 E.73558
G1 X65.827 Y71.995 E.02365
G1 X80.138 Y86.306 E.73558
G1 X80.138 Y86.957 E.02365
G1 X65.827 Y72.646 E.73558
G1 X65.827 Y73.296 E.02365
