;TIME:1177.81
;Filament used:1.73832m
;Layer height:0.200
; HEADER_BLOCK_START
; generated by Creality_Print V6.0.5.1840 on 2025-03-26 at 10:28:17
; total layer number: 85
; filament_density: 1.24
; filament_diameter: 1.75
; max_z_height: 14.60
; HEADER_BLOCK_END

; MINX = 32.00
; MINY = 47.50
; MINZ = 0.00
; MAXX = 188.00
; MAXY = 172.50
; MAXZ = 14.56

; THUMBNAIL_BLOCK_START

;
; THUMBNAIL_BLOCK_END

; THUMBNAIL_BLOCK_START

;
; THUMBNAIL_BLOCK_END

; external perimeters extrusion width = 0.42mm
; perimeters extrusion width = 0.45mm
; infill extrusion width = 0.45mm
; solid infill extrusion width = 0.42mm
; top infill extrusion width = 0.42mm
; first layer extrusion width = 0.50mm

; EXECUTABLE_BLOCK_START
M73 P0 R19
M201 X5000 Y5000 Z500 E5000
M203 X500 Y500 Z30 E100
M204 P5000 R2500 T5000 ; sets acceleration (P, T) and retract acceleration (R), mm/sec^2
M205 X10.00 Y10.00 Z0.40 E5.00 ; sets the jerk limits, mm/sec
;TYPE:Custom
M220 S100 ;Reset Feedrate 
M221 S100 ;Reset Flowrate 
 
M140 S50 ;Set final bed temp 
G28 ;Home 
 
G92 E0 ;Reset Extruder 
G1 Z2.0 F3000 ;Move Z Axis up 
M104 S190 ;Set final nozzle temp 
G1 X-2.1 Y20 Z0.28 F5000.0 ;Move to start position 
M190 S50 ;Wait for bed temp to stabilize 
M109 S190 ;Wait for nozzle temp to stabilize 
G1 X-2.1 Y145.0 Z0.28 F1500.0 E15 ;Draw the first line 
G1 X-2.4 Y145.0 Z0.28 F5000.0 ;Move to side a little 
G1 X-2.4 Y20 Z0.28 F1500.0 E30 ;Draw the second line 
G92 E0  ;Reset Extruder 
G1 E-1.0000 F1800 ;Retract a bit 
G1 Z2.0 F3000 ;Move Z Axis up 
G1 E0.0000 F1800
G90
G21
M83 ; use relative distances for extrusion
" "
G1 E-1.2 F2400
M106 S0
;LAYER_CHANGE
;Z:0.2
;HEIGHT:0.2
;BEFORE_LAYER_CHANGE
;0.2
G92 E0

;_SET_FAN_SPEED_CHANGING_LAYER
M204 P500
M205 X10 Y10
M204 T500
G1 Z.2 F9000
G1 X48.829 Y35.776
G1 E1.2 F1800
;TYPE:Skirt
;WIDTH:0.5
G1 F3000
G1 X51.417 Y32.558 E.14912
G1 X54.577 Y29.898 E.14912
G1 X58.189 Y27.896 E.14912
G1 X62.118 Y26.625 E.14912
G1 X66.697 Y26.129 E.16629
M73 P1 R19
M73 P1 R19
G1 X79.759 Y26.129 E.47162
G1 X83.87 Y26.528 E.14912
G1 X87.827 Y27.71 E.14912
G1 X91.483 Y29.631 E.14912
G1 X94.701 Y32.22 E.14912
G1 X97.361 Y35.379 E.14912
G1 X99.364 Y38.991 E.14912
G1 X100.634 Y42.921 E.14912
G1 X101.131 Y47.5 E.16629
G1 X101.131 Y172.5 E4.51325
G1 X100.731 Y176.611 E.14912
G1 X99.549 Y180.568 E.14912
G1 X97.628 Y184.224 E.14912
G1 X95.039 Y187.442 E.14912
G1 X91.88 Y190.102 E.14912
G1 X88.268 Y192.104 E.14912
G1 X84.338 Y193.375 E.14912
G1 X79.759 Y193.871 E.16629
G1 X66.697 Y193.871 E.47162
G1 X62.586 Y193.472 E.14912
G1 X58.629 Y192.29 E.14912
G1 X54.973 Y190.369 E.14912
G1 X51.755 Y187.78 E.14912
G1 X49.095 Y184.621 E.14912
G1 X47.093 Y181.009 E.14912
G1 X45.822 Y177.079 E.14912
G1 X45.326 Y172.5 E.16629
G1 X45.326 Y47.5 E4.51325
G1 X45.725 Y43.389 E.14912
G1 X46.907 Y39.432 E.14912
G1 X48.81 Y35.812 E.14767
G1 X49.223 Y36.031 F9000
G1 F3000
G1 X49.284 Y35.917 E.00468
G1 X51.868 Y32.752 E.14751
G1 X55.018 Y30.151 E.14751
G1 X58.614 Y28.211 E.14751
G1 X62.518 Y27.008 E.14751
G1 X66.697 Y26.586 E.15167
G1 X79.759 Y26.586 E.47162
G1 X83.825 Y26.985 E.14751
G1 X87.736 Y28.167 E.14751
G1 X91.343 Y30.086 E.14751
G1 X94.507 Y32.671 E.14751
G1 X97.109 Y35.821 E.14751
G1 X99.048 Y39.416 E.14751
G1 X100.252 Y43.321 E.14751
G1 X100.673 Y47.5 E.15167
G1 X100.673 Y172.5 E4.51325
G1 X100.274 Y176.566 E.14751
M73 P2 R19
M73 P2 R19
G1 X99.093 Y180.477 E.14751
G1 X97.173 Y184.083 E.14751
G1 X94.589 Y187.248 E.14751
G1 X91.439 Y189.849 E.14751
G1 X87.843 Y191.789 E.14751
G1 X83.939 Y192.992 E.14751
G1 X79.759 Y193.414 E.15167
G1 X66.697 Y193.414 E.47162
G1 X62.631 Y193.015 E.14751
G1 X58.72 Y191.833 E.14751
G1 X55.114 Y189.914 E.14751
G1 X51.95 Y187.329 E.14751
G1 X49.348 Y184.179 E.14751
G1 X47.408 Y180.584 E.14751
G1 X46.205 Y176.679 E.14751
G1 X45.783 Y172.5 E.15167
G1 X45.783 Y47.5 E4.51325
G1 X46.182 Y43.434 E.14751
G1 X47.364 Y39.523 E.14751
G1 X49.204 Y36.067 E.14138
G1 X49.615 Y36.288 F9000
G1 F3000
G1 X49.738 Y36.059 E.0094
G1 X52.318 Y32.949 E.14589
G1 X55.458 Y30.407 E.14589
G1 X59.037 Y28.531 E.14589
G1 X62.915 Y27.396 E.14589
G1 X66.697 Y27.043 E.13716
G1 X79.759 Y27.043 E.47162
G1 X83.78 Y27.442 E.14589
G1 X87.644 Y28.623 E.14589
G1 X91.2 Y30.541 E.14589
G1 X94.31 Y33.121 E.14589
G1 X96.853 Y36.261 E.14589
G1 X98.728 Y39.84 E.14589
G1 X99.864 Y43.718 E.14589
G1 X100.216 Y47.5 E.13716
G1 X100.216 Y172.5 E4.51325
G1 X99.817 Y176.521 E.14589
G1 X98.636 Y180.385 E.14589
G1 X96.718 Y183.941 E.14589
G1 X94.139 Y187.051 E.14589
G1 X90.998 Y189.593 E.14589
G1 X87.419 Y191.469 E.14589
G1 X83.542 Y192.604 E.14589
G1 X79.759 Y192.957 E.13716
G1 X66.697 Y192.957 E.47162
G1 X62.676 Y192.558 E.14589
G1 X58.812 Y191.377 E.14589
G1 X55.256 Y189.459 E.14589
G1 X52.146 Y186.879 E.14589
G1 X49.604 Y183.739 E.14589
G1 X47.728 Y180.16 E.14589
G1 X46.593 Y176.282 E.14589
G1 X46.24 Y172.5 E.13716
G1 X46.24 Y47.5 E4.51325
G1 X46.639 Y43.479 E.14589
M73 P3 R19
M73 P3 R19
G1 X47.821 Y39.615 E.14589
G1 X49.596 Y36.323 E.13504
; printing object Caixa Ulleres v7.stl id:8171063952611762432 copy 0
G1 E-1.2 F2400
;WIPE_START
G1 F9000
G1 X49.738 Y36.059
G1 X50.823 Y34.751
;WIPE_END
G1 X52.129 Y38.337 Z.4
G1 X78.902 Y111.857 Z.4
G1 Z.2
G1 E1.2 F1800
;TYPE:Inner wall
;WIDTH:0.499999
G1 X78.902 Y171.643 E2.15863
G1 X67.554 Y171.643 E.40973
M73 P3 R18
M73 P3 R18
G1 X67.554 Y111.357 E2.17668
G1 X78.902 Y111.357 E.40973
G1 X78.902 Y111.817 E.01661
G1 E-1.2 F2400
;WIPE_START
G1 F9000
G1 X78.902 Y113.817
;WIPE_END
G1 X79.359 Y110.9 Z.4
G1 Z.2
G1 E1.2 F1800
;TYPE:Outer wall
G1 X79.359 Y172.1 E2.20968
G1 X67.097 Y172.1 E.44274
G1 X67.097 Y110.9 E2.20968
G1 X79.319 Y110.9 E.4413
G1 E-1.2 F2400
M73 P4 R18
;WIPE_START
M73 P4 R18
G1 F9000
G1 X79.321 Y112.9
;WIPE_END
G1 Z.4
G1 X78.765 Y112.419
G1 Z.4
G1 Z.2
G1 E1.2 F1800
;TYPE:Bottom surface
;WIDTH:0.500462
G1 F4800
G1 X78.046 Y111.7 E.03676
G1 X77.399 Y111.7 E.02339
G1 X78.559 Y112.861 E.05932
G1 X78.559 Y113.508 E.02339
G1 X76.752 Y111.7 E.0924
G1 X76.105 Y111.7 E.02339
G1 X78.559 Y114.155 E.12547
G1 X78.559 Y114.802 E.02339
G1 X75.458 Y111.7 E.15854
G1 X74.811 Y111.7 E.02339
G1 X78.559 Y115.449 E.19162
G1 X78.559 Y116.096 E.02339
G1 X74.163 Y111.7 E.22469
G1 X73.516 Y111.7 E.02339
G1 X78.559 Y116.743 E.25777
G1 X78.559 Y117.39 E.02339
G1 X72.869 Y111.7 E.29084
G1 X72.222 Y111.7 E.02339
G1 X78.559 Y118.037 E.32391
G1 X78.559 Y118.684 E.02339
G1 X71.575 Y111.7 E.35699
G1 X70.928 Y111.7 E.02339
G1 X78.559 Y119.331 E.39006
G1 X78.559 Y119.978 E.02339
G1 X70.281 Y111.7 E.42313
G1 X69.634 Y111.7 E.02339
G1 X78.559 Y120.625 E.45621
G1 X78.559 Y121.272 E.02339
G1 X68.987 Y111.7 E.48928
G1 X68.34 Y111.7 E.02339
G1 X78.559 Y121.919 E.52235
G1 X78.559 Y122.566 E.02339
G1 X67.897 Y111.904 E.54499
G1 X67.897 Y112.551 E.02339
G1 X78.559 Y123.214 E.54499
G1 X78.559 Y123.861 E.02339
G1 X67.897 Y113.198 E.54499
G1 X67.897 Y113.845 E.02339
G1 X78.559 Y124.508 E.54499
G1 X78.559 Y125.155 E.02339
G1 X67.897 Y114.492 E.54499
G1 X67.897 Y115.139 E.02339
G1 X78.559 Y125.802 E.54499
G1 X78.559 Y126.449 E.02339
G1 X67.897 Y115.786 E.54499
G1 X67.897 Y116.433 E.02339
G1 X78.559 Y127.096 E.54499
G1 X78.559 Y127.743 E.02339
G1 X67.897 Y117.08 E.54499
G1 X67.897 Y117.728 E.02339
G1 X78.559 Y128.39 E.54499
G1 X78.559 Y129.037 E.02339
G1 X67.897 Y118.375 E.54499
G1 X67.897 Y119.022 E.02339
G1 X78.559 Y129.684 E.54499
G1 X78.559 Y130.331 E.02339
G1 X67.897 Y119.669 E.54499
G1 X67.897 Y120.316 E.02339
G1 X78.559 Y130.978 E.54499
G1 X78.559 Y131.625 E.02339
G1 X67.897 Y120.963 E.54499
G1 X67.897 Y121.61 E.02339
G1 X78.559 Y132.272 E.54499
G1 X78.559 Y132.919 E.02339
G1 X67.897 Y122.257 E.54499
G1 X67.897 Y122.904 E.02339
G1 X78.559 Y133.567 E.54499
G1 X78.559 Y134.214 E.02339
G1 X67.897 Y123.551 E.54499
G1 X67.897 Y124.198 E.02339
G1 X78.559 Y134.861 E.54499
G1 X78.559 Y135.508 E.02339
G1 X67.897 Y124.845 E.54499
G1 X67.897 Y125.492 E.02339
G1 X78.559 Y136.155 E.54499
G1 X78.559 Y136.802 E.02339
M73 P5 R18
M73 P5 R18
G1 X67.897 Y126.139 E.54499
G1 X67.897 Y126.786 E.02339
G1 X78.559 Y137.449 E.54499
G1 X78.559 Y138.096 E.02339
G1 X67.897 Y127.433 E.54499
G1 X67.897 Y128.081 E.02339
G1 X78.559 Y138.743 E.54499
G1 X78.559 Y139.39 E.02339
G1 X67.897 Y128.728 E.54499
G1 X67.897 Y129.375 E.02339
G1 X78.559 Y140.037 E.54499
G1 X78.559 Y140.684 E.02339
G1 X67.897 Y130.022 E.54499
G1 X67.897 Y130.669 E.02339
G1 X78.559 Y141.331 E.54499
G1 X78.559 Y141.978 E.02339
G1 X67.897 Y131.316 E.54499
G1 X67.897 Y131.963 E.02339
G1 X78.559 Y142.625 E.54499
G1 X78.559 Y143.272 E.02339
G1 X67.897 Y132.61 E.54499
G1 X67.897 Y133.257 E.02339
G1 X78.559 Y143.92 E.54499
G1 X78.559 Y144.567 E.02339
G1 X67.897 Y133.904 E.54499
G1 X67.897 Y134.551 E.02339
G1 X78.559 Y145.214 E.54499
G1 X78.559 Y145.861 E.02339
G1 X67.897 Y135.198 E.54499
G1 X67.897 Y135.845 E.02339
G1 X78.559 Y146.508 E.54499
G1 X78.559 Y147.155 E.02339
G1 X67.897 Y136.492 E.54499
G1 X67.897 Y137.139 E.02339
G1 X78.559 Y147.802 E.54499
G1 X78.559 Y148.449 E.02339
G1 X67.897 Y137.786 E.54499
G1 X67.897 Y138.434 E.02339
G1 X78.559 Y149.096 E.54499
G1 X78.559 Y149.743 E.02339
G1 X67.897 Y139.081 E.54499
G1 X67.897 Y139.728 E.02339
G1 X78.559 Y150.39 E.54499
G1 X78.559 Y151.037 E.02339
G1 X67.897 Y140.375 E.54499
G1 X67.897 Y141.022 E.02339
G1 X78.559 Y151.684 E.54499
G1 X78.559 Y152.331 E.02339
G1 X67.897 Y141.669 E.54499
G1 X67.897 Y142.316 E.02339
G1 X78.559 Y152.978 E.54499
G1 X78.559 Y153.625 E.02339
G1 X67.897 Y142.963 E.54499
G1 X67.897 Y143.61 E.02339
G1 X78.559 Y154.273 E.54499
G1 X78.559 Y154.92 E.02339
G1 X67.897 Y144.257 E.54499
G1 X67.897 Y144.904 E.02339
G1 X78.559 Y155.567 E.54499
G1 X78.559 Y156.214 E.02339
G1 X67.897 Y145.551 E.54499
G1 X67.897 Y146.198 E.02339
G1 X78.559 Y156.861 E.54499
G1 X78.559 Y157.508 E.02339
G1 X67.897 Y146.845 E.54499
G1 X67.897 Y147.492 E.02339
G1 X78.559 Y158.155 E.54499
G1 X78.559 Y158.802 E.02339
M73 P6 R18
M73 P6 R18
G1 X67.897 Y148.139 E.54499
G1 X67.897 Y148.787 E.02339
G1 X78.559 Y159.449 E.54499
G1 X78.559 Y160.096 E.02339
G1 X67.897 Y149.434 E.54499
G1 X67.897 Y150.081 E.02339
G1 X78.559 Y160.743 E.54499
G1 X78.559 Y161.39 E.02339
G1 X67.897 Y150.728 E.54499
G1 X67.897 Y151.375 E.02339
G1 X78.559 Y162.037 E.54499
G1 X78.559 Y162.684 E.02339
G1 X67.897 Y152.022 E.54499
G1 X67.897 Y152.669 E.02339
G1 X78.559 Y163.331 E.54499
G1 X78.559 Y163.978 E.02339
G1 X67.897 Y153.316 E.54499
G1 X67.897 Y153.963 E.02339
G1 X78.559 Y164.625 E.54499
G1 X78.559 Y165.273 E.02339
G1 X67.897 Y154.61 E.54499
G1 X67.897 Y155.257 E.02339
G1 X78.559 Y165.92 E.54499
G1 X78.559 Y166.567 E.02339
G1 X67.897 Y155.904 E.54499
G1 X67.897 Y156.551 E.02339
G1 X78.559 Y167.214 E.54499
G1 X78.559 Y167.861 E.02339
G1 X67.897 Y157.198 E.54499
G1 X67.897 Y157.845 E.02339
G1 X78.559 Y168.508 E.54499
G1 X78.559 Y169.155 E.02339
G1 X67.897 Y158.492 E.54499
G1 X67.897 Y159.14 E.02339
G1 X78.559 Y169.802 E.54499
G1 X78.559 Y170.449 E.02339
G1 X67.897 Y159.787 E.54499
G1 X67.897 Y160.434 E.02339
G1 X78.559 Y171.096 E.54499
G1 X78.559 Y171.3 E.00737
G1 X78.116 Y171.3 E.01601
G1 X67.897 Y161.081 E.52235
G1 X67.897 Y161.728 E.02339
G1 X77.469 Y171.3 E.48927
G1 X76.822 Y171.3 E.02339
G1 X67.897 Y162.375 E.4562
G1 X67.897 Y163.022 E.02339
G1 X76.175 Y171.3 E.42313
G1 X75.528 Y171.3 E.02339
G1 X67.897 Y163.669 E.39005
G1 X67.897 Y164.316 E.02339
G1 X74.881 Y171.3 E.35698
G1 X74.234 Y171.3 E.02339
G1 X67.897 Y164.963 E.32391
G1 X67.897 Y165.61 E.02339
G1 X73.587 Y171.3 E.29083
G1 X72.94 Y171.3 E.02339
G1 X67.897 Y166.257 E.25776
G1 X67.897 Y166.904 E.02339
G1 X72.293 Y171.3 E.22469
G1 X71.646 Y171.3 E.02339
G1 X67.897 Y167.551 E.19161
G1 X67.897 Y168.198 E.02339
G1 X70.999 Y171.3 E.15854
G1 X70.352 Y171.3 E.02339
G1 X67.897 Y168.845 E.12547
G1 X67.897 Y169.493 E.02339
G1 X69.705 Y171.3 E.09239
G1 X69.058 Y171.3 E.02339
G1 X67.897 Y170.14 E.05932
G1 X67.897 Y170.787 E.02339
G1 X68.616 Y171.506 E.03676
G1 E-1.2 F2400
;WIPE_START
G1 F9000
G1 X67.897 Y170.787
G1 X67.897 Y170.14
G1 X68.134 Y170.377
;WIPE_END
G1 X68.134 Y166.561 Z.4
G1 X68.121 Y111.63 Z.4
G1 Z.2
G1 E1.2 F1800
;TYPE:Gap infill
;WIDTH:0.0997449
G1 X67.783 Y111.594 E.00153
G1 E-1.2 F2400
;WIPE_START
G1 F9000
G1 X68.121 Y111.63
;WIPE_END
G1 X71.786 Y110.565 Z.4
M73 P7 R18
M73 P7 R18
G1 X78.402 Y108.643 Z.4
G1 Z.2
G1 E1.2 F1800
;TYPE:Inner wall
;WIDTH:0.499999
G1 X67.554 Y108.643 E.39168
G1 X67.554 Y48.357 E2.17668
G1 X78.902 Y48.357 E.40973
G1 X78.902 Y108.643 E2.17668
G1 X78.442 Y108.643 E.01661
G1 E-1.2 F2400
;WIPE_START
G1 F9000
G1 X76.442 Y108.643
;WIPE_END
G1 X79.359 Y109.1 Z.4
G1 Z.2
G1 E1.2 F1800
;TYPE:Outer wall
G1 X67.097 Y109.1 E.44274
G1 X67.097 Y47.9 E2.20968
G1 X79.359 Y47.9 E.44274
G1 X79.359 Y109.06 E2.20824
G1 E-1.2 F2400
;WIPE_START
G1 F9000
G1 X77.359 Y109.067
;WIPE_END
G1 X77.449 Y105.251 Z.4
G1 X78.765 Y49.419 Z.4
G1 Z.2
G1 E1.2 F1800
;TYPE:Bottom surface
;WIDTH:0.500462
G1 F4800
G1 X78.046 Y48.7 E.03676
G1 X77.399 Y48.7 E.02339
M73 P8 R18
M73 P8 R18
G1 X78.559 Y49.861 E.05932
G1 X78.559 Y50.508 E.02339
G1 X76.752 Y48.7 E.0924
G1 X76.105 Y48.7 E.02339
G1 X78.559 Y51.155 E.12547
G1 X78.559 Y51.802 E.02339
G1 X75.458 Y48.7 E.15854
G1 X74.811 Y48.7 E.02339
G1 X78.559 Y52.449 E.19162
G1 X78.559 Y53.096 E.02339
G1 X74.163 Y48.7 E.22469
G1 X73.516 Y48.7 E.02339
G1 X78.559 Y53.743 E.25777
G1 X78.559 Y54.39 E.02339
G1 X72.869 Y48.7 E.29084
G1 X72.222 Y48.7 E.02339
G1 X78.559 Y55.037 E.32391
G1 X78.559 Y55.684 E.02339
G1 X71.575 Y48.7 E.35699
G1 X70.928 Y48.7 E.02339
G1 X78.559 Y56.331 E.39006
G1 X78.559 Y56.978 E.02339
G1 X70.281 Y48.7 E.42313
G1 X69.634 Y48.7 E.02339
G1 X78.559 Y57.625 E.45621
G1 X78.559 Y58.272 E.02339
G1 X68.987 Y48.7 E.48928
G1 X68.34 Y48.7 E.02339
G1 X78.559 Y58.919 E.52235
G1 X78.559 Y59.566 E.02339
G1 X67.897 Y48.904 E.54499
G1 X67.897 Y49.551 E.02339
G1 X78.559 Y60.214 E.54499
G1 X78.559 Y60.861 E.02339
M73 P8 R17
M73 P8 R17
G1 X67.897 Y50.198 E.54499
G1 X67.897 Y50.845 E.02339
G1 X78.559 Y61.508 E.54499
G1 X78.559 Y62.155 E.02339
G1 X67.897 Y51.492 E.54499
G1 X67.897 Y52.139 E.02339
G1 X78.559 Y62.802 E.54499
G1 X78.559 Y63.449 E.02339
G1 X67.897 Y52.786 E.54499
G1 X67.897 Y53.433 E.02339
G1 X78.559 Y64.096 E.54499
G1 X78.559 Y64.743 E.02339
G1 X67.897 Y54.08 E.54499
G1 X67.897 Y54.728 E.02339
G1 X78.559 Y65.39 E.54499
G1 X78.559 Y66.037 E.02339
G1 X67.897 Y55.375 E.54499
G1 X67.897 Y56.022 E.02339
G1 X78.559 Y66.684 E.54499
G1 X78.559 Y67.331 E.02339
G1 X67.897 Y56.669 E.54499
G1 X67.897 Y57.316 E.02339
G1 X78.559 Y67.978 E.54499
G1 X78.559 Y68.625 E.02339
G1 X67.897 Y57.963 E.54499
G1 X67.897 Y58.61 E.02339
G1 X78.559 Y69.272 E.54499
G1 X78.559 Y69.919 E.02339
G1 X67.897 Y59.257 E.54499
G1 X67.897 Y59.904 E.02339
G1 X78.559 Y70.567 E.54499
G1 X78.559 Y71.214 E.02339
G1 X67.897 Y60.551 E.54499
G1 X67.897 Y61.198 E.02339
G1 X78.559 Y71.861 E.54499
G1 X78.559 Y72.508 E.02339
G1 X67.897 Y61.845 E.54499
G1 X67.897 Y62.492 E.02339
G1 X78.559 Y73.155 E.54499
G1 X78.559 Y73.802 E.02339
G1 X67.897 Y63.139 E.54499
G1 X67.897 Y63.786 E.02339
G1 X78.559 Y74.449 E.54499
G1 X78.559 Y75.096 E.02339
M73 P9 R17
M73 P9 R17
G1 X67.897 Y64.433 E.54499
G1 X67.897 Y65.081 E.02339
G1 X78.559 Y75.743 E.54499
G1 X78.559 Y76.39 E.02339
G1 X67.897 Y65.728 E.54499
G1 X67.897 Y66.375 E.02339
G1 X78.559 Y77.037 E.54499
G1 X78.559 Y77.684 E.02339
G1 X67.897 Y67.022 E.54499
G1 X67.897 Y67.669 E.02339
G1 X78.559 Y78.331 E.54499
G1 X78.559 Y78.978 E.02339
G1 X67.897 Y68.316 E.54499
G1 X67.897 Y68.963 E.02339
G1 X78.559 Y79.625 E.54499
G1 X78.559 Y80.272 E.02339
G1 X67.897 Y69.61 E.54499
G1 X67.897 Y70.257 E.02339
G1 X78.559 Y80.92 E.54499
G1 X78.559 Y81.567 E.02339
G1 X67.897 Y70.904 E.54499
G1 X67.897 Y71.551 E.02339
G1 X78.559 Y82.214 E.54499
G1 X78.559 Y82.861 E.02339
G1 X67.897 Y72.198 E.54499
G1 X67.897 Y72.845 E.02339
G1 X78.559 Y83.508 E.54499
G1 X78.559 Y84.155 E.02339
G1 X67.897 Y73.492 E.54499
G1 X67.897 Y74.139 E.02339
G1 X78.559 Y84.802 E.54499
G1 X78.559 Y85.449 E.02339
G1 X67.897 Y74.786 E.54499
G1 X67.897 Y75.434 E.02339
G1 X78.559 Y86.096 E.54499
G1 X78.559 Y86.743 E.02339
G1 X67.897 Y76.081 E.54499
G1 X67.897 Y76.728 E.02339
