;TIME:5996.85
;Filament used:20.12650m
;Layer height:0.200
; HEADER_BLOCK_START
; generated by Creality_Print V6.1.0.2041 on 2025-04-08 at 23:20:37
; total layer number: 13
; filament_density: 1.24
; filament_diameter: 1.75
; max_z_height: 4.11
; HEADER_BLOCK_END

; MINX = 0.00
; MINY = 5.50
; MINZ = 0.00
; MAXX = 220.00
; MAXY = 220.00
; MAXZ = 4.00

; THUMBNAIL_BLOCK_START

;
; THUMBNAIL_BLOCK_END

; THUMBNAIL_BLOCK_START

;
; THUMBNAIL_BLOCK_END

; external perimeters extrusion width = 0.42mm
; perimeters extrusion width = 0.45mm
; infill extrusion width = 0.45mm
; solid infill extrusion width = 0.42mm
; top infill extrusion width = 0.42mm
; first layer extrusion width = 0.50mm

; EXECUTABLE_BLOCK_START
M73 P0 R99
M201 X5000 Y5000 Z500 E5000
M203 X500 Y500 Z30 E100
M204 P5000 R2500 T5000 ; sets acceleration (P, T) and retract acceleration (R), mm/sec^2
M205 X10.00 Y10.00 Z0.40 E5.00 ; sets the jerk limits, mm/sec
;TYPE:Custom
M220 S100 ;Reset Feedrate 
M221 S100 ;Reset Flowrate 
 
M140 S60 ;Set final bed temp 
G28 ;Home 
 
G92 E0 ;Reset Extruder 
G1 Z2.0 F3000 ;Move Z Axis up 
M104 S205 ;Set final nozzle temp 
G1 X-2.1 Y20 Z0.28 F5000.0 ;Move to start position 
M190 S60 ;Wait for bed temp to stabilize 
M109 S205 ;Wait for nozzle temp to stabilize 
G1 X-2.1 Y145.0 Z0.28 F1500.0 E15 ;Draw the first line 
G1 X-2.4 Y145.0 Z0.28 F5000.0 ;Move to side a little 
G1 X-2.4 Y20 Z0.28 F1500.0 E30 ;Draw the second line 
G92 E0  ;Reset Extruder 
G1 E-1.0000 F1800 ;Retract a bit 
G1 Z2.0 F3000 ;Move Z Axis up 
G1 E0.0000 F1800
G90
G21
M83 ; use relative distances for extrusion
" "
G1 E-1.2 F2400
M106 S0
;LAYER_CHANGE
;Z:0.2
;HEIGHT:0.2
;BEFORE_LAYER_CHANGE
;0.2
G92 E0

;_SET_FAN_SPEED_CHANGING_LAYER
M204 P500
M205 X10 Y10
; printing object Cuerpo1 id:4947098641845190655 copy 0
M204 T500
G1 Z.4 F9000
G1 X.229 Y215.729
G1 Z.2
G1 E1.2 F1800
;TYPE:Brim
;WIDTH:0.5
G1 X210 Y215.729 E7.57401
G1 X210.402 Y215.658 E.01473
G1 X210.743 Y215.476 E.01396
G1 X211.009 Y215.196 E.01396
G1 X211.25 Y214.729 E.01898
G1 X219.771 Y214.729 E.30768
G1 X219.771 Y216.1 E.04951
G1 X212.138 Y216.1 E.27561
G1 X211.972 Y216.171 E.00651
G1 X211.716 Y216.441 E.01343
G1 X211.28 Y216.753 E.01937
G1 X211.03 Y216.877 E.01009
G1 X210.529 Y217.037 E.01898
G1 X209.987 Y217.1 E.01971
G1 X.229 Y217.1 E7.57353
G1 X.229 Y215.769 E.04807
G1 X.733 Y216.219 F9000
G1 F1800
G1 X.823 Y216.186 E.00344
G1 X209.989 Y216.186 E7.55217
G1 X210.471 Y216.11 E.01759
G1 X210.628 Y216.056 E.00599
G1 X210.949 Y215.884 E.01317
G1 X211.081 Y215.783 E.00598
G1 X211.33 Y215.522 E.01303
G1 X211.495 Y215.251 E.01147
G1 X211.612 Y215.186 E.00485
G1 X219.177 Y215.186 E.27313
G1 X219.281 Y215.233 E.00413
G1 X219.314 Y215.323 E.00344
G1 X219.314 Y215.506 E.0066
G1 X219.267 Y215.61 E.00413
G1 X219.177 Y215.643 E.00344
G1 X212.152 Y215.643 E.25365
G1 X211.945 Y215.685 E.00763
G1 X211.805 Y215.745 E.0055
G1 X211.631 Y215.866 E.00763
G1 X211.404 Y216.102 E.01182
G1 X211.052 Y216.354 E.01562
G1 X210.867 Y216.448 E.0075
G1 X210.419 Y216.589 E.01696
G1 X209.952 Y216.643 E.01698
G1 X.823 Y216.643 E7.55083
G1 X.719 Y216.595 E.00413
G1 X.686 Y216.506 E.00344
G1 X.686 Y216.323 E.0066
G1 X.717 Y216.255 E.00269
G1 E-1.2 F2400
;WIPE_START
G1 F1800
G1 X.823 Y216.186
G1 X2.696 Y216.186
;WIPE_END
G1 X2.625 Y208.553 Z.6 F9000
G1 X.717 Y4.271 Z.6
G1 Z.2
G1 E1.2 F1800
G1 X.229 Y4.271 E.01762
G1 X.229 Y2.9 E.04951
G1 X209.991 Y2.9 E7.57368
G1 X210.261 Y2.922 E.00978
G1 X210.546 Y2.967 E.0104
G1 X211.059 Y3.135 E.0195
G1 X211.307 Y3.263 E.01007
G1 X211.74 Y3.581 E.01942
G1 X211.976 Y3.829 E.01234
G1 X212.141 Y3.9 E.00652
G1 X219.771 Y3.9 E.27549
G1 X219.771 Y5.271 E.04951
G1 X211.245 Y5.271 E.30786
G1 X211.018 Y4.816 E.01838
G1 X210.754 Y4.533 E.01396
G1 X210.416 Y4.346 E.01396
G1 X210 Y4.271 E.01525
G1 X.757 Y4.271 E7.55494
G1 X.823 Y3.814 F9000
M73 P0 R98
M73 P0 R98
G1 F1800
G1 X.719 Y3.767 E.00413
G1 X.686 Y3.677 E.00344
G1 X.686 Y3.494 E.0066
G1 X.733 Y3.39 E.00413
G1 X.823 Y3.357 E.00344
G1 X209.978 Y3.358 E7.55177
G1 X210.427 Y3.411 E.01631
M73 P1 R98
M73 P1 R98
G1 X210.892 Y3.563 E.01766
G1 X211.075 Y3.659 E.00745
G1 X211.427 Y3.918 E.01579
G1 X211.634 Y4.133 E.01079
G1 X211.808 Y4.254 E.00764
G1 X211.948 Y4.315 E.00551
G1 X212.155 Y4.357 E.00764
G1 X219.177 Y4.357 E.25353
G1 X219.281 Y4.405 E.00413
G1 X219.314 Y4.494 E.00344
G1 X219.314 Y4.677 E.0066
G1 X219.267 Y4.781 E.00413
G1 X219.177 Y4.814 E.00344
G1 X211.613 Y4.814 E.27313
G1 X211.495 Y4.748 E.00488
G1 X211.342 Y4.494 E.0107
G1 X211.096 Y4.23 E.01305
G1 X210.966 Y4.128 E.00598
G1 X210.646 Y3.952 E.01316
G1 X210.487 Y3.895 E.00611
G1 X209.989 Y3.814 E.01822
G1 X.863 Y3.814 E7.55071
G1 E-1.2 F2400
;WIPE_START
G1 F9000
G1 X.719 Y3.767
G1 X.686 Y3.677
G1 X.686 Y3.494
G1 X.733 Y3.39
G1 X.823 Y3.357
G1 X2.183 Y3.357
;WIPE_END
G1 X7.531 Y8.803 Z.6
G1 X208.694 Y213.643 Z.6
G1 Z.2
G1 E1.2 F1800
;TYPE:Inner wall
;WIDTH:0.499999
G1 X.857 Y213.643 E7.50414
G1 X.857 Y6.357 E7.48425
G1 X209.143 Y6.357 E7.52036
G1 X209.143 Y6.671 E.01135
G1 X209.237 Y7.018 E.01297
G2 X209.829 Y7.357 I.636 J-.424 E.02551
G1 X219.143 Y7.357 E.3363
G1 X219.143 Y212.643 E7.41204
G1 X209.751 Y212.643 E.33911
G1 X209.442 Y212.762 E.01197
G1 X209.237 Y212.982 E.01083
G1 X209.143 Y213.329 E.01297
G1 X209.143 Y213.643 E.01135
G1 X208.734 Y213.643 E.01477
G1 X209.6 Y213.329 F9000
;TYPE:Outer wall
G1 F1800
G1 X209.6 Y214.1 E.02785
G1 X.4 Y214.1 E7.55337
G1 X.4 Y5.9 E7.51726
G1 X209.6 Y5.9 E7.55337
M73 P1 R97
M73 P1 R97
G1 X209.6 Y6.671 E.02785
M73 P2 R97
M73 P2 R97
G1 X209.671 Y6.837 E.00648
G1 X209.829 Y6.9 E.00615
G1 X219.6 Y6.9 E.35281
G1 X219.6 Y213.1 E7.44505
G1 X209.829 Y213.1 E.35281
G1 X209.671 Y213.163 E.00615
G1 X209.616 Y213.292 E.00504
G1 E-1.2 F2400
;WIPE_START
G1 F9000
G1 X209.6 Y214.1
G1 X208.408 Y214.1
;WIPE_END
G1 Z.6
G1 X219.008 Y13.402
G1 Z.6
G1 Z.2
G1 E1.2 F1800
;TYPE:Sparse infill
;WIDTH:0.5
G1 X213.28 Y7.673 E.29251
G1 X209.756 Y7.673 E.12724
G3 X208.823 Y6.675 I.123 J-1.05 E.05362
G1 X204.057 Y6.675 E.17208
G1 X218.825 Y21.443 E.75409
G1 X218.825 Y29.667 E.29694
G1 X195.833 Y6.675 E1.17403
G1 X187.608 Y6.675 E.29694
G1 X218.825 Y37.892 E1.59398
G1 X218.825 Y46.116 E.29694
G1 X179.384 Y6.675 E2.01392
G1 X171.16 Y6.675 E.29694
G1 X218.825 Y54.34 E2.43386
G1 X218.825 Y62.564 E.29694
G1 X162.936 Y6.675 E2.85381
G1 X154.711 Y6.675 E.29694
G1 X218.825 Y70.789 E3.27375
G1 X218.825 Y79.013 E.29694
G1 X146.487 Y6.675 E3.69369
G1 X138.263 Y6.675 E.29694
G1 X218.825 Y87.237 E4.11364
G1 X218.825 Y95.461 E.29694
G1 X130.039 Y6.675 E4.53358
G1 X121.814 Y6.675 E.29694
G1 X218.825 Y103.686 E4.95352
G1 X218.825 Y111.91 E.29694
G1 X113.59 Y6.675 E5.37347
G1 X105.366 Y6.675 E.29694
G1 X218.825 Y120.134 E5.79341
G1 X218.825 Y128.358 E.29694
M73 P2 R96
M73 P2 R96
G1 X97.142 Y6.675 E6.21335
M73 P3 R96
M73 P3 R96
G1 X88.917 Y6.675 E.29694
G1 X218.825 Y136.583 E6.6333
G1 X218.825 Y144.807 E.29694
G1 X80.693 Y6.675 E7.05324
G1 X72.469 Y6.675 E.29694
G1 X218.825 Y153.031 E7.47318
G1 X218.825 Y161.255 E.29694
G1 X64.245 Y6.675 E7.89313
G1 X56.02 Y6.675 E.29694
G1 X218.825 Y169.48 E8.31307
G1 X218.825 Y177.704 E.29694
G1 X47.796 Y6.675 E8.73301
G1 X39.572 Y6.675 E.29694
G1 X218.825 Y185.928 E9.15296
G1 X218.825 Y194.152 E.29694
M73 P3 R95
M73 P3 R95
G1 X31.348 Y6.675 E9.5729
G1 X23.123 Y6.675 E.29694
M73 P4 R95
M73 P4 R95
G1 X218.825 Y202.377 E9.99284
G1 X218.825 Y210.601 E.29694
G1 X14.899 Y6.675 E10.41279
G1 X6.675 Y6.675 E.29694
G1 X212.327 Y212.327 E10.50092
G1 X209.756 Y212.327 E.09284
G2 X208.823 Y213.325 I.123 J1.05 E.05362
G1 X205.101 Y213.325 E.13438
G1 X1.175 Y9.399 E10.41279
G1 X1.175 Y17.623 E.29694
G1 X196.877 Y213.325 E9.99284
G1 X188.652 Y213.325 E.29694
G1 X1.175 Y25.848 E9.5729
M73 P4 R94
M73 P4 R94
G1 X1.175 Y34.072 E.29694
M73 P5 R94
M73 P5 R94
G1 X180.428 Y213.325 E9.15296
G1 X172.204 Y213.325 E.29694
G1 X1.175 Y42.296 E8.73301
G1 X1.175 Y50.52 E.29694
G1 X163.98 Y213.325 E8.31307
G1 X155.755 Y213.325 E.29694
G1 X1.175 Y58.745 E7.89313
G1 X1.175 Y66.969 E.29694
G1 X147.531 Y213.325 E7.47318
G1 X139.307 Y213.325 E.29694
G1 X1.175 Y75.193 E7.05324
G1 X1.175 Y83.417 E.29694
G1 X131.083 Y213.325 E6.6333
G1 X122.858 Y213.325 E.29694
M73 P5 R93
M73 P5 R93
G1 X1.175 Y91.642 E6.21335
G1 X1.175 Y99.866 E.29694
M73 P6 R93
M73 P6 R93
G1 X114.634 Y213.325 E5.79341
G1 X106.41 Y213.325 E.29694
G1 X1.175 Y108.09 E5.37347
G1 X1.175 Y116.314 E.29694
G1 X98.186 Y213.325 E4.95352
G1 X89.961 Y213.325 E.29694
G1 X1.175 Y124.539 E4.53358
G1 X1.175 Y132.763 E.29694
G1 X81.737 Y213.325 E4.11364
G1 X73.513 Y213.325 E.29694
G1 X1.175 Y140.987 E3.69369
G1 X1.175 Y149.211 E.29694
G1 X65.289 Y213.325 E3.27375
G1 X57.064 Y213.325 E.29694
G1 X1.175 Y157.436 E2.85381
G1 X1.175 Y165.66 E.29694
G1 X48.84 Y213.325 E2.43386
G1 X40.616 Y213.325 E.29694
G1 X1.175 Y173.884 E2.01392
G1 X1.175 Y182.108 E.29694
G1 X32.392 Y213.325 E1.59398
G1 X24.167 Y213.325 E.29694
G1 X1.175 Y190.333 E1.17403
G1 X1.175 Y198.557 E.29694
G1 X15.943 Y213.325 E.75409
G1 X7.719 Y213.325 E.29694
G1 X.992 Y206.598 E.3435
; stop printing object Cuerpo1 id:4947098641845190655 copy 0
;TIME_ELAPSED:409.561188

M106 S255
;LAYER_CHANGE
;Z:0.446667
;HEIGHT:0.246667
;BEFORE_LAYER_CHANGE
;0.446667
G92 E0

G1 E-1.2 F2400
;WIPE_START
G1 F9000
G1 X2.406 Y208.012
;WIPE_END
;_SET_FAN_SPEED_CHANGING_LAYER
M204 P2500
; printing object Cuerpo1 id:4947098641845190655 copy 0
M204 T2500
G1 X10.035 Y208.23 Z.6
G1 X209.208 Y213.908 Z.6
G1 Z.447
G1 E1.2 F1800
M204 P2000
;TYPE:Inner wall
;WIDTH:0.449999
G1 F5400
G1 X.592 Y213.908 E8.07004
G1 X.592 Y6.092 E8.0391
G1 X209.408 Y6.092 E8.07778
G1 X209.408 Y6.526 E.0168
M73 P6 R92
M73 P6 R92
G1 X209.486 Y6.812 E.01147
G1 X209.706 Y7.025 E.01185
G1 X209.974 Y7.092 E.01066
G1 X219.408 Y7.092 E.36496
G1 X219.408 Y212.908 E7.96173
G1 X209.974 Y212.908 E.36496
M73 P7 R92
M73 P7 R92
G1 X209.706 Y212.975 E.01066
G1 X209.486 Y213.188 E.01185
G1 X209.408 Y213.474 E.01147
G1 X209.408 Y213.908 E.0168
G1 X209.248 Y213.908 E.0062
G1 X209.79 Y213.474 F9000
M204 P1000
;TYPE:Outer wall
;WIDTH:0.419999
G1 F3600
G1 X209.79 Y214.29 E.0292
G1 X.21 Y214.29 E7.49479
G1 X.21 Y5.71 E7.45903
G1 X209.79 Y5.71 E7.49479
G1 X209.79 Y6.526 E.0292
G1 X209.847 Y6.659 E.00516
G1 X209.974 Y6.71 E.00489
G1 X219.79 Y6.71 E.35105
G1 X219.79 Y213.29 E7.38751
G1 X209.974 Y213.29 E.35105
G1 X209.87 Y213.322 E.00388
G1 X209.809 Y213.438 E.0047
G1 E-1.2 F2400
;WIPE_START
G1 F9000
G1 X209.79 Y214.29
G1 X208.642 Y214.29
;WIPE_END
G1 Z.847
G1 X212.797 Y212.81
G1 Z.847
G1 Z.447
G1 E1.2 F1800
M204 P2500
;TYPE:Sparse infill
;WIDTH:0.45
G1 F10800
G1 X219.125 Y206.481 E.3462
G1 X219.125 Y198.257 E.31815
G1 X203.757 Y213.625 E.84074
G1 X195.533 Y213.625 E.31815
G1 X219.125 Y190.033 E1.29066
G1 X219.125 Y181.809 E.31815
G1 X187.309 Y213.625 E1.74059
G1 X179.084 Y213.625 E.31815
G1 X219.125 Y173.584 E2.19052
G1 X219.125 Y165.36 E.31815
G1 X170.86 Y213.625 E2.64044
G1 X162.636 Y213.625 E.31815
G1 X219.125 Y157.136 E3.09037
G1 X219.125 Y148.912 E.31815
G1 X154.412 Y213.625 E3.54029
G1 X146.187 Y213.625 E.31815
G1 X219.125 Y140.687 E3.99022
G1 X219.125 Y132.463 E.31815
G1 X137.963 Y213.625 E4.44014
G1 X129.739 Y213.625 E.31815
G1 X219.125 Y124.239 E4.89007
G1 X219.125 Y116.015 E.31815
G1 X121.515 Y213.625 E5.34
G1 X113.29 Y213.625 E.31815
G1 X219.125 Y107.79 E5.78992
G1 X219.125 Y99.566 E.31815
G1 X105.066 Y213.625 E6.23985
G1 X96.842 Y213.625 E.31815
G1 X219.125 Y91.342 E6.68977
G1 X219.125 Y83.118 E.31815
G1 X88.617 Y213.625 E7.1397
G1 X80.393 Y213.625 E.31815
G1 X219.125 Y74.893 E7.58962
G1 X219.125 Y66.669 E.31815
G1 X72.169 Y213.625 E8.03955
G1 X63.945 Y213.625 E.31815
G1 X219.125 Y58.445 E8.48948
G1 X219.125 Y50.221 E.31815
G1 X55.72 Y213.625 E8.9394
G1 X47.496 Y213.625 E.31815
G1 X219.125 Y41.996 E9.38933
G1 X219.125 Y33.772 E.31815
G1 X39.272 Y213.625 E9.83925
G1 X31.048 Y213.625 E.31815
G1 X219.125 Y25.548 E10.28918
G1 X219.125 Y17.324 E.31815
G1 X22.823 Y213.625 E10.73911
G1 X14.599 Y213.625 E.31815
G1 X219.125 Y9.099 E11.18903
G1 X219.125 Y7.375 E.0667
G1 X212.626 Y7.374 E.25139
G1 X6.375 Y213.625 E11.28344
G1 X.875 Y213.625 E.21276
G1 X.875 Y210.901 E.10539
G1 X205.401 Y6.375 E11.18903
G1 X197.177 Y6.375 E.31815
G1 X.875 Y202.676 E10.73911
G1 X.875 Y194.452 E.31815
G1 X188.952 Y6.375 E10.28918
G1 X180.728 Y6.375 E.31815
G1 X.875 Y186.228 E9.83925
G1 X.875 Y178.004 E.31815
G1 X172.504 Y6.375 E9.38933
G1 X164.28 Y6.375 E.31815
G1 X.875 Y169.779 E8.9394
G1 X.875 Y161.555 E.31815
G1 X156.055 Y6.375 E8.48948
G1 X147.831 Y6.375 E.31815
G1 X.875 Y153.331 E8.03955
G1 X.875 Y145.107 E.31815
G1 X139.607 Y6.375 E7.58962
G1 X131.383 Y6.375 E.31815
G1 X.875 Y136.882 E7.1397
G1 X.875 Y128.658 E.31815
M73 P7 R91
M73 P7 R91
G1 X123.158 Y6.375 E6.68977
G1 X114.934 Y6.375 E.31815
G1 X.875 Y120.434 E6.23985
G1 X.875 Y112.21 E.31815
M73 P8 R91
M73 P8 R91
G1 X106.71 Y6.375 E5.78992
G1 X98.485 Y6.375 E.31815
G1 X.875 Y103.985 E5.34
G1 X.875 Y95.761 E.31815
G1 X90.261 Y6.375 E4.89007
G1 X82.037 Y6.375 E.31815
G1 X.875 Y87.537 E4.44014
G1 X.875 Y79.313 E.31815
G1 X73.813 Y6.375 E3.99022
G1 X65.588 Y6.375 E.31815
G1 X.875 Y71.088 E3.54029
G1 X.875 Y62.864 E.31815
G1 X57.364 Y6.375 E3.09037
G1 X49.14 Y6.375 E.31815
G1 X.875 Y54.64 E2.64044
G1 X.875 Y46.416 E.31815
G1 X40.916 Y6.375 E2.19052
G1 X32.691 Y6.375 E.31815
G1 X.875 Y38.191 E1.74059
G1 X.875 Y29.967 E.31815
G1 X24.467 Y6.375 E1.29066
G1 X16.243 Y6.375 E.31815
G1 X.875 Y21.743 E.84074
G1 X.875 Y13.519 E.31815
G1 X8.202 Y6.192 E.40083
; stop printing object Cuerpo1 id:4947098641845190655 copy 0
;TIME_ELAPSED:487.847473

;LAYER_CHANGE
;Z:0.733333
;HEIGHT:0.286667
;BEFORE_LAYER_CHANGE
;0.733333
G92 E0

G1 E-1.2 F2400
;WIPE_START
G1 F9000
G1 X6.788 Y7.606
;WIPE_END
;_SET_FAN_SPEED_CHANGING_LAYER
; printing object Cuerpo1 id:4947098641845190655 copy 0
G1 X12.134 Y13.054 Z.847
G1 X209.243 Y213.917 Z.847
G1 Z.733
G1 E1.2 F1800
M204 P2000
;TYPE:Inner wall
;WIDTH:0.449999
G1 F5400
G1 X.583 Y213.917 E9.17788
G1 X.583 Y6.083 E9.14151
G1 X209.417 Y6.083 E9.1855
G1 X209.417 Y6.531 E.01967
G1 X209.492 Y6.81 E.01274
G1 X209.708 Y7.018 E.01317
G1 X209.969 Y7.083 E.01184
G1 X219.417 Y7.083 E.41554
G1 X219.417 Y212.917 E9.05354
G1 X209.969 Y212.917 E.41554
G1 X209.708 Y212.982 E.01184
G1 X209.492 Y213.19 E.01317
G1 X209.417 Y213.469 E.01274
G1 X209.417 Y213.917 E.01967
G1 X209.283 Y213.917 E.00586
G1 X209.79 Y213.469 F9000
M204 P1000
;TYPE:Outer wall
;WIDTH:0.419999
G1 F3600
G1 X209.79 Y214.29 E.03331
G1 X.21 Y214.29 E8.50647
G1 X.21 Y5.71 E8.46589
G1 X209.79 Y5.71 E8.50647
G1 X209.79 Y6.531 E.03331
G1 X209.845 Y6.66 E.00571
G1 X209.969 Y6.71 E.00542
G1 X219.79 Y6.71 E.39861
G1 X219.79 Y213.29 E8.38471
G1 X209.969 Y213.29 E.39861
G1 X209.868 Y213.321 E.0043
G1 X209.809 Y213.434 E.00517
G1 E-1.2 F2400
;WIPE_START
G1 F9000
G1 X209.79 Y214.29
G1 X208.646 Y214.29
;WIPE_END
G1 Z1.133
G1 X219.318 Y13.712
G1 Z1.133
G1 Z.733
G1 E1.2 F1800
M204 P2500
;TYPE:Sparse infill
;WIDTH:0.45
G1 F10800
G1 X212.97 Y7.363 E.39492
G1 X209.905 Y7.363 E.1348
G3 X209.135 Y6.365 I.096 J-.87 E.06189
G1 X203.747 Y6.365 E.23702
G1 X219.135 Y21.753 E.95723
G1 X219.135 Y29.978 E.36174
G1 X195.522 Y6.365 E1.46882
G1 X187.298 Y6.365 E.36174
G1 X219.135 Y38.202 E1.9804
G1 X219.135 Y46.426 E.36174
G1 X179.074 Y6.365 E2.49198
G1 X170.85 Y6.365 E.36174
G1 X219.135 Y54.65 E3.00356
G1 X219.135 Y62.875 E.36174
G1 X162.625 Y6.365 E3.51515
G1 X154.401 Y6.365 E.36174
G1 X219.135 Y71.099 E4.02673
G1 X219.135 Y79.323 E.36174
G1 X146.177 Y6.365 E4.53831
G1 X137.953 Y6.365 E.36174
G1 X219.135 Y87.547 E5.04989
G1 X219.135 Y95.772 E.36174
G1 X129.728 Y6.365 E5.56148
G1 X121.504 Y6.365 E.36174
G1 X219.135 Y103.996 E6.07306
G1 X219.135 Y112.22 E.36174
G1 X113.28 Y6.365 E6.58464
G1 X105.056 Y6.365 E.36174
G1 X219.135 Y120.444 E7.09622
G1 X219.135 Y128.669 E.36174
G1 X96.831 Y6.365 E7.60781
G1 X88.607 Y6.365 E.36174
G1 X219.135 Y136.893 E8.11939
G1 X219.135 Y145.117 E.36174
G1 X80.383 Y6.365 E8.63097
G1 X72.159 Y6.365 E.36174
G1 X219.135 Y153.341 E9.14255
G1 X219.135 Y161.566 E.36174
G1 X63.934 Y6.365 E9.65414
G1 X55.71 Y6.365 E.36174
G1 X219.135 Y169.79 E10.16572
