;TIME:193.60
;Filament used:0.21845m
;Layer height:0.200
; HEADER_BLOCK_START
; generated by Creality_Print V6.1.0.2041 on 2025-04-08 at 23:32:09
; total layer number: 20
; filament_density: 1.24
; filament_diameter: 1.75
; max_z_height: 4.00
; HEADER_BLOCK_END

; MINX = 106.73
; MINY = 97.17
; MINZ = 0.00
; MAXX = 124.91
; MAXY = 114.49
; MAXZ = 4.00

; THUMBNAIL_BLOCK_START

;
; THUMBNAIL_BLOCK_END

; THUMBNAIL_BLOCK_START

;
; THUMBNAIL_BLOCK_END

; external perimeters extrusion width = 0.42mm
; perimeters extrusion width = 0.45mm
; infill extrusion width = 0.45mm
; solid infill extrusion width = 0.42mm
; top infill extrusion width = 0.42mm
; first layer extrusion width = 0.50mm

; EXECUTABLE_BLOCK_START
M73 P0 R3
M201 X5000 Y5000 Z500 E5000
M203 X500 Y500 Z30 E100
M204 P5000 R2500 T5000 ; sets acceleration (P, T) and retract acceleration (R), mm/sec^2
M205 X10.00 Y10.00 Z0.40 E5.00 ; sets the jerk limits, mm/sec
;TYPE:Custom
M220 S100 ;Reset Feedrate 
M221 S100 ;Reset Flowrate 
 
M140 S60 ;Set final bed temp 
G28 ;Home 
 
G92 E0 ;Reset Extruder 
G1 Z2.0 F3000 ;Move Z Axis up 
M104 S205 ;Set final nozzle temp 
G1 X-2.1 Y20 Z0.28 F5000.0 ;Move to start position 
M190 S60 ;Wait for bed temp to stabilize 
M109 S205 ;Wait for nozzle temp to stabilize 
G1 X-2.1 Y145.0 Z0.28 F1500.0 E15 ;Draw the first line 
G1 X-2.4 Y145.0 Z0.28 F5000.0 ;Move to side a little 
M73 P2 R3
M73 P2 R3
G1 X-2.4 Y20 Z0.28 F1500.0 E30 ;Draw the second line 
G92 E0  ;Reset Extruder 
G1 E-1.0000 F1800 ;Retract a bit 
M73 P5 R3
M73 P5 R3
G1 Z2.0 F3000 ;Move Z Axis up 
G1 E0.0000 F1800
G90
G21
M83 ; use relative distances for extrusion
" "
G1 E-1.2 F2400
M106 S0
;LAYER_CHANGE
;Z:0.2
;HEIGHT:0.2
;BEFORE_LAYER_CHANGE
;0.2
G92 E0

;_SET_FAN_SPEED_CHANGING_LAYER
M204 P500
M205 X10 Y10
; printing object Cuerpo1 id:0 copy 0
M204 T500
G1 Z.4 F9000
G1 X104.812 Y95.427
G1 Z.2
M73 P6 R3
M73 P6 R3
G1 E1.2 F1800
;TYPE:Brim
;WIDTH:0.5
G1 X105.011 Y95.231 E.01007
G1 X105.45 Y94.917 E.0195
G1 X105.7 Y94.792 E.01009
G1 X106.201 Y94.633 E.01898
G1 X106.743 Y94.57 E.01971
G1 X124.898 Y94.57 E.65549
G1 X125.168 Y94.591 E.00978
G1 X125.453 Y94.637 E.0104
G1 X125.966 Y94.805 E.0195
G1 X126.214 Y94.932 E.01007
G1 X126.65 Y95.252 E.0195
G1 X126.846 Y95.45 E.01007
G1 X127.16 Y95.89 E.0195
G1 X127.285 Y96.14 E.01009
G1 X127.445 Y96.645 E.01913
G1 X127.487 Y96.918 E.01
G1 X127.507 Y97.178 E.00941
G1 X127.507 Y114.477 E.62458
G1 X127.439 Y115.04 E.02049
G1 X127.272 Y115.55 E.01934
G1 X127.144 Y115.798 E.01007
G1 X126.825 Y116.233 E.0195
G1 X126.626 Y116.429 E.01007
G1 X126.187 Y116.744 E.0195
G1 X125.937 Y116.868 E.01009
G1 X125.432 Y117.029 E.01913
G1 X125.158 Y117.071 E.01
G1 X124.898 Y117.091 E.00941
G1 X116.744 Y117.091 E.29443
G1 X116.18 Y117.022 E.02049
M73 P7 R3
M73 P7 R3
G1 X115.671 Y116.856 E.01934
G1 X115.423 Y116.728 E.01007
G1 X114.99 Y116.41 E.01942
G1 X114.755 Y116.162 E.01234
G1 X114.589 Y116.091 E.00652
G1 X106.744 Y116.091 E.28324
G1 X106.18 Y116.022 E.02049
M73 P7 R2
M73 P7 R2
G1 X105.671 Y115.856 E.01934
G1 X105.423 Y115.728 E.01007
G1 X104.988 Y115.409 E.0195
G1 X104.792 Y115.21 E.01007
G1 X104.477 Y114.771 E.0195
G1 X104.353 Y114.521 E.01009
G1 X104.193 Y114.02 E.01898
G1 X104.13 Y113.478 E.01971
G1 X104.13 Y97.184 E.58831
G1 X104.199 Y96.62 E.02049
G1 X104.365 Y96.111 E.01934
G1 X104.493 Y95.863 E.01007
G1 X104.789 Y95.46 E.01806
G1 X105.158 Y95.732 F9000
G1 F1800
G1 X105.167 Y95.719 E.00058
G1 X105.315 Y95.576 E.00745
G1 X105.678 Y95.316 E.0161
G1 X105.863 Y95.222 E.0075
G1 X106.311 Y95.08 E.01696
G1 X106.778 Y95.027 E.01698
G1 X124.885 Y95.027 E.65379
G1 X125.334 Y95.081 E.01631
M73 P8 R2
M73 P8 R2
G1 X125.779 Y95.225 E.01688
G1 X125.982 Y95.329 E.00823
G1 X126.358 Y95.607 E.01688
G1 X126.501 Y95.755 E.00745
G1 X126.761 Y96.117 E.0161
G1 X126.855 Y96.302 E.0075
G1 X126.995 Y96.739 E.01656
G1 X127.049 Y97.186 E.01624
G1 X127.05 Y114.441 E.62303
G1 X126.992 Y114.928 E.01768
G1 X126.852 Y115.363 E.0165
G1 X126.748 Y115.565 E.00823
G1 X126.47 Y115.941 E.01688
G1 X126.322 Y116.085 E.00745
G1 X125.96 Y116.344 E.0161
G1 X125.775 Y116.439 E.0075
G1 X125.338 Y116.579 E.01656
G1 X124.891 Y116.633 E.01624
G1 X116.78 Y116.634 E.29288
G1 X116.293 Y116.576 E.01768
G1 X115.838 Y116.428 E.01728
G1 X115.656 Y116.332 E.00745
G1 X115.303 Y116.073 E.01579
G1 X115.096 Y115.858 E.01079
G1 X114.922 Y115.736 E.00764
G1 X114.782 Y115.676 E.00551
G1 X114.575 Y115.634 E.00764
G1 X106.763 Y115.633 E.28204
G1 X106.293 Y115.576 E.01709
G1 X105.858 Y115.436 E.0165
G1 X105.656 Y115.332 E.00823
G1 X105.28 Y115.054 E.01688
G1 X105.136 Y114.906 E.00745
G1 X104.877 Y114.543 E.0161
G1 X104.782 Y114.358 E.0075
G1 X104.641 Y113.91 E.01696
G1 X104.587 Y113.443 E.01698
G1 X104.587 Y97.219 E.58578
G1 X104.645 Y96.733 E.01768
M73 P9 R2
M73 P9 R2
G1 X104.785 Y96.298 E.0165
G1 X104.889 Y96.095 E.00823
G1 X105.134 Y95.765 E.01485
G1 X105.46 Y96.074 F9000
G1 F1800
G1 X105.727 Y95.824 E.01321
G1 X105.851 Y95.739 E.00543
G1 X106.115 Y95.607 E.01067
G1 X106.258 Y95.56 E.00544
G1 X106.741 Y95.484 E.01763
G1 X124.896 Y95.484 E.65552
G1 X125.394 Y95.565 E.01822
G1 X125.554 Y95.621 E.00611
G1 X125.874 Y95.798 E.0132
G1 X125.993 Y95.889 E.00543
G1 X126.201 Y96.099 E.01067
G1 X126.29 Y96.22 E.00543
G1 X126.463 Y96.542 E.0132
G1 X126.517 Y96.699 E.00599
G1 X126.593 Y97.18 E.01759
G1 X126.593 Y114.48 E.62461
G1 X126.512 Y114.978 E.01822
G1 X126.456 Y115.137 E.00611
G1 X126.279 Y115.457 E.0132
G1 X126.188 Y115.577 E.00543
G1 X125.978 Y115.785 E.01067
G1 X125.857 Y115.874 E.00543
G1 X125.535 Y116.047 E.0132
G1 X125.378 Y116.101 E.00599
G1 X124.896 Y116.176 E.01759
G1 X116.741 Y116.176 E.29446
G1 X116.243 Y116.096 E.01822
M73 P10 R2
M73 P10 R2
G1 X116.084 Y116.039 E.00611
G1 X115.765 Y115.863 E.01316
G1 X115.634 Y115.761 E.00598
G1 X115.388 Y115.497 E.01305
G1 X115.235 Y115.243 E.0107
G1 X115.118 Y115.176 E.00488
G1 X106.741 Y115.176 E.30244
G1 X106.243 Y115.096 E.01822
G1 X106.084 Y115.039 E.00611
G1 X105.764 Y114.863 E.0132
G1 X105.644 Y114.772 E.00543
G1 X105.436 Y114.562 E.01067
G1 X105.347 Y114.441 E.00543
G1 X105.174 Y114.118 E.0132
G1 X105.12 Y113.962 E.00599
G1 X105.045 Y113.48 E.01759
G1 X105.045 Y97.181 E.5885
G1 X105.125 Y96.683 E.01822
G1 X105.182 Y96.523 E.00611
G1 X105.358 Y96.204 E.01316
G1 X105.435 Y96.105 E.00453
G1 X105.763 Y96.416 F9000
G1 F1800
G1 X106.046 Y96.152 E.01396
G1 X106.328 Y96.011 E.01138
G1 X106.73 Y95.941 E.01473
G1 X124.907 Y95.941 E.6563
G1 X125.323 Y96.016 E.01525
M73 P11 R2
M73 P11 R2
G1 X125.661 Y96.203 E.01396
G1 X125.883 Y96.427 E.01138
G1 X126.066 Y96.768 E.01396
G1 X126.136 Y97.17 E.01473
G1 X126.136 Y114.491 E.62539
G1 X126.061 Y114.907 E.01525
G1 X125.874 Y115.245 E.01396
G1 X125.65 Y115.467 E.01138
G1 X125.309 Y115.649 E.01396
G1 X124.907 Y115.719 E.01473
G1 X116.73 Y115.719 E.29524
G1 X116.314 Y115.644 E.01525
G1 X115.976 Y115.458 E.01396
G1 X115.712 Y115.175 E.01396
G1 X115.485 Y114.719 E.01838
G1 X106.73 Y114.719 E.31611
G1 X106.314 Y114.644 E.01525
G1 X105.976 Y114.458 E.01396
G1 X105.754 Y114.233 E.01138
G1 X105.572 Y113.893 E.01396
G1 X105.502 Y113.491 E.01473
G1 X105.502 Y97.17 E.58929
G1 X105.577 Y96.754 E.01525
M73 P12 R2
M73 P12 R2
G1 X105.744 Y96.451 E.01251
G1 E-1.2 F2400
;WIPE_START
G1 F9000
G1 X106.046 Y96.152
G1 X106.328 Y96.011
G1 X106.73 Y95.941
G1 X107.582 Y95.941
;WIPE_END
G1 X111.325 Y102.593 Z.6
G1 X116.983 Y112.648 Z.6
G1 Z.2
G1 E1.2 F1800
;TYPE:Inner wall
;WIDTH:0.499999
G1 X116.902 Y112.634 E.00299
G1 X107.587 Y112.634 E.3363
G1 X107.587 Y98.027 E.5274
G1 X124.05 Y98.027 E.59441
G1 X124.05 Y113.634 E.5635
M73 P13 R2
M73 P13 R2
G1 X117.587 Y113.634 E.23335
G1 X117.587 Y113.319 E.01135
G1 X117.454 Y112.913 E.01546
G2 X117.136 Y112.683 I-.588 J.477 E.0143
G1 X117.022 Y112.657 E.00423
G1 X117.13 Y113.319 F9000
;TYPE:Outer wall
G1 F1800
G1 X117.04 Y113.138 E.00732
G1 X116.902 Y113.091 E.00528
G1 X107.13 Y113.091 E.35281
G1 X107.13 Y97.57 E.5604
G1 X124.507 Y97.57 E.62741
M73 P14 R2
M73 P14 R2
G1 X124.507 Y114.091 E.59651
G1 X117.13 Y114.091 E.26635
G1 X117.13 Y113.359 E.02641
G1 E-1.2 F2400
;WIPE_START
G1 F9000
G1 X117.04 Y113.138
G1 X116.902 Y113.091
G1 X115.287 Y113.091
;WIPE_END
G1 Z.6
G1 X107.722 Y105.958
M73 P15 R2
M73 P15 R2
G1 Z.6
G1 Z.2
G1 E1.2 F1800
;TYPE:Sparse infill
;WIDTH:0.5
G1 X114.084 Y112.319 E.32484
G1 X117.009 Y112.321 E.10562
G3 X117.716 Y112.729 I-.189 J1.144 E.03012
G1 X117.909 Y113.316 E.02229
G1 X123.304 Y113.316 E.19482
G1 X108.333 Y98.345 E.76446
G1 X116.557 Y98.345 E.29694
G1 X123.915 Y105.703 E.37572
M73 P16 R2
; stop printing object Cuerpo1 id:0 copy 0
;TIME_ELAPSED:31.531662

M106 S255
;LAYER_CHANGE
;Z:0.4
;HEIGHT:0.2
;BEFORE_LAYER_CHANGE
;0.4
G92 E0

M73 P16 R2
G1 E-1.2 F2400
;WIPE_START
G1 F9000
G1 X122.501 Y104.289
;WIPE_END
;_SET_FAN_SPEED_CHANGING_LAYER
M204 P2500
; printing object Cuerpo1 id:0 copy 0
M204 T2500
G1 X118.296 Y110.658 Z.6
G1 X116.814 Y112.904 Z.6
G1 Z.4
G1 E1.2 F1800
M204 P2000
;TYPE:Inner wall
;WIDTH:0.449999
G1 F2051
G1 X116.752 Y112.889 E.00205
G1 X107.332 Y112.889 E.30289
G1 X107.332 Y97.772 E.4861
G1 X124.305 Y97.772 E.54578
G1 X124.305 Y113.889 E.51826
M73 P17 R2
M73 P17 R2
G1 X117.332 Y113.889 E.22422
G1 X117.332 Y113.469 E.01349
G1 X117.262 Y113.193 E.00916
G2 X117.019 Y112.962 I-.541 J.327 E.01092
G1 X116.852 Y112.915 E.00558
G1 X116.94 Y113.469 F9000
M204 P1000
;TYPE:Outer wall
;WIDTH:0.419999
G1 F2051
G1 X116.887 Y113.338 E.00421
G1 X116.752 Y113.281 E.00439
G1 X106.94 Y113.281 E.29225
G1 X106.94 Y97.38 E.47364
G1 X124.697 Y97.38 E.52892
G1 X124.697 Y114.281 E.50342
M73 P18 R2
M73 P18 R2
G1 X116.94 Y114.281 E.23105
G1 X116.94 Y113.509 E.02298
G1 E-1.2 F2400
;WIPE_START
G1 F9000
G1 X116.887 Y113.338
G1 X116.752 Y113.281
G1 X115.078 Y113.281
;WIPE_END
G1 Z.8
G1 X117.023 Y112.85
G1 Z.8
G1 Z.4
G1 E1.2 F1800
M204 P2500
;TYPE:Sparse infill
;WIDTH:0.45
G1 F2051
G1 X124.02 Y105.853 E.3182
G1 X124.02 Y98.057 E.2507
G1 X123.592 Y98.057 E.01376
M73 P19 R2
M73 P19 R2
G1 X109.044 Y112.604 E.66157
G1 X107.617 Y112.604 E.0459
G1 X107.617 Y105.807 E.21854
G1 X115.551 Y97.874 E.3608
; stop printing object Cuerpo1 id:0 copy 0
;TIME_ELAPSED:38.104240

;LAYER_CHANGE
;Z:0.6
;HEIGHT:0.2
;BEFORE_LAYER_CHANGE
;0.6
G92 E0

G1 E-1.2 F2400
;WIPE_START
G1 F9000
G1 X114.137 Y99.288
;WIPE_END
;_SET_FAN_SPEED_CHANGING_LAYER
; printing object Cuerpo1 id:0 copy 0
G1 X115.609 Y106.777 Z.8
G1 X116.814 Y112.904 Z.8
G1 Z.6
G1 E1.2 F1800
M204 P2000
;TYPE:Inner wall
;WIDTH:0.449999
G1 F2112
G1 X116.752 Y112.889 E.00205
G1 X107.332 Y112.889 E.30289
G1 X107.332 Y97.772 E.4861
M73 P20 R2
M73 P20 R2
G1 X124.305 Y97.772 E.54578
G1 X124.305 Y113.889 E.51826
G1 X117.332 Y113.889 E.22422
G1 X117.332 Y113.469 E.01349
G1 X117.262 Y113.193 E.00916
G2 X117.019 Y112.962 I-.541 J.327 E.01092
G1 X116.852 Y112.915 E.00558
G1 X116.94 Y113.469 F9000
M204 P1000
;TYPE:Outer wall
;WIDTH:0.419999
G1 F2112
G1 X116.887 Y113.338 E.00421
G1 X116.752 Y113.281 E.00439
G1 X106.94 Y113.281 E.29225
G1 X106.94 Y97.38 E.47364
M73 P21 R2
M73 P21 R2
G1 X124.697 Y97.38 E.52892
G1 X124.697 Y114.281 E.50342
G1 X116.94 Y114.281 E.23105
G1 X116.94 Y113.509 E.02298
G1 E-1.2 F2400
;WIPE_START
G1 F9000
G1 X116.887 Y113.338
G1 X116.752 Y113.281
G1 X115.078 Y113.281
;WIPE_END
G1 Z1
M73 P22 R2
M73 P22 R2
G1 X107.434 Y105.67
G1 Z1
G1 Z.6
G1 E1.2 F1800
M204 P2500
;TYPE:Sparse infill
;WIDTH:0.45
G1 F2112
G1 X114.371 Y112.607 E.31547
G1 X116.842 Y112.608 E.07947
G3 X117.617 Y113.604 I-.158 J.922 E.04452
G1 X123.592 Y113.604 E.19213
G1 X108.045 Y98.057 E.70701
G1 X116.269 Y98.057 E.26446
G1 X124.203 Y105.991 E.3608
; stop printing object Cuerpo1 id:0 copy 0
;TIME_ELAPSED:44.666332

;LAYER_CHANGE
;Z:0.8
;HEIGHT:0.2
;BEFORE_LAYER_CHANGE
;0.8
G92 E0

G1 E-1.2 F2400
M73 P23 R2
;WIPE_START
M73 P23 R2
G1 F9000
G1 X122.789 Y104.576
;WIPE_END
;_SET_FAN_SPEED_CHANGING_LAYER
; printing object Cuerpo1 id:0 copy 0
G1 X118.339 Y110.778 Z1
G1 X116.814 Y112.904 Z1
G1 Z.8
G1 E1.2 F1800
M204 P2000
;TYPE:Inner wall
;WIDTH:0.449999
G1 F2051
G1 X116.752 Y112.889 E.00205
G1 X107.332 Y112.889 E.30289
G1 X107.332 Y97.772 E.4861
G1 X124.305 Y97.772 E.54578
G1 X124.305 Y113.889 E.51826
G1 X117.332 Y113.889 E.22422
M73 P24 R2
M73 P24 R2
G1 X117.332 Y113.469 E.01349
G1 X117.262 Y113.193 E.00916
G2 X117.019 Y112.962 I-.541 J.327 E.01092
G1 X116.852 Y112.915 E.00558
G1 X116.94 Y113.469 F9000
M204 P1000
;TYPE:Outer wall
;WIDTH:0.419999
G1 F2051
G1 X116.887 Y113.338 E.00421
G1 X116.752 Y113.281 E.00439
G1 X106.94 Y113.281 E.29225
G1 X106.94 Y97.38 E.47364
G1 X124.697 Y97.38 E.52892
G1 X124.697 Y114.281 E.50342
G1 X116.94 Y114.281 E.23105
M73 P25 R2
M73 P25 R2
G1 X116.94 Y113.509 E.02298
G1 E-1.2 F2400
;WIPE_START
G1 F9000
G1 X116.887 Y113.338
G1 X116.752 Y113.281
G1 X115.078 Y113.281
;WIPE_END
G1 Z1.2
G1 X117.023 Y112.85
G1 Z1.2
G1 Z.8
G1 E1.2 F1800
M204 P2500
;TYPE:Sparse infill
;WIDTH:0.45
G1 F2051
G1 X124.02 Y105.853 E.3182
G1 X124.02 Y98.057 E.2507
G1 X123.592 Y98.057 E.01376
G1 X109.044 Y112.604 E.66157
G1 X107.617 Y112.604 E.0459
M73 P26 R2
M73 P26 R2
G1 X107.617 Y105.807 E.21854
G1 X115.551 Y97.874 E.3608
; stop printing object Cuerpo1 id:0 copy 0
;TIME_ELAPSED:51.190315

;LAYER_CHANGE
;Z:1
;HEIGHT:0.2
;BEFORE_LAYER_CHANGE
;1
G92 E0

G1 E-1.2 F2400
;WIPE_START
G1 F9000
G1 X114.137 Y99.288
;WIPE_END
;_SET_FAN_SPEED_CHANGING_LAYER
; printing object Cuerpo1 id:0 copy 0
G1 X115.609 Y106.777 Z1.2
G1 X116.814 Y112.904 Z1.2
G1 Z1
G1 E1.2 F1800
M204 P2000
;TYPE:Inner wall
;WIDTH:0.449999
G1 F2112
G1 X116.752 Y112.889 E.00205
G1 X107.332 Y112.889 E.30289
G1 X107.332 Y97.772 E.4861
G1 X124.305 Y97.772 E.54578
M73 P27 R2
M73 P27 R2
G1 X124.305 Y113.889 E.51826
G1 X117.332 Y113.889 E.22422
G1 X117.332 Y113.469 E.01349
G1 X117.262 Y113.193 E.00916
G2 X117.019 Y112.962 I-.541 J.327 E.01092
G1 X116.852 Y112.915 E.00558
G1 X116.94 Y113.469 F9000
M204 P1000
;TYPE:Outer wall
;WIDTH:0.419999
G1 F2112
G1 X116.887 Y113.338 E.00421
G1 X116.752 Y113.281 E.00439
G1 X106.94 Y113.281 E.29225
G1 X106.94 Y97.38 E.47364
G1 X124.697 Y97.38 E.52892
M73 P28 R2
M73 P28 R2
G1 X124.697 Y114.281 E.50342
G1 X116.94 Y114.281 E.23105
G1 X116.94 Y113.509 E.02298
G1 E-1.2 F2400
;WIPE_START
G1 F9000
G1 X116.887 Y113.338
G1 X116.752 Y113.281
G1 X115.078 Y113.281
;WIPE_END
G1 Z1.4
G1 X107.434 Y105.67
G1 Z1.4
G1 Z1
G1 E1.2 F1800
M204 P2500
;TYPE:Sparse infill
;WIDTH:0.45
G1 F2112
G1 X114.371 Y112.607 E.31547
G1 X116.842 Y112.608 E.07947
M73 P29 R2
M73 P29 R2
G3 X117.617 Y113.604 I-.158 J.922 E.04452
G1 X123.592 Y113.604 E.19213
G1 X108.045 Y98.057 E.70701
G1 X116.269 Y98.057 E.26446
G1 X124.203 Y105.991 E.3608
; stop printing object Cuerpo1 id:0 copy 0
;TIME_ELAPSED:57.752407

;LAYER_CHANGE
;Z:1.2
;HEIGHT:0.2
;BEFORE_LAYER_CHANGE
;1.2
G92 E0

G1 E-1.2 F2400
;WIPE_START
G1 F9000
G1 X122.789 Y104.576
;WIPE_END
;_SET_FAN_SPEED_CHANGING_LAYER
; printing object Cuerpo1 id:0 copy 0
G1 X118.339 Y110.778 Z1.4
G1 X116.814 Y112.904 Z1.4
G1 Z1.2
G1 E1.2 F1800
M204 P2000
;TYPE:Inner wall
;WIDTH:0.449999
G1 F2237
M73 P30 R2
M73 P30 R2
G1 X116.752 Y112.889 E.00205
G1 X107.332 Y112.889 E.30289
G1 X107.332 Y97.772 E.4861
G1 X124.305 Y97.772 E.54578
G1 X124.305 Y113.889 E.51826
G1 X117.332 Y113.889 E.22422
G1 X117.332 Y113.469 E.01349
G1 X117.262 Y113.193 E.00916
G2 X117.019 Y112.962 I-.541 J.327 E.01092
G1 X116.852 Y112.915 E.00558
G1 X116.94 Y113.469 F9000
M204 P1000
;TYPE:Outer wall
;WIDTH:0.419999
G1 F2237
G1 X116.887 Y113.338 E.00421
G1 X116.752 Y113.281 E.00439
G1 X106.94 Y113.281 E.29225
G1 X106.94 Y97.38 E.47364
M73 P31 R2
M73 P31 R2
G1 X124.697 Y97.38 E.52892
G1 X124.697 Y114.281 E.50342
G1 X116.94 Y114.281 E.23105
G1 X116.94 Y113.509 E.02298
G1 E-1.2 F2400
;WIPE_START
G1 F9000
M73 P32 R2
M73 P32 R2
G1 X116.887 Y113.338
G1 X116.752 Y113.281
G1 X115.078 Y113.281
;WIPE_END
G1 Z1.6
G1 X117.302 Y112.571
G1 Z1.6
G1 Z1.2
G1 E1.2 F1800
M204 P2500
;TYPE:Sparse infill
;WIDTH:0.45
G1 F2237
G1 X124.02 Y105.853 E.30553
G1 X124.02 Y98.057 E.2507
G1 X123.592 Y98.057 E.01376
G1 X109.421 Y112.228 E.64443
G1 X107.994 Y112.227 E.04589
G1 X107.994 Y107.991 E.1362
G1 X107.617 Y107.614 E.01715
G1 X107.617 Y105.808 E.0581
