;TIME:952.07
;Filament used:1.02641m
;Layer height:0.200
; HEADER_BLOCK_START
; generated by Creality_Print V6.0.5.1840 on 2025-03-28 at 09:55:35
; total layer number: 50
; filament_density: 1.24
; filament_diameter: 1.75
; max_z_height: 10.00
; HEADER_BLOCK_END

; MINX = 56.22
; MINY = 43.25
; MINZ = 0.00
; MAXX = 76.22
; MAXY = 82.25
; MAXZ = 10.02

; THUMBNAIL_BLOCK_START

;
; THUMBNAIL_BLOCK_END

; THUMBNAIL_BLOCK_START

;
; THUMBNAIL_BLOCK_END

; external perimeters extrusion width = 0.42mm
; perimeters extrusion width = 0.45mm
; infill extrusion width = 0.45mm
; solid infill extrusion width = 0.42mm
; top infill extrusion width = 0.42mm
; first layer extrusion width = 0.50mm

; EXECUTABLE_BLOCK_START
M73 P0 R15
M201 X5000 Y5000 Z500 E5000
M203 X500 Y500 Z30 E100
M204 P5000 R2500 T5000 ; sets acceleration (P, T) and retract acceleration (R), mm/sec^2
M205 X10.00 Y10.00 Z0.40 E5.00 ; sets the jerk limits, mm/sec
;TYPE:Custom
M220 S100 ;Reset Feedrate 
M221 S100 ;Reset Flowrate 
 
M140 S60 ;Set final bed temp 
G28 ;Home 
 
G92 E0 ;Reset Extruder 
G1 Z2.0 F3000 ;Move Z Axis up 
M104 S205 ;Set final nozzle temp 
G1 X-2.1 Y20 Z0.28 F5000.0 ;Move to start position 
M190 S60 ;Wait for bed temp to stabilize 
M109 S205 ;Wait for nozzle temp to stabilize 
G1 X-2.1 Y145.0 Z0.28 F1500.0 E15 ;Draw the first line 
G1 X-2.4 Y145.0 Z0.28 F5000.0 ;Move to side a little 
G1 X-2.4 Y20 Z0.28 F1500.0 E30 ;Draw the second line 
G92 E0  ;Reset Extruder 
G1 E-1.0000 F1800 ;Retract a bit 
M73 P1 R15
M73 P1 R15
G1 Z2.0 F3000 ;Move Z Axis up 
G1 E0.0000 F1800
G90
G21
M83 ; use relative distances for extrusion
" "
G1 E-1.2 F2400
M106 S0
;LAYER_CHANGE
;Z:0.2
;HEIGHT:0.2
;BEFORE_LAYER_CHANGE
;0.2
G92 E0

;_SET_FAN_SPEED_CHANGING_LAYER
M204 P500
M205 X10 Y10
M204 T500
G1 Z.4 F9000
G1 X40.087 Y32.618
G1 Z.2
G1 E1.2 F1800
;TYPE:Skirt
;WIDTH:0.5
G1 F3000
G1 X42.516 Y29.633 E.13894
G1 X45.793 Y26.921 E.15359
G1 X49.427 Y24.959 E.14912
G1 X53.371 Y23.732 E.14912
G1 X57.716 Y23.286 E.15771
G1 X74.716 Y23.286 E.6138
G1 X78.826 Y23.685 E.14912
G1 X82.784 Y24.867 E.14912
G1 X86.439 Y26.789 E.14912
G1 X89.827 Y29.545 E.15771
G1 X92.54 Y32.822 E.15359
G1 X94.502 Y36.456 E.14912
G1 X95.729 Y40.4 E.14912
G1 X96.175 Y44.745 E.15771
G1 X96.175 Y51.745 E.25274
G1 X96.014 Y54.364 E.09473
G1 X92.252 Y84.836 E1.10858
G1 X91.352 Y88.867 E.14912
G1 X89.694 Y92.649 E.14912
G1 X87.339 Y96.042 E.14912
G1 X84.375 Y98.919 E.14912
G1 X80.914 Y101.172 E.14912
G1 X77.084 Y102.717 E.14912
G1 X71.13 Y103.588 E.21726
G1 X64.366 Y103.616 E.24421
G1 X60.254 Y103.234 E.14912
G1 X55.067 Y101.53 E.19711
G1 X52.18 Y100.151 E.11555
G1 X48.642 Y98.019 E.14912
G1 X45.581 Y95.247 E.14912
G1 X43.11 Y91.937 E.14912
G1 X41.322 Y88.214 E.14912
G1 X40.195 Y83.604 E.17136
G1 X36.433 Y54.483 E1.06017
G1 X36.257 Y51.745 E.09907
G1 X36.257 Y44.745 E.25274
G1 X36.656 Y40.634 E.14912
G1 X37.838 Y36.677 E.14912
G1 X39.759 Y33.021 E.14912
G1 X40.062 Y32.649 E.01732
G1 X40.404 Y32.93 F9000
G1 F3000
G1 X42.839 Y29.957 E.13875
G1 X46.084 Y27.276 E.15198
G1 X49.686 Y25.346 E.14751
G1 X53.593 Y24.153 E.14751
G1 X57.716 Y23.743 E.14959
G1 X74.716 Y23.743 E.6138
G1 X78.782 Y24.142 E.14751
G1 X82.693 Y25.324 E.14751
G1 X86.299 Y27.244 E.14751
G1 X89.504 Y29.869 E.14959
G1 X92.185 Y33.114 E.15198
G1 X94.115 Y36.715 E.14751
G1 X95.307 Y40.622 E.14751
G1 X95.718 Y44.745 E.14959
G1 X95.718 Y51.745 E.25274
G1 X95.56 Y54.308 E.0927
G1 X91.798 Y84.78 E1.10858
G1 X90.904 Y88.766 E.14751
G1 X89.252 Y92.503 E.14751
G1 X86.904 Y95.847 E.14751
G1 X83.952 Y98.671 E.14751
G1 X80.507 Y100.867 E.14751
G1 X76.701 Y102.351 E.14751
G1 X71.128 Y103.131 E.20317
G1 X64.364 Y103.159 E.24421
M73 P2 R15
M73 P2 R15
G1 X60.297 Y102.777 E.14751
G1 X55.264 Y101.117 E.19132
G1 X52.377 Y99.738 E.11555
G1 X48.88 Y97.626 E.14751
G1 X45.86 Y94.874 E.14751
G1 X43.433 Y91.587 E.14751
G1 X41.691 Y87.892 E.14751
G1 X40.648 Y83.546 E.16137
G1 X36.886 Y54.425 E1.06017
G1 X36.714 Y51.745 E.09695
G1 X36.714 Y44.745 E.25274
G1 X37.113 Y40.679 E.14751
G1 X38.295 Y36.768 E.14751
G1 X40.214 Y33.162 E.14751
G1 X40.379 Y32.961 E.00939
G1 X40.72 Y33.242 F9000
G1 F3000
G1 X43.162 Y30.28 E.13861
G1 X46.376 Y27.631 E.15036
G1 X49.943 Y25.734 E.14589
G1 X53.814 Y24.576 E.14589
G1 X57.716 Y24.2 E.14152
G1 X74.716 Y24.2 E.6138
G1 X78.736 Y24.599 E.14589
G1 X82.6 Y25.781 E.14589
G1 X86.157 Y27.699 E.14589
G1 X89.269 Y30.28 E.14599
G1 X91.83 Y33.405 E.14589
G1 X93.727 Y36.973 E.14589
G1 X94.885 Y40.844 E.14589
G1 X95.261 Y44.745 E.14152
G1 X95.261 Y51.745 E.25274
G1 X95.107 Y54.252 E.09068
G1 X91.344 Y84.724 E1.10858
G1 X90.456 Y88.665 E.14589
G1 X88.81 Y92.355 E.14589
G1 X86.47 Y95.65 E.14589
G1 X83.529 Y98.42 E.14589
G1 X80.101 Y100.559 E.14589
G1 X76.319 Y101.982 E.14589
G1 X71.126 Y102.674 E.18917
G1 X64.362 Y102.702 E.24421
G1 X60.34 Y102.32 E.14589
G1 X55.461 Y100.705 E.18554
G1 X52.574 Y99.326 E.11555
G1 X49.117 Y97.233 E.14589
G1 X46.14 Y94.501 E.14589
G1 X43.757 Y91.238 E.14589
G1 X42.063 Y87.57 E.14589
G1 X41.102 Y83.487 E.15145
G1 X37.339 Y54.366 E1.06017
G1 X37.171 Y51.745 E.09483
G1 X37.171 Y44.745 E.25274
G1 X37.57 Y40.724 E.14589
G1 X38.751 Y36.861 E.14589
G1 X40.669 Y33.304 E.14589
G1 X40.695 Y33.273 E.00146
; printing object Cuerpo5 id:4949717742956798048 copy 0
G1 E-1.2 F2400
;WIPE_START
G1 F9000
G1 X41.967 Y31.73
;WIPE_END
G1 X47.594 Y36.887 Z.6
G1 X68.187 Y55.759 Z.6
G1 Z.2
G1 E1.2 F1800
;TYPE:Inner wall
;WIDTH:0.499999
G1 X68.673 Y55.77 E.01758
G1 X67.394 Y56.001 E.04695
G1 X66.969 Y56.154 E.0163
G1 X66.769 Y56.398 E.01137
G1 X66.7 Y56.699 E.01117
G1 X66.7 Y58.063 E.04924
G1 X66.763 Y58.351 E.01063
G1 X66.969 Y58.608 E.01192
G1 X67.264 Y58.738 E.01162
G1 X67.374 Y58.749 E.00399
G1 X68.675 Y58.77 E.04698
G1 X67.394 Y59.001 E.04698
G1 X66.969 Y59.154 E.01631
G1 X66.769 Y59.398 E.01137
G1 X66.7 Y59.699 E.01117
G1 X66.7 Y61.063 E.04924
G1 X66.763 Y61.351 E.01063
G1 X66.969 Y61.608 E.01191
G1 X67.264 Y61.738 E.01162
G1 X67.374 Y61.749 E.00399
G1 X68.675 Y61.77 E.04698
G1 X67.394 Y62.001 E.04698
G1 X66.969 Y62.154 E.01631
G1 X66.769 Y62.398 E.01137
G1 X66.7 Y62.699 E.01117
G1 X66.7 Y64.063 E.04923
G1 X66.763 Y64.351 E.01063
G1 X66.969 Y64.608 E.0119
G1 X67.261 Y64.737 E.01154
G1 X67.371 Y64.748 E.00399
G1 X68.635 Y64.775 E.04564
G1 X67.392 Y65.004 E.04564
G1 X66.969 Y65.157 E.01623
G1 X66.77 Y65.4 E.01133
G1 X66.7 Y65.702 E.0112
G1 X66.7 Y67.063 E.04913
G1 X66.763 Y67.351 E.01063
G1 X66.969 Y67.608 E.01192
G1 X67.264 Y67.738 E.01162
G1 X68.675 Y67.77 E.05097
G1 X67.394 Y68.001 E.04699
G1 X66.969 Y68.154 E.01631
G1 X66.77 Y68.398 E.01137
G1 X66.7 Y68.699 E.01117
G1 X66.7 Y70.063 E.04924
G1 X66.763 Y70.351 E.01063
G1 X66.969 Y70.608 E.01192
G1 X67.264 Y70.738 E.01162
G1 X67.374 Y70.749 E.00399
G1 X68.675 Y70.77 E.04698
G1 X67.394 Y71.001 E.04698
G1 X66.969 Y71.154 E.01631
G1 X66.77 Y71.398 E.01137
G1 X66.7 Y71.699 E.01117
G1 X66.7 Y73.063 E.04924
G1 X66.763 Y73.351 E.01063
G1 X66.969 Y73.608 E.0119
G1 X67.261 Y73.737 E.01153
G1 X67.374 Y73.749 E.00409
G1 X68.659 Y73.77 E.04641
G1 X67.395 Y74.003 E.04641
G1 X66.969 Y74.157 E.01636
G1 X66.77 Y74.4 E.01133
G1 X66.7 Y74.702 E.0112
G1 X66.7 Y76.063 E.04913
G1 X66.763 Y76.351 E.01063
G1 X66.969 Y76.608 E.01192
G1 X67.264 Y76.738 E.01162
G1 X68.675 Y76.77 E.05095
G1 X67.394 Y77.001 E.04698
G1 X66.969 Y77.154 E.01631
M73 P3 R15
M73 P3 R15
G1 X66.77 Y77.398 E.01138
G1 X66.7 Y77.699 E.01117
G1 X66.7 Y79.063 E.04924
G1 X66.763 Y79.351 E.01065
G1 X66.97 Y79.608 E.01191
G1 X67.263 Y79.738 E.01155
G1 X68.664 Y79.77 E.05063
G1 X67.395 Y80.004 E.0466
G1 X66.97 Y80.158 E.01632
G1 X66.771 Y80.401 E.01132
G1 X66.703 Y80.743 E.0126
G1 X66.729 Y81.538 E.02873
G1 X66.137 Y81.49 E.02145
G1 X65.585 Y81.538 E.01999
G1 X65.676 Y81.039 E.01832
G1 X65.62 Y80.704 E.01228
G1 X65.423 Y80.446 E.0117
G1 X65.16 Y80.315 E.01062
G1 X63.722 Y80.231 E.05199
G1 X65.007 Y79.993 E.04717
G1 X65.442 Y79.849 E.01655
G1 X65.664 Y79.586 E.01243
G1 X65.732 Y79.289 E.011
G1 X65.732 Y77.925 E.04925
G1 X65.669 Y77.637 E.01062
G1 X65.463 Y77.38 E.01189
G1 X65.17 Y77.25 E.01156
G1 X65.057 Y77.239 E.00411
G1 X63.779 Y77.219 E.04613
G1 X65.036 Y76.988 E.04613
G1 X65.463 Y76.833 E.0164
G1 X65.665 Y76.585 E.01156
G1 X65.732 Y76.289 E.01095
G1 X65.732 Y74.925 E.04925
G1 X65.669 Y74.638 E.0106
G1 X65.463 Y74.381 E.01189
G1 X65.172 Y74.251 E.01152
G1 X63.792 Y74.219 E.04984
G1 X65.036 Y73.987 E.04569
G1 X65.463 Y73.832 E.01642
G1 X65.664 Y73.585 E.0115
G1 X65.732 Y73.288 E.01099
G1 X65.732 Y71.925 E.04922
G1 X65.669 Y71.637 E.01062
G1 X65.463 Y71.38 E.01189
G1 X65.17 Y71.25 E.01156
G1 X63.778 Y71.219 E.05027
G1 X65.036 Y70.988 E.04617
G1 X65.463 Y70.833 E.0164
G1 X65.665 Y70.585 E.01156
G1 X65.732 Y70.289 E.01095
G1 X65.732 Y68.926 E.04923
G1 X65.668 Y68.638 E.01063
G1 X65.463 Y68.381 E.01188
G1 X65.17 Y68.251 E.01155
G1 X63.776 Y68.22 E.05034
G1 X65.036 Y67.988 E.04624
G1 X65.463 Y67.833 E.01638
G1 X65.665 Y67.585 E.01156
G1 X65.732 Y67.289 E.01096
G1 X65.732 Y65.925 E.04925
G1 X65.669 Y65.638 E.0106
G1 X65.463 Y65.381 E.01189
G1 X65.172 Y65.251 E.01152
G1 X65.057 Y65.239 E.00418
G1 X63.793 Y65.219 E.04563
G1 X65.035 Y64.987 E.04563
G1 X65.463 Y64.832 E.01643
G1 X65.664 Y64.585 E.0115
G1 X65.732 Y64.288 E.01099
G1 X65.732 Y62.926 E.04919
G1 X65.668 Y62.638 E.01063
G1 X65.463 Y62.381 E.01189
G1 X65.17 Y62.251 E.01156
G1 X63.788 Y62.217 E.04992
G1 X65.038 Y61.988 E.04588
G1 X65.463 Y61.834 E.01632
G1 X65.665 Y61.585 E.01157
G1 X65.732 Y61.289 E.01095
G1 X65.732 Y59.925 E.04926
G1 X65.669 Y59.637 E.01062
G1 X65.463 Y59.38 E.01189
G1 X65.17 Y59.25 E.01156
G1 X63.779 Y59.219 E.05025
G1 X65.036 Y58.988 E.04615
G1 X65.463 Y58.833 E.0164
G1 X65.664 Y58.585 E.01156
G1 X65.732 Y58.289 E.01096
G1 X65.732 Y56.926 E.04923
G1 X65.668 Y56.638 E.01064
G1 X65.463 Y56.381 E.01188
G1 X65.17 Y56.251 E.01155
G1 X63.778 Y56.22 E.05027
G1 X65.036 Y55.988 E.04617
G1 X65.463 Y55.834 E.01638
G1 X65.596 Y55.698 E.00688
G1 X65.712 Y55.452 E.0098
G1 X65.732 Y55.06 E.0142
G1 X65.732 Y53.765 E.04673
;WIDTH:0.545788
G1 X65.507 Y53.567 E.0119
;WIDTH:0.591576
G1 X65.282 Y53.369 E.01299
;WIDTH:0.637364
G1 X65.058 Y53.171 E.01407
G1 X65.438 Y53.147 E.01788
;WIDTH:0.591576
G1 X65.818 Y53.124 E.0165
;WIDTH:0.545788
G1 X66.198 Y53.101 E.01512
;WIDTH:0.499999
G1 X66.737 Y53.082 E.01948
;WIDTH:0.461507
G1 X67.276 Y53.062 E.01784
G1 X66.991 Y53.355 E.01353
;WIDTH:0.499999
G1 X66.705 Y53.648 E.01477
G2 X66.699 Y55.061 I19.582 J.791 E.05103
G1 X66.762 Y55.351 E.01071
G1 X66.969 Y55.608 E.01192
G1 X67.264 Y55.738 E.01162
G1 X68.147 Y55.758 E.0319
G1 E-1.2 F2400
;WIPE_START
G1 F9000
G1 X68.673 Y55.77
G1 X67.394 Y56.001
G1 X67.231 Y56.06
;WIPE_END
G1 X67.321 Y63.692 Z.6
G1 X67.538 Y82.068 Z.6
G1 Z.2
G1 E1.2 F1800
;TYPE:Outer wall
;WIDTH:0.38292
G3 X70.55 Y82.157 I.402 J37.246 E.08097
G1 E-1.2 F2400
;WIPE_START
G1 F9000
G1 X69.069 Y82.083
G1 X68.552 Y82.078
;WIPE_END
G1 X68.219 Y74.452 Z.6
G1 X67.381 Y55.292 Z.6
G1 Z.2
G1 E1.2 F1800
;WIDTH:0.499999
G1 X69.053 Y55.32 E.06038
G1 X70.641 Y55.48 E.05764
G1 X70.641 Y55.805 E.01172
G1 X70.493 Y55.838 E.00551
G3 X67.271 Y56.488 I-9.363 J-38.114 E.11869
G1 X67.18 Y56.599 E.00519
G1 X67.157 Y56.926 E.01183
G1 X67.157 Y58.097 E.04229
G1 X67.247 Y58.245 E.00625
G1 X67.381 Y58.292 E.00515
G1 X69.055 Y58.32 E.06042
G1 X70.641 Y58.48 E.05759
G1 X70.641 Y58.805 E.01173
G1 X70.493 Y58.838 E.00551
G3 X67.271 Y59.488 I-9.355 J-38.077 E.11869
G1 X67.18 Y59.599 E.00519
G1 X67.157 Y59.925 E.01179
G1 X67.157 Y61.097 E.04232
G1 X67.247 Y61.245 E.00625
G1 X67.381 Y61.292 E.00515
G1 X69.053 Y61.32 E.06035
G1 X70.641 Y61.48 E.05766
G1 X70.641 Y61.806 E.01175
G1 X70.492 Y61.839 E.00552
G3 X67.271 Y62.488 I-9.435 J-38.525 E.11866
G1 X67.18 Y62.599 E.00519
G1 X67.157 Y62.926 E.01183
G1 X67.157 Y64.097 E.04228
G1 X67.247 Y64.245 E.00624
G1 X67.381 Y64.291 E.00512
G1 X69.151 Y64.329 E.06396
G1 X70.642 Y64.481 E.05408
G1 X70.642 Y64.806 E.01173
G1 X70.493 Y64.84 E.00552
G3 X67.271 Y65.491 I-10.233 J-42.325 E.1187
G1 X67.18 Y65.601 E.00517
G1 X67.157 Y65.925 E.0117
G1 X67.157 Y67.097 E.04232
G1 X67.247 Y67.245 E.00625
G1 X67.382 Y67.292 E.00515
G1 X69.053 Y67.32 E.06035
G1 X70.641 Y67.48 E.05765
G1 X70.641 Y67.805 E.01171
G1 X70.493 Y67.838 E.0055
G3 X67.271 Y68.488 I-9.312 J-37.866 E.11869
G1 X67.18 Y68.599 E.00519
G1 X67.157 Y68.926 E.01183
G1 X67.157 Y70.097 E.04229
G1 X67.247 Y70.245 E.00625
G1 X67.382 Y70.292 E.00515
G1 X69.054 Y70.32 E.06041
G1 X70.641 Y70.48 E.05759
G1 X70.641 Y70.805 E.01172
G1 X70.493 Y70.838 E.0055
G3 X67.271 Y71.488 I-9.318 J-37.901 E.11868
G1 X67.18 Y71.599 E.00519
G1 X67.157 Y71.925 E.0118
G1 X67.157 Y73.097 E.04232
G1 X67.247 Y73.245 E.00624
G1 X67.382 Y73.292 E.00516
G1 X69.054 Y73.32 E.06038
G1 X70.641 Y73.48 E.05762
G1 X70.641 Y73.804 E.0117
G1 X70.493 Y73.838 E.00549
G3 X67.271 Y74.491 I-10.055 J-41.318 E.11873
G1 X67.18 Y74.601 E.00516
G1 X67.157 Y74.925 E.01171
G1 X67.157 Y76.097 E.04231
G1 X67.247 Y76.245 E.00625
G1 X67.382 Y76.292 E.00515
G1 X69.055 Y76.32 E.06042
G1 X70.641 Y76.48 E.05758
G1 X70.641 Y76.805 E.01172
G1 X70.493 Y76.838 E.0055
G3 X67.271 Y77.487 I-9.307 J-37.852 E.11868
G1 X67.18 Y77.599 E.00519
G1 X67.157 Y77.925 E.0118
G1 X67.157 Y79.097 E.04232
G1 X67.247 Y79.245 E.00625
G1 X67.382 Y79.292 E.00515
G1 X69.054 Y79.32 E.06037
G1 X70.641 Y79.48 E.05763
G1 X70.641 Y79.805 E.01172
G3 X67.346 Y80.478 I-10.275 J-41.914 E.12149
G1 X67.204 Y80.567 E.00604
G1 X67.159 Y80.716 E.00564
G1 X67.204 Y81.493 E.0281
G1 X67.347 Y81.967 E.01787
;WIDTH:0.455782
G1 X67.442 Y82.017 E.00351
;WIDTH:0.419351
G1 X67.538 Y82.068 E.0032
G1 X67.421 Y82.045 E.00352
;WIDTH:0.455782
G1 X67.305 Y82.023 E.00386
;WIDTH:0.499999
G3 X66.233 Y81.945 I.566 J-15.239 E.0388
G3 X65.145 Y81.995 I-.805 J-5.608 E.03941
G1 X65.161 Y81.92 E.00277
G3 X65.126 Y81.506 I1.754 J-.36 E.01503
G1 X65.221 Y80.967 E.01979
G1 X65.136 Y80.802 E.00669
G1 X65.004 Y80.752 E.0051
G3 X61.79 Y80.51 I.793 J-32.001 E.11643
G1 X61.79 Y80.185 E.01174
G1 X61.939 Y80.151 E.00551
G3 X65.157 Y79.501 I10.28 J42.555 E.11855
G1 X65.252 Y79.388 E.00534
G1 X65.275 Y79.063 E.01175
G1 X65.275 Y77.888 E.04243
G1 X65.185 Y77.743 E.00614
G1 X65.05 Y77.696 E.00517
G1 X63.376 Y77.67 E.06045
G1 X61.79 Y77.507 E.05757
G1 X61.79 Y77.184 E.01169
G1 X61.938 Y77.15 E.0055
G3 X65.161 Y76.5 I10.155 J42.032 E.11873
G1 X65.252 Y76.388 E.00524
G1 X65.275 Y76.063 E.01175
G1 X65.275 Y74.889 E.04241
G1 X65.185 Y74.744 E.00615
G1 X65.05 Y74.697 E.00518
G1 X63.375 Y74.67 E.06048
G1 X61.79 Y74.508 E.05752
G1 X61.79 Y74.185 E.01166
G1 X61.938 Y74.152 E.00548
G3 X65.161 Y73.499 I10.636 J44.255 E.11875
G1 X65.252 Y73.387 E.00521
M73 P4 R15
M73 P4 R15
G1 X65.275 Y73.063 E.01172
G1 X65.275 Y71.888 E.04243
G1 X65.185 Y71.743 E.00614
G1 X65.05 Y71.696 E.00517
G1 X63.374 Y71.67 E.06051
G1 X61.79 Y71.509 E.05749
G1 X61.79 Y71.185 E.0117
G1 X61.939 Y71.151 E.0055
G3 X65.161 Y70.5 I9.998 J41.196 E.11872
G1 X65.252 Y70.388 E.00524
G1 X65.275 Y70.063 E.01175
G1 X65.275 Y68.889 E.04241
G1 X65.185 Y68.744 E.00614
G1 X65.05 Y68.697 E.00517
G1 X63.374 Y68.67 E.06051
G1 X61.79 Y68.509 E.05749
G1 X61.79 Y68.184 E.01171
G1 X61.939 Y68.151 E.0055
G3 X65.161 Y67.5 I10.028 J41.338 E.11872
G1 X65.252 Y67.388 E.00524
G1 X65.275 Y67.063 E.01174
G1 X65.275 Y65.888 E.04242
G1 X65.185 Y65.743 E.00615
G1 X65.05 Y65.696 E.00518
G1 X63.375 Y65.67 E.06048
G1 X61.79 Y65.508 E.05751
G1 X61.79 Y65.185 E.01166
G1 X61.938 Y65.152 E.00548
G3 X65.161 Y64.499 I10.77 J44.893 E.11875
G1 X65.252 Y64.387 E.00521
G1 X65.275 Y64.063 E.01173
G1 X65.275 Y62.889 E.0424
G1 X65.185 Y62.744 E.00614
G1 X65.05 Y62.697 E.00515
G1 X63.331 Y62.666 E.06209
G1 X61.79 Y62.507 E.05594
G1 X61.79 Y62.183 E.01167
G1 X61.938 Y62.15 E.00549
G3 X65.161 Y61.5 I10.057 J41.576 E.11873
G1 X65.252 Y61.388 E.00524
G1 X65.275 Y61.063 E.01175
G1 X65.275 Y59.888 E.04243
G1 X65.185 Y59.743 E.00614
G1 X65.05 Y59.696 E.00517
G1 X63.374 Y59.67 E.0605
G1 X61.79 Y59.509 E.05749
G1 X61.79 Y59.185 E.0117
G1 X61.939 Y59.151 E.0055
G3 X65.161 Y58.5 I10.022 J41.312 E.11872
G1 X65.252 Y58.388 E.00524
G1 X65.275 Y58.063 E.01175
G1 X65.275 Y56.889 E.0424
G1 X65.185 Y56.744 E.00614
