;TIME:1008.69
;Filament used:0.60474m
;Layer height:0.200
; HEADER_BLOCK_START
; generated by Creality_Print V6.0.5.1840 on 2025-03-27 at 10:43:08
; total layer number: 41
; filament_density: 1.24
; filament_diameter: 1.75
; max_z_height: 5.00
; HEADER_BLOCK_END

; MINX = 102.68
; MINY = 83.00
; MINZ = 0.00
; MAXX = 117.32
; MAXY = 137.00
; MAXZ = 5.00

; THUMBNAIL_BLOCK_START

;
; THUMBNAIL_BLOCK_END

; THUMBNAIL_BLOCK_START

;
; THUMBNAIL_BLOCK_END

; external perimeters extrusion width = 0.42mm
; perimeters extrusion width = 0.45mm
; infill extrusion width = 0.45mm
; solid infill extrusion width = 0.42mm
; top infill extrusion width = 0.42mm
; first layer extrusion width = 0.46mm

; EXECUTABLE_BLOCK_START
M73 P0 R16
M201 X5000 Y5000 Z500 E5000
M203 X500 Y500 Z30 E100
M204 P5000 R2500 T5000 ; sets acceleration (P, T) and retract acceleration (R), mm/sec^2
M205 X10.00 Y10.00 Z0.40 E5.00 ; sets the jerk limits, mm/sec
;TYPE:Custom
M220 S100 ;Reset Feedrate 
M221 S100 ;Reset Flowrate 
 
M140 S50 ;Set final bed temp 
G28 ;Home 
 
G92 E0 ;Reset Extruder 
G1 Z2.0 F3000 ;Move Z Axis up 
M104 S190 ;Set final nozzle temp 
G1 X-2.1 Y20 Z0.28 F5000.0 ;Move to start position 
M190 S50 ;Wait for bed temp to stabilize 
M109 S190 ;Wait for nozzle temp to stabilize 
G1 X-2.1 Y145.0 Z0.28 F1500.0 E15 ;Draw the first line 
G1 X-2.4 Y145.0 Z0.28 F5000.0 ;Move to side a little 
G1 X-2.4 Y20 Z0.28 F1500.0 E30 ;Draw the second line 
G92 E0  ;Reset Extruder 
G1 E-1.0000 F1800 ;Retract a bit 
M73 P1 R16
M73 P1 R16
G1 Z2.0 F3000 ;Move Z Axis up 
G1 E0.0000 F1800
G90
G21
M83 ; use relative distances for extrusion
" "
G1 E-1.2 F2400
M106 S0
;LAYER_CHANGE
;Z:0.2
;HEIGHT:0.2
;BEFORE_LAYER_CHANGE
;0.2
G92 E0

;_SET_FAN_SPEED_CHANGING_LAYER
M204 P500
M205 X8 Y8
M204 T500
G1 Z.2 F9000
G1 X87.961 Y71.035
G1 E1.2 F1800
;TYPE:Skirt
;WIDTH:0.46
G1 F3000
G1 X89.92 Y68.609 E.10275
G1 X93.077 Y65.964 E.13569
G1 X95.067 Y64.755 E.07672
G1 X98.855 Y63.138 E.13569
G1 X102.884 Y62.283 E.13569
G1 X105.265 Y62.149 E.07857
G1 X114.782 Y62.149 E.31356
G1 X118.881 Y62.548 E.13569
G1 X122.826 Y63.73 E.13569
G1 X127.051 Y66.048 E.15879
G1 X130.309 Y68.841 E.14137
G1 X132.848 Y72.084 E.13569
G1 X134.713 Y75.756 E.13569
G1 X135.835 Y79.718 E.13569
G1 X136.174 Y83.5 E.1251
G1 X136.171 Y87.86 E.14365
G1 X135.349 Y136.34 E1.59747
G1 X134.881 Y140.432 E.13569
G1 X133.632 Y144.357 E.13569
G1 X131.65 Y147.966 E.13569
G1 X129.008 Y151.126 E.13569
G1 X125.701 Y153.787 E.13985
G1 X124.135 Y154.806 E.06155
G1 X120.483 Y156.709 E.13569
G1 X116.532 Y157.872 E.13569
G1 X112.536 Y158.251 E.13226
G1 X107.117 Y158.251 E.17853
G1 X102.538 Y157.752 E.15177
G1 X100.972 Y157.407 E.05282
G1 X97.055 Y156.134 E.13569
G1 X93.458 Y154.129 E.13569
G1 X90.314 Y151.468 E.13569
G1 X87.743 Y148.251 E.13569
G1 X85.841 Y144.598 E.13569
G1 X84.679 Y140.647 E.13569
G1 X84.301 Y136.858 E.12548
G1 X83.832 Y87.703 E1.61953
G1 X83.831 Y83.5 E.13847
G1 X84.23 Y79.401 E.13569
G1 X85.412 Y75.456 E.13569
G1 X87.333 Y71.813 E.13569
G1 X87.936 Y71.067 E.03161
G1 X88.252 Y71.326 F9000
G1 F3000
G1 X90.331 Y68.787 E.10812
G1 X95.268 Y65.121 E.20257
G1 X99.019 Y63.524 E.13434
G1 X103.011 Y62.688 E.13434
G1 X105.265 Y62.566 E.07437
G1 X114.782 Y62.566 E.31356
G1 X118.84 Y62.965 E.13434
G1 X122.743 Y64.147 E.13434
G1 X126.81 Y66.389 E.15304
G1 X130.035 Y69.158 E.14002
G1 X132.539 Y72.376 E.13434
G1 X134.368 Y76.02 E.13434
G1 X135.453 Y79.951 E.13434
G1 X135.757 Y83.5 E.11735
G1 X135.754 Y87.853 E.14342
G1 X134.932 Y136.333 E1.59747
G1 X134.465 Y140.384 E.13434
G1 X133.217 Y144.266 E.13434
G1 X131.237 Y147.831 E.13434
G1 X128.6 Y150.942 E.13434
G1 X125.473 Y153.437 E.13181
G1 X123.908 Y154.457 E.06155
G1 X120.29 Y156.338 E.13434
G1 X116.374 Y157.477 E.13434
G1 X112.536 Y157.834 E.12702
G1 X107.117 Y157.834 E.17853
G1 X102.627 Y157.345 E.14879
M73 P2 R16
M73 P2 R16
G1 X101.062 Y156.999 E.05282
G1 X97.185 Y155.735 E.13434
G1 X93.629 Y153.74 E.13434
G1 X90.529 Y151.091 E.13434
G1 X88.005 Y147.888 E.13434
G1 X86.153 Y144.255 E.13434
G1 X85.044 Y140.331 E.13434
G1 X84.718 Y136.854 E.11508
G1 X84.249 Y87.699 E1.61953
G1 X84.248 Y83.5 E.13834
G1 X84.647 Y79.442 E.13434
G1 X85.829 Y75.539 E.13434
G1 X87.748 Y71.942 E.13434
G1 X88.227 Y71.357 E.02491
G1 X88.54 Y71.617 F9000
G1 F3000
G1 X90.742 Y68.966 E.11353
G1 X95.468 Y65.487 E.19334
G1 X99.183 Y63.91 E.13299
G1 X103.137 Y63.094 E.13299
G1 X105.265 Y62.983 E.07021
G1 X114.782 Y62.983 E.31356
G1 X118.799 Y63.382 E.13299
G1 X122.658 Y64.563 E.13299
G1 X126.57 Y66.73 E.14731
G1 X129.76 Y69.474 E.13867
G1 X132.23 Y72.668 E.13299
G1 X134.023 Y76.284 E.13299
G1 X135.069 Y80.183 E.13299
G1 X135.34 Y83.5 E.10966
G1 X135.337 Y87.846 E.14319
G1 X134.515 Y136.326 E1.59747
G1 X134.048 Y140.336 E.13299
G1 X132.802 Y144.175 E.13299
G1 X130.824 Y147.694 E.13299
G1 X128.193 Y150.755 E.13299
G1 X125.245 Y153.088 E.12383
G1 X123.68 Y154.107 E.06155
G1 X120.097 Y155.966 E.13299
G1 X116.218 Y157.082 E.13299
G1 X112.536 Y157.417 E.1218
G1 X107.117 Y157.417 E.17853
G1 X102.717 Y156.937 E.14581
G1 X101.152 Y156.592 E.05282
G1 X97.315 Y155.337 E.13299
G1 X93.801 Y153.351 E.13299
G1 X90.746 Y150.713 E.13299
G1 X88.269 Y147.526 E.13299
G1 X86.468 Y143.913 E.13299
G1 X85.413 Y140.017 E.13299
G1 X85.135 Y136.85 E.10475
G1 X84.666 Y87.695 E1.61953
G1 X84.665 Y83.5 E.13821
G1 X85.064 Y79.483 E.13299
G1 X86.245 Y75.623 E.13299
G1 X88.163 Y72.072 E.13299
G1 X88.515 Y71.648 E.01814
; printing object Cuerpo13 id:8171063952611762432 copy 0
G1 E-1.2 F2400
;WIPE_START
G1 F3000
G1 X89.793 Y70.109
;WIPE_END
G1 X92.439 Y72.859 Z.4 F9000
G1 X107.344 Y88.343 Z.4
G1 Z.2
G1 E1.2 F1800
;TYPE:Inner wall
;WIDTH:0.459999
G1 X107.248 Y88.296 E.00354
G1 X107.082 Y88.267 E.00553
G1 X107.224 Y88.198 E.00518
G1 X107.428 Y87.922 E.0113
G1 X107.462 Y87.79 E.00447
G1 X107.447 Y87.499 E.00963
G1 X107.337 Y87.217 E.00998
G1 X107.174 Y87.058 E.00749
G1 X106.827 Y86.953 E.01196
G1 X105.729 Y86.953 E.03616
G1 X105.729 Y84.047 E.09574
G1 X114.276 Y84.047 E.2816
G1 X114.276 Y86.953 E.09574
G1 X114.077 Y86.953 E.00655
G1 X113.67 Y87.104 E.01431
G1 X113.495 Y87.47 E.01338
G1 X112.356 Y87.77 E.03881
G1 X112.083 Y87.922 E.01028
G1 X111.966 Y88.075 E.00636
G1 X111.889 Y88.374 E.01016
G1 X111.897 Y89.196 E.02709
G1 X112.029 Y89.483 E.01041
G1 X112.354 Y89.693 E.01277
G1 X112.525 Y89.725 E.00572
G1 X112.407 Y89.756 E.00402
G1 X112.029 Y89.98 E.01449
G1 X111.944 Y90.115 E.00526
G1 X111.888 Y90.375 E.00876
G1 X111.897 Y91.196 E.02705
G1 X112.029 Y91.483 E.01041
G1 X112.354 Y91.693 E.01277
G1 X112.525 Y91.725 E.00572
G1 X112.407 Y91.756 E.00401
G1 X112.029 Y91.98 E.01449
G1 X111.944 Y92.115 E.00526
G1 X111.888 Y92.375 E.00876
G1 X111.897 Y93.196 E.02705
G1 X112.029 Y93.483 E.01041
G1 X112.354 Y93.693 E.01277
G1 X112.525 Y93.725 E.00572
G1 X112.407 Y93.756 E.00401
G1 X112.029 Y93.98 E.01449
G1 X111.944 Y94.115 E.00526
G1 X111.888 Y94.375 E.00876
G1 X111.897 Y95.196 E.02705
G1 X112.029 Y95.483 E.01041
G1 X112.354 Y95.693 E.01277
G1 X112.525 Y95.725 E.00572
G1 X112.407 Y95.756 E.00401
G1 X112.029 Y95.98 E.01449
G1 X111.944 Y96.115 E.00526
G1 X111.888 Y96.375 E.00876
G1 X111.897 Y97.196 E.02705
G1 X112.029 Y97.483 E.01041
G1 X112.354 Y97.693 E.01277
G1 X112.525 Y97.725 E.00572
G1 X112.407 Y97.756 E.00402
G1 X112.029 Y97.98 E.01449
G1 X111.944 Y98.115 E.00526
G1 X111.888 Y98.375 E.00876
G1 X111.897 Y99.196 E.02705
G1 X112.029 Y99.483 E.01041
G1 X112.354 Y99.693 E.01277
G1 X112.525 Y99.725 E.00572
G1 X112.407 Y99.756 E.00401
G1 X112.029 Y99.98 E.01449
G1 X111.944 Y100.115 E.00526
G1 X111.888 Y100.375 E.00876
G1 X111.897 Y101.196 E.02705
G1 X112.029 Y101.483 E.01041
G1 X112.354 Y101.693 E.01277
G1 X112.525 Y101.725 E.00572
G1 X112.407 Y101.756 E.00402
G1 X112.029 Y101.98 E.01449
M73 P3 R16
M73 P3 R16
G1 X111.944 Y102.115 E.00526
G1 X111.888 Y102.375 E.00876
G1 X111.897 Y103.196 E.02705
G1 X112.029 Y103.483 E.01041
G1 X112.354 Y103.693 E.01277
G1 X112.525 Y103.725 E.00572
G1 X112.407 Y103.756 E.00402
G1 X112.029 Y103.98 E.01449
G1 X111.944 Y104.115 E.00526
G1 X111.888 Y104.375 E.00876
G1 X111.897 Y105.196 E.02705
G1 X112.029 Y105.483 E.01041
G1 X112.354 Y105.693 E.01277
G1 X112.525 Y105.725 E.00572
G1 X112.407 Y105.756 E.00402
G1 X112.029 Y105.98 E.01449
G1 X111.944 Y106.115 E.00526
G1 X111.888 Y106.375 E.00876
G1 X111.897 Y107.196 E.02705
G1 X112.029 Y107.483 E.01041
G1 X112.354 Y107.693 E.01277
G1 X112.525 Y107.725 E.00572
G1 X112.407 Y107.756 E.00402
G1 X112.029 Y107.98 E.01449
G1 X111.944 Y108.115 E.00526
G1 X111.888 Y108.375 E.00876
G1 X111.897 Y109.196 E.02705
G1 X112.029 Y109.483 E.01041
G1 X112.354 Y109.693 E.01277
G1 X112.525 Y109.725 E.00572
G1 X112.407 Y109.756 E.00402
G1 X112.029 Y109.98 E.01449
G1 X111.944 Y110.115 E.00526
G1 X111.888 Y110.375 E.00876
G1 X111.897 Y111.196 E.02705
G1 X112.029 Y111.483 E.01041
G1 X112.354 Y111.693 E.01277
G1 X112.525 Y111.725 E.00572
G1 X112.407 Y111.756 E.00402
G1 X112.029 Y111.98 E.01449
G1 X111.944 Y112.115 E.00526
G1 X111.888 Y112.375 E.00876
G1 X111.897 Y113.196 E.02705
G1 X112.029 Y113.483 E.01041
G1 X112.354 Y113.693 E.01277
G1 X112.525 Y113.725 E.00572
G1 X112.407 Y113.756 E.00402
G1 X112.029 Y113.98 E.01449
G1 X111.944 Y114.115 E.00526
G1 X111.888 Y114.375 E.00876
G1 X111.897 Y115.196 E.02705
G1 X112.029 Y115.483 E.01041
G1 X112.354 Y115.693 E.01277
G1 X112.525 Y115.725 E.00572
G1 X112.407 Y115.756 E.00402
G1 X112.029 Y115.98 E.01449
G1 X111.944 Y116.115 E.00526
G1 X111.888 Y116.375 E.00876
G1 X111.897 Y117.196 E.02705
G1 X112.029 Y117.483 E.01041
G1 X112.354 Y117.693 E.01277
G1 X112.525 Y117.725 E.00572
G1 X112.407 Y117.756 E.00402
G1 X112.029 Y117.98 E.01449
G1 X111.944 Y118.115 E.00526
G1 X111.888 Y118.375 E.00876
G1 X111.897 Y119.196 E.02705
G1 X112.029 Y119.483 E.01041
G1 X112.354 Y119.693 E.01277
G1 X112.525 Y119.725 E.00572
G1 X112.407 Y119.756 E.00401
G1 X112.029 Y119.98 E.01449
G1 X111.944 Y120.115 E.00526
G1 X111.888 Y120.375 E.00876
G1 X111.897 Y121.196 E.02705
G1 X112.029 Y121.483 E.01041
G1 X112.354 Y121.693 E.01277
G1 X112.525 Y121.725 E.00572
G1 X112.407 Y121.756 E.00401
G1 X112.029 Y121.98 E.01449
G1 X111.944 Y122.115 E.00526
G1 X111.888 Y122.375 E.00876
G1 X111.897 Y123.196 E.02705
G1 X112.029 Y123.483 E.01041
G1 X112.354 Y123.693 E.01277
G1 X112.525 Y123.725 E.00572
G1 X112.407 Y123.756 E.00402
G1 X112.029 Y123.98 E.01449
G1 X111.944 Y124.115 E.00526
G1 X111.888 Y124.375 E.00876
G1 X111.897 Y125.196 E.02705
G1 X112.029 Y125.483 E.01041
G1 X112.354 Y125.693 E.01277
G1 X112.525 Y125.725 E.00572
G1 X112.407 Y125.756 E.00401
G1 X112.029 Y125.98 E.01449
G1 X111.944 Y126.115 E.00526
G1 X111.888 Y126.375 E.00876
G1 X111.897 Y127.196 E.02705
G1 X112.029 Y127.483 E.01041
G1 X112.354 Y127.693 E.01277
G1 X112.525 Y127.725 E.00572
G1 X112.407 Y127.756 E.00402
G1 X112.029 Y127.98 E.01449
G1 X111.944 Y128.115 E.00526
G1 X111.888 Y128.375 E.00876
G1 X111.897 Y129.196 E.02705
G1 X112.029 Y129.483 E.01041
G1 X112.354 Y129.693 E.01277
G1 X112.525 Y129.725 E.00572
G1 X112.407 Y129.756 E.00402
G1 X112.029 Y129.98 E.01449
G1 X111.944 Y130.115 E.00526
G1 X111.888 Y130.375 E.00876
G1 X111.897 Y131.196 E.02705
G1 X112.029 Y131.483 E.01041
G1 X112.354 Y131.693 E.01277
G1 X112.525 Y131.725 E.00572
G1 X112.407 Y131.756 E.00402
G1 X112.029 Y131.98 E.01449
G1 X111.944 Y132.115 E.00526
G1 X111.888 Y132.375 E.00876
G1 X111.897 Y133.196 E.02705
G1 X112.029 Y133.483 E.01041
G1 X112.354 Y133.693 E.01277
G1 X112.525 Y133.725 E.00572
G1 X112.407 Y133.756 E.00402
G1 X112.029 Y133.98 E.01449
G1 X111.944 Y134.115 E.00526
G1 X111.888 Y134.375 E.00876
G1 X111.888 Y135.088 E.02349
G1 X111.978 Y135.411 E.01104
G1 X112.08 Y135.539 E.0054
G1 X112.354 Y135.693 E.01037
G1 X112.525 Y135.725 E.00572
G1 X112.407 Y135.756 E.00402
G1 X112.08 Y135.924 E.01212
G1 X111.978 Y136.052 E.0054
G1 X111.894 Y136.353 E.01028
G1 X107.44 Y136.353 E.14675
G1 X107.129 Y136.274 E.01057
G1 X107.404 Y136.192 E.00947
G1 X107.765 Y135.625 E.02213
G1 X107.747 Y134.763 E.02839
G1 X107.623 Y134.515 E.00914
G1 X107.298 Y134.307 E.01272
G1 X107.128 Y134.275 E.00572
G1 X107.245 Y134.244 E.00402
G1 X107.623 Y134.022 E.01443
G1 X107.735 Y133.815 E.00774
G1 X107.765 Y133.556 E.0086
G1 X107.753 Y132.788 E.02529
G1 X107.624 Y132.517 E.0099
G1 X107.298 Y132.307 E.01277
G1 X107.128 Y132.275 E.00572
G1 X107.245 Y132.244 E.00402
G1 X107.624 Y132.02 E.01449
G1 X107.736 Y131.814 E.00773
G1 X107.765 Y131.556 E.00856
G1 X107.753 Y130.788 E.02529
G1 X107.624 Y130.517 E.0099
G1 X107.298 Y130.307 E.01277
G1 X107.128 Y130.275 E.00572
G1 X107.245 Y130.244 E.00402
G1 X107.624 Y130.02 E.01449
G1 X107.736 Y129.814 E.00773
G1 X107.765 Y129.556 E.00856
G1 X107.753 Y128.788 E.02529
G1 X107.624 Y128.517 E.0099
G1 X107.298 Y128.307 E.01277
G1 X107.128 Y128.275 E.00572
G1 X107.245 Y128.244 E.00402
G1 X107.624 Y128.02 E.01449
G1 X107.736 Y127.814 E.00773
G1 X107.765 Y127.556 E.00856
G1 X107.753 Y126.788 E.02529
G1 X107.624 Y126.517 E.0099
G1 X107.298 Y126.307 E.01277
G1 X107.128 Y126.275 E.00572
G1 X107.245 Y126.244 E.00402
G1 X107.624 Y126.02 E.01449
G1 X107.736 Y125.814 E.00773
G1 X107.765 Y125.556 E.00856
G1 X107.753 Y124.788 E.02529
G1 X107.624 Y124.517 E.0099
G1 X107.298 Y124.307 E.01277
G1 X107.128 Y124.275 E.00572
G1 X107.246 Y124.244 E.00402
G1 X107.624 Y124.02 E.01449
G1 X107.736 Y123.814 E.00773
G1 X107.765 Y123.556 E.00856
G1 X107.753 Y122.788 E.02529
G1 X107.624 Y122.517 E.0099
G1 X107.298 Y122.307 E.01277
G1 X107.128 Y122.275 E.00572
G1 X107.246 Y122.244 E.00402
G1 X107.624 Y122.02 E.01449
G1 X107.736 Y121.814 E.00773
G1 X107.765 Y121.556 E.00856
G1 X107.753 Y120.788 E.02529
G1 X107.624 Y120.517 E.0099
G1 X107.298 Y120.307 E.01277
G1 X107.128 Y120.275 E.00572
G1 X107.246 Y120.244 E.00402
G1 X107.624 Y120.02 E.01449
G1 X107.736 Y119.814 E.00773
G1 X107.765 Y119.556 E.00857
G1 X107.753 Y118.788 E.02529
G1 X107.624 Y118.517 E.0099
G1 X107.298 Y118.307 E.01277
G1 X107.128 Y118.275 E.00572
G1 X107.246 Y118.244 E.00402
G1 X107.624 Y118.02 E.01449
G1 X107.736 Y117.814 E.00773
G1 X107.765 Y117.556 E.00857
G1 X107.753 Y116.788 E.02528
G1 X107.624 Y116.517 E.0099
G1 X107.298 Y116.307 E.01277
G1 X107.128 Y116.275 E.00572
G1 X107.246 Y116.244 E.00402
G1 X107.624 Y116.02 E.01449
G1 X107.736 Y115.814 E.00773
G1 X107.765 Y115.556 E.00857
G1 X107.753 Y114.788 E.02528
G1 X107.624 Y114.517 E.0099
G1 X107.298 Y114.307 E.01277
G1 X107.128 Y114.275 E.00572
G1 X107.246 Y114.244 E.00402
G1 X107.624 Y114.02 E.01449
G1 X107.736 Y113.814 E.00773
G1 X107.765 Y113.556 E.00857
G1 X107.753 Y112.788 E.02529
G1 X107.624 Y112.517 E.0099
G1 X107.298 Y112.307 E.01277
G1 X107.128 Y112.275 E.00572
G1 X107.246 Y112.244 E.00402
G1 X107.624 Y112.02 E.01449
G1 X107.736 Y111.814 E.00773
G1 X107.765 Y111.556 E.00856
G1 X107.753 Y110.788 E.02529
G1 X107.624 Y110.517 E.0099
G1 X107.298 Y110.307 E.01277
G1 X107.128 Y110.275 E.00572
G1 X107.246 Y110.244 E.00402
G1 X107.624 Y110.02 E.01449
G1 X107.736 Y109.814 E.00773
G1 X107.765 Y109.556 E.00856
G1 X107.753 Y108.788 E.02529
G1 X107.624 Y108.517 E.0099
G1 X107.298 Y108.307 E.01277
G1 X107.128 Y108.275 E.00572
G1 X107.245 Y108.244 E.00402
G1 X107.624 Y108.02 E.01449
G1 X107.736 Y107.814 E.00773
G1 X107.765 Y107.556 E.00856
G1 X107.753 Y106.788 E.02529
G1 X107.624 Y106.517 E.0099
G1 X107.298 Y106.307 E.01277
G1 X107.128 Y106.275 E.00572
G1 X107.245 Y106.244 E.00402
G1 X107.624 Y106.02 E.01449
G1 X107.736 Y105.814 E.00773
G1 X107.765 Y105.556 E.00856
G1 X107.753 Y104.788 E.02529
G1 X107.624 Y104.517 E.0099
G1 X107.298 Y104.307 E.01277
G1 X107.128 Y104.275 E.00572
G1 X107.245 Y104.244 E.00401
G1 X107.624 Y104.02 E.01449
G1 X107.736 Y103.814 E.00773
G1 X107.765 Y103.556 E.00856
G1 X107.753 Y102.788 E.02529
G1 X107.624 Y102.517 E.0099
G1 X107.298 Y102.307 E.01277
G1 X107.128 Y102.275 E.00572
G1 X107.245 Y102.244 E.00401
G1 X107.624 Y102.02 E.01449
G1 X107.736 Y101.814 E.00773
G1 X107.765 Y101.556 E.00856
G1 X107.753 Y100.788 E.02529
G1 X107.624 Y100.517 E.0099
G1 X107.298 Y100.307 E.01277
G1 X107.128 Y100.275 E.00572
G1 X107.245 Y100.244 E.00402
G1 X107.624 Y100.02 E.01449
G1 X107.736 Y99.814 E.00773
G1 X107.765 Y99.556 E.00856
