;TIME:155.12
;Filament used:0.29951m
;Layer height:0.200
; HEADER_BLOCK_START
; generated by Creality_Print V6.1.0.2041 on 2025-04-08 at 23:16:46
; total layer number: 12
; filament_density: 1.24
; filament_diameter: 1.75
; max_z_height: 3.89
; HEADER_BLOCK_END

; MINX = 99.64
; MINY = 85.03
; MINZ = 0.00
; MAXX = 114.10
; MAXY = 108.21
; MAXZ = 4.00

; THUMBNAIL_BLOCK_START

;
; THUMBNAIL_BLOCK_END

; THUMBNAIL_BLOCK_START

;
; THUMBNAIL_BLOCK_END

; external perimeters extrusion width = 0.42mm
; perimeters extrusion width = 0.45mm
; infill extrusion width = 0.45mm
; solid infill extrusion width = 0.42mm
; top infill extrusion width = 0.42mm
; first layer extrusion width = 0.50mm

; EXECUTABLE_BLOCK_START
M73 P0 R2
M201 X5000 Y5000 Z500 E5000
M203 X500 Y500 Z30 E100
M204 P5000 R2500 T5000 ; sets acceleration (P, T) and retract acceleration (R), mm/sec^2
M205 X10.00 Y10.00 Z0.40 E5.00 ; sets the jerk limits, mm/sec
;TYPE:Custom
M220 S100 ;Reset Feedrate 
M221 S100 ;Reset Flowrate 
 
M140 S60 ;Set final bed temp 
G28 ;Home 
 
G92 E0 ;Reset Extruder 
G1 Z2.0 F3000 ;Move Z Axis up 
M104 S205 ;Set final nozzle temp 
G1 X-2.1 Y20 Z0.28 F5000.0 ;Move to start position 
M190 S60 ;Wait for bed temp to stabilize 
M109 S205 ;Wait for nozzle temp to stabilize 
G1 X-2.1 Y145.0 Z0.28 F1500.0 E15 ;Draw the first line 
G1 X-2.4 Y145.0 Z0.28 F5000.0 ;Move to side a little 
M73 P3 R2
M73 P3 R2
G1 X-2.4 Y20 Z0.28 F1500.0 E30 ;Draw the second line 
G92 E0  ;Reset Extruder 
G1 E-1.0000 F1800 ;Retract a bit 
M73 P6 R2
M73 P6 R2
G1 Z2.0 F3000 ;Move Z Axis up 
G1 E0.0000 F1800
G90
G21
M83 ; use relative distances for extrusion
" "
G1 E-1.2 F2400
M106 S0
;LAYER_CHANGE
;Z:0.2
;HEIGHT:0.2
;BEFORE_LAYER_CHANGE
;0.2
G92 E0

;_SET_FAN_SPEED_CHANGING_LAYER
M204 P500
M205 X10 Y10
M204 T500
G1 Z.4 F9000
G1 X84.361 Y71.083
G1 Z.2
M73 P7 R2
M73 P7 R2
G1 E1.2 F1800
;TYPE:Skirt
;WIDTH:0.5
G1 F3000
G1 X87.52 Y68.423 E.14912
G1 X91.132 Y66.421 E.14912
G1 X95.062 Y65.15 E.14912
G1 X97.514 Y64.76 E.08966
G1 X107.514 Y63.76 E.36286
G1 X109.641 Y63.654 E.07688
G1 X114.1 Y63.654 E.161
G1 X118.21 Y64.053 E.14912
M73 P8 R2
M73 P8 R2
G1 X122.168 Y65.235 E.14912
G1 X125.823 Y67.156 E.14912
G1 X129.041 Y69.745 E.14912
G1 X131.701 Y72.904 E.14912
G1 X133.704 Y76.516 E.14912
G1 X134.975 Y80.446 E.14912
G1 X135.471 Y85.025 E.16629
G1 X135.471 Y108.214 E.83725
G1 X135.072 Y112.324 E.14912
G1 X133.89 Y116.281 E.14912
G1 X131.968 Y119.937 E.14912
G1 X129.38 Y123.155 E.14912
G1 X126.22 Y125.815 E.14912
G1 X122.608 Y127.818 E.14912
M73 P9 R2
M73 P9 R2
G1 X118.679 Y129.089 E.14912
G1 X114.1 Y129.585 E.16629
G1 X99.641 Y129.585 E.52206
G1 X95.53 Y129.186 E.14912
G1 X91.573 Y128.003 E.14912
G1 X87.917 Y126.082 E.14912
G1 X84.699 Y123.493 E.14912
G1 X82.039 Y120.334 E.14912
G1 X80.036 Y116.722 E.14912
G1 X78.766 Y112.792 E.14912
G1 X78.269 Y108.214 E.16629
G1 X78.269 Y86.025 E.80114
G1 X78.669 Y81.914 E.14912
M73 P10 R2
M73 P10 R2
G1 X79.851 Y77.957 E.14912
G1 X81.772 Y74.301 E.14912
G1 X84.336 Y71.114 E.14767
G1 X84.701 Y71.413 F9000
G1 F3000
G1 X84.811 Y71.277 E.0063
G1 X87.961 Y68.676 E.14751
G1 X91.557 Y66.736 E.14751
G1 X95.461 Y65.533 E.14751
G1 X97.56 Y65.215 E.07663
G1 X107.56 Y64.215 E.36286
G1 X109.641 Y64.111 E.07523
G1 X114.1 Y64.111 E.161
G1 X118.166 Y64.51 E.14751
G1 X122.076 Y65.692 E.14751
G1 X125.683 Y67.611 E.14751
G1 X128.847 Y70.196 E.14751
G1 X131.449 Y73.346 E.14751
G1 X133.389 Y76.941 E.14751
M73 P11 R2
M73 P11 R2
G1 X134.592 Y80.846 E.14751
G1 X135.014 Y85.025 E.15167
G1 X135.014 Y108.214 E.83725
G1 X134.615 Y112.279 E.14751
G1 X133.433 Y116.19 E.14751
G1 X131.513 Y119.797 E.14751
G1 X128.929 Y122.961 E.14751
G1 X125.779 Y125.563 E.14751
G1 X122.183 Y127.502 E.14751
G1 X118.279 Y128.706 E.14751
G1 X114.1 Y129.128 E.15167
G1 X99.641 Y129.128 E.52206
G1 X95.575 Y128.729 E.14751
M73 P12 R2
M73 P12 R2
G1 X91.664 Y127.547 E.14751
G1 X88.058 Y125.627 E.14751
G1 X84.893 Y123.043 E.14751
G1 X82.291 Y119.893 E.14751
G1 X80.352 Y116.297 E.14751
G1 X79.148 Y112.393 E.14751
G1 X78.727 Y108.214 E.15167
G1 X78.727 Y86.025 E.80114
G1 X79.126 Y81.959 E.14751
G1 X80.307 Y78.048 E.14751
G1 X82.227 Y74.442 E.14751
G1 X84.676 Y71.444 E.13977
G1 X85.038 Y71.744 F9000
M73 P13 R2
M73 P13 R2
G1 F3000
G1 X85.261 Y71.474 E.01266
G1 X88.402 Y68.932 E.14589
G1 X91.981 Y67.056 E.14589
G1 X97.605 Y65.669 E.20916
G1 X107.605 Y64.669 E.36286
G1 X109.641 Y64.568 E.07359
G1 X114.1 Y64.568 E.161
G1 X118.12 Y64.967 E.14589
G1 X121.984 Y66.148 E.14589
G1 X125.541 Y68.066 E.14589
G1 X128.651 Y70.646 E.14589
G1 X131.193 Y73.786 E.14589
G1 X133.069 Y77.365 E.14589
G1 X134.204 Y81.243 E.14589
G1 X134.557 Y85.025 E.13716
G1 X134.557 Y108.214 E.83725
G1 X134.158 Y112.234 E.14589
M73 P14 R2
M73 P14 R2
G1 X132.976 Y116.098 E.14589
G1 X131.058 Y119.654 E.14589
G1 X128.479 Y122.764 E.14589
G1 X125.339 Y125.307 E.14589
G1 X121.76 Y127.182 E.14589
G1 X117.882 Y128.318 E.14589
G1 X114.1 Y128.671 E.13716
G1 X99.641 Y128.671 E.52206
G1 X95.62 Y128.272 E.14589
G1 X91.756 Y127.09 E.14589
G1 X88.2 Y125.172 E.14589
G1 X85.09 Y122.593 E.14589
G1 X82.547 Y119.452 E.14589
G1 X80.672 Y115.874 E.14589
M73 P15 R2
M73 P15 R2
G1 X79.536 Y111.996 E.14589
G1 X79.184 Y108.214 E.13716
G1 X79.184 Y86.025 E.80114
G1 X79.583 Y82.004 E.14589
G1 X80.764 Y78.14 E.14589
G1 X82.682 Y74.584 E.14589
G1 X85.012 Y71.775 E.13178
; printing object Cuerpo1 id:4947098641845190655 copy 0
G1 E-1.2 F2400
;WIPE_START
G1 F9000
G1 X85.261 Y71.474
G1 X86.512 Y70.461
;WIPE_END
G1 X92.966 Y74.537 Z.6
G1 X110.93 Y85.882 Z.6
G1 Z.2
M73 P16 R2
M73 P16 R2
G1 E1.2 F1800
;TYPE:Inner wall
;WIDTH:0.499999
G1 X113.243 Y85.882 E.08352
G1 X113.243 Y107.356 E.77535
G1 X100.498 Y107.356 E.46017
G1 X100.498 Y86.882 E.73925
M73 P17 R2
M73 P17 R2
G1 X109.915 Y86.882 E.34003
G1 X110.243 Y86.729 E.01307
G1 X110.383 Y86.577 E.00745
G1 X110.498 Y86.196 E.01435
G1 X110.498 Y85.882 E.01135
G1 X110.89 Y85.882 E.01415
G1 X110.041 Y86.196 F9000
;TYPE:Outer wall
G1 F1800
G1 X110.041 Y85.425 E.02785
G1 X113.7 Y85.425 E.13211
G1 X113.7 Y107.814 E.80836
G1 X100.041 Y107.814 E.49317
M73 P18 R2
M73 P18 R2
G1 X100.041 Y86.425 E.77225
G1 X109.812 Y86.425 E.35281
M73 P19 R2
M73 P19 R2
G1 X109.956 Y86.374 E.00551
G1 X110.023 Y86.233 E.00566
G1 E-1.2 F2400
;WIPE_START
G1 F9000
G1 X110.041 Y85.425
G1 X111.233 Y85.425
;WIPE_END
G1 Z.6
G1 X113.108 Y87.505
G1 Z.6
G1 Z.2
G1 E1.2 F1800
;TYPE:Sparse infill
;WIDTH:0.5
G1 X111.803 Y86.2 E.06665
G1 X110.819 Y86.2 E.03554
G1 X110.652 Y86.749 E.02072
G3 X109.816 Y87.2 I-1.001 J-.855 E.03508
G1 X108.965 Y87.2 E.03075
G1 X112.925 Y91.16 E.20221
G1 X112.925 Y94.998 E.13857
M73 P20 R2
M73 P20 R2
G1 X105.127 Y87.2 E.39818
G1 X101.289 Y87.2 E.13857
G1 X112.925 Y98.836 E.59415
G1 X112.925 Y102.674 E.13857
G1 X100.816 Y90.565 E.61832
M73 P21 R2
M73 P21 R2
G1 X100.816 Y94.403 E.13857
G1 X112.925 Y106.512 E.61832
G1 X112.925 Y107.039 E.01902
G1 X109.614 Y107.039 E.11955
G1 X100.816 Y98.241 E.44924
G1 X100.816 Y102.079 E.13857
M73 P22 R2
M73 P22 R2
G1 X105.776 Y107.039 E.25327
G1 X101.938 Y107.039 E.13857
G1 X100.632 Y105.733 E.06665
; stop printing object Cuerpo1 id:4947098641845190655 copy 0
;TIME_ELAPSED:35.151379

M106 S255
;LAYER_CHANGE
;Z:0.446667
;HEIGHT:0.246667
;BEFORE_LAYER_CHANGE
;0.446667
G92 E0

G1 E-1.2 F2400
;WIPE_START
G1 F9000
G1 X101.938 Y107.039
G1 X102.092 Y107.039
;WIPE_END
;_SET_FAN_SPEED_CHANGING_LAYER
M204 P2500
M104 S190 ; set nozzle temperature
; printing object Cuerpo1 id:4947098641845190655 copy 0
M204 T2500
G1 X104.856 Y99.924 Z.6
G1 X110.414 Y85.617 Z.6
G1 Z.447
G1 E1.2 F1800
M204 P2000
;TYPE:Inner wall
;WIDTH:0.449999
G1 F2945
M73 P22 R1
M73 P22 R1
G1 X113.508 Y85.617 E.11968
G1 X113.508 Y107.621 E.85121
M73 P23 R1
M73 P23 R1
G1 X100.233 Y107.621 E.51352
G1 X100.233 Y86.617 E.81253
G1 X109.667 Y86.617 E.36496
G1 X109.887 Y86.572 E.00869
G1 X110.124 Y86.385 E.01168
G1 X110.233 Y86.051 E.01357
G1 X110.233 Y85.617 E.0168
G1 X110.374 Y85.617 E.00545
G1 X109.851 Y86.051 F9000
M204 P1000
;TYPE:Outer wall
;WIDTH:0.419999
G1 F2945
G1 X109.851 Y85.235 E.0292
G1 X113.89 Y85.235 E.14444
G1 X113.89 Y108.004 E.81423
M73 P24 R1
M73 P24 R1
G1 X99.851 Y108.004 E.50205
G1 X99.851 Y86.235 E.77846
G1 X109.667 Y86.235 E.35105
G1 X109.779 Y86.197 E.0042
M73 P25 R1
M73 P25 R1
G1 X109.833 Y86.087 E.00439
G1 E-1.2 F2400
;WIPE_START
G1 F9000
G1 X109.851 Y85.235
G1 X110.998 Y85.235
;WIPE_END
G1 Z.847
G1 X101.421 Y86.717
G1 Z.847
G1 Z.447
G1 E1.2 F1800
M204 P2500
;TYPE:Sparse infill
;WIDTH:0.45
G1 F2945
G1 X100.516 Y87.622 E.04951
G1 X100.516 Y91.46 E.14847
G1 X105.076 Y86.9 E.24945
G1 X108.913 Y86.9 E.14847
G1 X100.516 Y95.298 E.45942
G1 X100.516 Y99.136 E.14847
G1 X113.225 Y86.427 E.69527
G1 X113.225 Y90.265 E.14847
M73 P26 R1
M73 P26 R1
G1 X100.516 Y102.974 E.69527
G1 X100.516 Y106.812 E.14847
G1 X113.225 Y94.103 E.69527
G1 X113.225 Y97.941 E.14847
G1 X103.827 Y107.339 E.51413
G1 X107.665 Y107.339 E.14847
G1 X113.225 Y101.779 E.30416
G1 X113.225 Y105.617 E.14847
M73 P27 R1
M73 P27 R1
G1 X111.32 Y107.522 E.10422
; stop printing object Cuerpo1 id:4947098641845190655 copy 0
;TIME_ELAPSED:42.072132

;LAYER_CHANGE
;Z:0.733333
;HEIGHT:0.286667
;BEFORE_LAYER_CHANGE
;0.733333
G92 E0

G1 E-1.2 F2400
;WIPE_START
G1 F9000
G1 X112.734 Y106.107
;WIPE_END
;_SET_FAN_SPEED_CHANGING_LAYER
; printing object Cuerpo1 id:4947098641845190655 copy 0
G1 X111.863 Y98.525 Z.847
G1 X110.379 Y85.608 Z.847
G1 Z.733
G1 E1.2 F1800
M204 P2000
;TYPE:Inner wall
;WIDTH:0.449999
G1 F3125
G1 X113.516 Y85.608 E.138
G1 X113.516 Y107.63 E.96862
G1 X100.224 Y107.63 E.58465
G1 X100.224 Y86.608 E.92463
G1 X109.671 Y86.608 E.41554
M73 P28 R1
M73 P28 R1
G1 X109.887 Y86.565 E.00966
G1 X110.118 Y86.381 E.01299
G1 X110.224 Y86.056 E.01505
G1 X110.224 Y85.608 E.01967
G1 X110.339 Y85.608 E.00504
G1 X109.851 Y86.056 F9000
M204 P1000
;TYPE:Outer wall
;WIDTH:0.419999
G1 F3125
G1 X109.851 Y85.235 E.03331
G1 X113.89 Y85.235 E.16394
G1 X113.89 Y108.004 E.92413
G1 X99.851 Y108.004 E.56982
G1 X99.851 Y86.235 E.88355
G1 X109.671 Y86.235 E.39861
M73 P29 R1
M73 P29 R1
G1 X109.78 Y86.198 E.00467
G1 X109.833 Y86.092 E.00482
G1 E-1.2 F2400
;WIPE_START
G1 F9000
G1 X109.851 Y85.235
G1 X110.994 Y85.235
;WIPE_END
G1 Z1.133
G1 X113.418 Y87.815
G1 Z1.133
G1 Z.733
G1 E1.2 F1800
M204 P2500
;TYPE:Sparse infill
;WIDTH:0.45
G1 F3125
G1 X111.851 Y86.248 E.09748
G1 X110.965 Y86.229 E.03896
G3 X110.824 Y86.248 I-.095 J-.173 E.00641
G3 X109.696 Y87.229 I-1.164 J-.2 E.07121
G1 X108.994 Y87.229 E.03087
G1 X113.235 Y91.47 E.2638
G1 X113.235 Y95.308 E.16881
G1 X105.156 Y87.229 E.50254
G1 X101.318 Y87.229 E.16881
M73 P30 R1
M73 P30 R1
G1 X113.235 Y99.146 E.74127
G1 X113.235 Y102.984 E.16881
G1 X100.864 Y90.613 E.76954
G1 X100.864 Y91.452 E.03691
G1 X100.505 Y91.094 E.0223
G1 X100.505 Y94.092 E.1319
G1 X113.235 Y106.822 E.79184
G1 X113.235 Y107.349 E.02317
G1 X109.924 Y107.349 E.14564
G1 X100.505 Y97.93 E.58586
G1 X100.505 Y101.768 E.16881
M73 P31 R1
M73 P31 R1
G1 X106.086 Y107.349 E.34712
G1 X102.248 Y107.349 E.16881
G1 X100.322 Y105.423 E.11978
G1 X100.534 Y90.719 F9000
;TYPE:Internal solid infill
;WIDTH:0.401519
G1 F3125
G1 X100.53 Y87.026 E.14218
G1 X100.553 Y86.914 E.00438
G1 X109.671 Y86.914 E.35102
G1 X110.019 Y86.841 E.01367
G2 X110.382 Y86.53 I-.327 J-.751 E.01867
G2 X110.56 Y85.944 I-17.407 J-5.6 E.02358
G3 X112.029 Y85.921 I.994 J16.246 E.05657
; stop printing object Cuerpo1 id:4947098641845190655 copy 0
;TIME_ELAPSED:49.116222

;LAYER_CHANGE
;Z:1.06
;HEIGHT:0.326667
;BEFORE_LAYER_CHANGE
;1.06
G92 E0

G1 E-1.2 F2400
;WIPE_START
G1 F9000
G1 X111.638 Y85.914
G1 X110.56 Y85.944
G1 X110.406 Y86.452
;WIPE_END
;_SET_FAN_SPEED_CHANGING_LAYER
; printing object Cuerpo1 id:4947098641845190655 copy 0
G1 X110.344 Y85.6 Z1.133
G1 Z1.06
G1 E1.2 F1800
M204 P2000
;TYPE:Inner wall
;WIDTH:0.449999
G1 F3772
G1 X113.525 Y85.6 E.15591
G1 X113.525 Y107.639 E1.08022
G1 X100.216 Y107.639 E.65235
M73 P32 R1
M73 P32 R1
G1 X100.216 Y86.6 E1.03121
G1 X109.676 Y86.6 E.46369
G1 X109.886 Y86.557 E.01053
G1 X110.112 Y86.377 E.01416
G1 X110.216 Y86.06 E.01635
G1 X110.216 Y85.6 E.02255
G1 X110.304 Y85.6 E.00433
G1 X109.851 Y86.06 F9000
M204 P1000
;TYPE:Outer wall
;WIDTH:0.419999
G1 F3600
G1 X109.851 Y85.235 E.03725
G1 X113.89 Y85.235 E.18234
G1 X113.89 Y108.004 E1.02787
G1 X99.851 Y108.004 E.63378
M73 P33 R1
M73 P33 R1
G1 X99.851 Y86.235 E.98272
G1 X109.676 Y86.235 E.44354
G1 X109.782 Y86.199 E.00507
G1 X109.833 Y86.096 E.00519
G1 E-1.2 F2400
;WIPE_START
G1 F9000
G1 X109.851 Y85.235
G1 X110.99 Y85.235
;WIPE_END
G1 Z1.46
G1 X108.119 Y90.712
G1 Z1.46
G1 Z1.06
G1 E1.2 F1800
M204 P500
;TYPE:Internal Bridge
;WIDTH:0.403433
;HEIGHT:0.389872
G1 F3772
G1 X110.418 Y88.413 E.16417
G1 X110.112 Y88.106 E.02186
G1 X112.031 Y86.187 E.13702
G1 X112.016 Y86.173 E.00103
M73 P34 R1
M73 P34 R1
G1 X107.938 Y90.251 E.2912
G1 X107.617 Y89.931 E.02289
G1 X111.652 Y85.896 E.2881
G1 X111.011 Y85.896 E.03238
G1 X105.378 Y91.529 E.40222
G1 X105.057 Y91.208 E.02289
G1 X109.37 Y86.896 E.30793
G1 X108.728 Y86.896 E.03238
G1 X104.736 Y90.888 E.28504
G1 X104.416 Y90.567 E.02289
G1 X108.087 Y86.896 E.26214
G1 X107.446 Y86.896 E.03238
G1 X104.095 Y90.247 E.23925
G1 X103.775 Y89.926 E.02289
G1 X106.805 Y86.896 E.21636
G1 X106.163 Y86.896 E.03238
M73 P35 R1
M73 P35 R1
G1 X103.454 Y89.605 E.19346
G1 X103.234 Y89.385 E.0157
G1 X101.315 Y91.304 E.13702
G1 X101.214 Y91.204 E.00719
G1 X105.522 Y86.896 E.30759
G1 X104.881 Y86.896 E.03238
G1 X100.894 Y90.883 E.2847
G1 X100.645 Y90.635 E.01774
G1 X100.524 Y90.611 E.00623
G1 X104.24 Y86.896 E.26529
G1 X103.598 Y86.896 E.03238
G1 X100.511 Y89.983 E.22041
G1 X100.511 Y89.342 E.03238
G1 X102.957 Y86.896 E.17463
G1 X102.316 Y86.896 E.03238
G1 X100.511 Y88.7 E.12884
G1 X100.511 Y88.059 E.03238
G1 X101.675 Y86.896 E.08305
G1 X101.033 Y86.896 E.03238
M73 P36 R1
M73 P36 R1
G1 X100.314 Y87.616 E.0514
G1 X100.312 Y91.664 F9000
M204 P2500
;TYPE:Sparse infill
;WIDTH:0.45
;HEIGHT:0.326667
G1 F3772
M106 S255
G1 X100.694 Y91.282 E.02646
G1 X101.315 Y91.903 E.04308
G1 X103.234 Y89.984 E.13302
G1 X104.532 Y91.282 E.08994
G1 X100.495 Y95.318 E.2798
G1 X100.495 Y99.156 E.18812
G1 X113.245 Y86.406 E.88381
G1 X113.245 Y90.244 E.18812
G1 X100.495 Y102.994 E.88381
G1 X100.495 Y106.832 E.18812
G1 X113.245 Y94.082 E.88381
G1 X113.245 Y97.92 E.18812
M73 P37 R1
M73 P37 R1
G1 X103.806 Y107.359 E.65429
G1 X107.644 Y107.359 E.18812
G1 X113.245 Y101.758 E.38825
G1 X113.245 Y105.596 E.18812
G1 X111.299 Y107.542 E.13491
; stop printing object Cuerpo1 id:4947098641845190655 copy 0
;TIME_ELAPSED:58.153946

;LAYER_CHANGE
;Z:1.42
;HEIGHT:0.36
;BEFORE_LAYER_CHANGE
;1.42
G92 E0

G1 E-1.2 F2400
;WIPE_START
G1 F9000
G1 X112.713 Y106.128
;WIPE_END
;_SET_FAN_SPEED_CHANGING_LAYER
; printing object Cuerpo1 id:4947098641845190655 copy 0
G1 X111.828 Y98.547 Z1.46
G1 X110.315 Y85.593 Z1.46
G1 Z1.42
G1 E1.2 F1800
M204 P2000
;TYPE:Inner wall
;WIDTH:0.45
G1 F3834
G1 X113.532 Y85.593 E.1705
G1 X113.532 Y107.646 E1.16879
G1 X100.208 Y107.646 E.70614
M73 P38 R1
M73 P38 R1
G1 X100.208 Y86.593 E1.1158
G1 X109.679 Y86.593 E.50195
G1 X109.886 Y86.551 E.01117
G1 X110.108 Y86.374 E.01503
G1 X110.208 Y86.064 E.01731
G1 X110.208 Y85.593 E.02496
G1 X110.275 Y85.593 E.00352
G1 X109.851 Y86.064 F9000
M204 P1000
;TYPE:Outer wall
;WIDTH:0.42
G1 F3600
G1 X109.851 Y85.235 E.04038
G1 X113.89 Y85.235 E.19684
G1 X113.89 Y108.004 E1.10959
G1 X99.851 Y108.004 E.68417
G1 X99.851 Y86.235 E1.06086
M73 P39 R1
M73 P39 R1
G1 X109.679 Y86.235 E.47898
G1 X109.784 Y86.2 E.00537
G1 X109.833 Y86.1 E.00544
G1 E-1.2 F2400
;WIPE_START
G1 F9000
G1 X109.851 Y85.235
G1 X110.986 Y85.235
;WIPE_END
G1 Z1.82
G1 X113.437 Y87.834
G1 Z1.82
G1 Z1.42
G1 E1.2 F1800
M204 P2500
;TYPE:Sparse infill
;WIDTH:0.45
G1 F3834
G1 X111.474 Y85.871 E.14716
G1 X110.487 Y85.871 E.05232
G3 X110.428 Y86.258 I-.625 J.104 E.02108
G1 X110.567 Y86.314 E.00791
G1 X110.565 Y88.8 E.13176
G1 X113.254 Y91.489 E.20154
G1 X113.254 Y95.327 E.20341
G1 X107.876 Y89.949 E.4031
G1 X104.038 Y89.949 E.20341
M73 P40 R1
M73 P40 R1
G1 X113.254 Y99.165 E.69076
G1 X113.254 Y103.003 E.20341
G1 X100.487 Y90.236 E.95694
G1 X100.487 Y94.074 E.20341
