;TIME:9360.29
;Filament used:29.72740m
;Layer height:0.200
; HEADER_BLOCK_START
; generated by Creality_Print V6.1.0.2041 on 2025-04-09 at 13:50:34
; total layer number: 13
; filament_density: 1.24
; filament_diameter: 1.75
; max_z_height: 4.11
; HEADER_BLOCK_END

; MINX = 0.00
; MINY = 5.50
; MINZ = 0.00
; MAXX = 220.00
; MAXY = 220.00
; MAXZ = 4.00

; THUMBNAIL_BLOCK_START

;
; THUMBNAIL_BLOCK_END

; THUMBNAIL_BLOCK_START

;
; THUMBNAIL_BLOCK_END

; external perimeters extrusion width = 0.42mm
; perimeters extrusion width = 0.45mm
; infill extrusion width = 0.45mm
; solid infill extrusion width = 0.42mm
; top infill extrusion width = 0.42mm
; first layer extrusion width = 0.50mm

; EXECUTABLE_BLOCK_START
M73 P0 R156
M201 X5000 Y5000 Z500 E5000
M203 X500 Y500 Z30 E100
M204 P5000 R2500 T5000 ; sets acceleration (P, T) and retract acceleration (R), mm/sec^2
M205 X10.00 Y10.00 Z0.40 E5.00 ; sets the jerk limits, mm/sec
;TYPE:Custom
M220 S100 ;Reset Feedrate 
M221 S100 ;Reset Flowrate 
 
M140 S60 ;Set final bed temp 
G28 ;Home 
 
G92 E0 ;Reset Extruder 
G1 Z2.0 F3000 ;Move Z Axis up 
M104 S205 ;Set final nozzle temp 
G1 X-2.1 Y20 Z0.28 F5000.0 ;Move to start position 
M190 S60 ;Wait for bed temp to stabilize 
M109 S205 ;Wait for nozzle temp to stabilize 
G1 X-2.1 Y145.0 Z0.28 F1500.0 E15 ;Draw the first line 
G1 X-2.4 Y145.0 Z0.28 F5000.0 ;Move to side a little 
M73 P0 R155
M73 P0 R155
G1 X-2.4 Y20 Z0.28 F1500.0 E30 ;Draw the second line 
G92 E0  ;Reset Extruder 
G1 E-1.0000 F1800 ;Retract a bit 
G1 Z2.0 F3000 ;Move Z Axis up 
G1 E0.0000 F1800
G90
G21
M83 ; use relative distances for extrusion
" "
G1 E-1.2 F2400
M106 S0
;LAYER_CHANGE
;Z:0.2
;HEIGHT:0.2
;BEFORE_LAYER_CHANGE
;0.2
G92 E0

;_SET_FAN_SPEED_CHANGING_LAYER
M204 P500
M205 X10 Y10
; printing object Cuerpo1 id:458752 copy 0
M204 T500
G1 Z.4 F9000
G1 X.229 Y215.729
G1 Z.2
G1 E1.2 F1800
;TYPE:Brim
;WIDTH:0.5
G1 X210 Y215.729 E7.57401
G1 X210.402 Y215.658 E.01473
G1 X210.743 Y215.476 E.01396
G1 X211.009 Y215.196 E.01396
G1 X211.25 Y214.729 E.01898
G1 X219.771 Y214.729 E.30768
G1 X219.771 Y216.1 E.04951
G1 X212.138 Y216.1 E.27561
G1 X211.972 Y216.171 E.00651
G1 X211.716 Y216.441 E.01343
G1 X211.28 Y216.753 E.01937
G1 X211.03 Y216.877 E.01009
G1 X210.529 Y217.037 E.01898
G1 X209.987 Y217.1 E.01971
G1 X.229 Y217.1 E7.57353
G1 X.229 Y215.769 E.04807
G1 X.733 Y216.219 F9000
G1 F1800
G1 X.823 Y216.186 E.00344
G1 X209.989 Y216.186 E7.55217
G1 X210.471 Y216.11 E.01759
G1 X210.628 Y216.056 E.00599
G1 X210.949 Y215.884 E.01317
G1 X211.081 Y215.783 E.00598
G1 X211.33 Y215.522 E.01303
G1 X211.495 Y215.251 E.01147
G1 X211.612 Y215.186 E.00485
G1 X219.177 Y215.186 E.27313
G1 X219.281 Y215.233 E.00413
G1 X219.314 Y215.323 E.00344
G1 X219.314 Y215.506 E.0066
G1 X219.267 Y215.61 E.00413
G1 X219.177 Y215.643 E.00344
G1 X212.152 Y215.643 E.25365
G1 X211.945 Y215.685 E.00763
G1 X211.805 Y215.745 E.0055
G1 X211.631 Y215.866 E.00763
G1 X211.404 Y216.102 E.01182
G1 X211.052 Y216.354 E.01562
G1 X210.867 Y216.448 E.0075
G1 X210.419 Y216.589 E.01696
G1 X209.952 Y216.643 E.01698
G1 X.823 Y216.643 E7.55083
G1 X.719 Y216.595 E.00413
G1 X.686 Y216.506 E.00344
G1 X.686 Y216.323 E.0066
G1 X.717 Y216.255 E.00269
G1 E-1.2 F2400
;WIPE_START
G1 F1800
G1 X.823 Y216.186
G1 X2.696 Y216.186
;WIPE_END
G1 X2.625 Y208.553 Z.6 F9000
G1 X.717 Y4.271 Z.6
G1 Z.2
G1 E1.2 F1800
G1 X.229 Y4.271 E.01762
G1 X.229 Y2.9 E.04951
G1 X209.991 Y2.9 E7.57368
G1 X210.261 Y2.922 E.00978
G1 X210.546 Y2.967 E.0104
G1 X211.059 Y3.135 E.0195
G1 X211.307 Y3.263 E.01007
G1 X211.74 Y3.581 E.01942
G1 X211.976 Y3.829 E.01234
G1 X212.141 Y3.9 E.00652
G1 X219.771 Y3.9 E.27549
G1 X219.771 Y5.271 E.04951
G1 X211.245 Y5.271 E.30786
G1 X211.018 Y4.816 E.01838
G1 X210.754 Y4.533 E.01396
G1 X210.416 Y4.346 E.01396
G1 X210 Y4.271 E.01525
G1 X.757 Y4.271 E7.55494
G1 X.823 Y3.814 F9000
G1 F1800
G1 X.719 Y3.767 E.00413
G1 X.686 Y3.677 E.00344
G1 X.686 Y3.494 E.0066
G1 X.733 Y3.39 E.00413
G1 X.823 Y3.357 E.00344
G1 X209.978 Y3.358 E7.55177
G1 X210.427 Y3.411 E.01631
M73 P0 R154
M73 P0 R154
G1 X210.892 Y3.563 E.01766
G1 X211.075 Y3.659 E.00745
G1 X211.427 Y3.918 E.01579
G1 X211.634 Y4.133 E.01079
G1 X211.808 Y4.254 E.00764
G1 X211.948 Y4.315 E.00551
G1 X212.155 Y4.357 E.00764
G1 X219.177 Y4.357 E.25353
G1 X219.281 Y4.405 E.00413
G1 X219.314 Y4.494 E.00344
G1 X219.314 Y4.677 E.0066
G1 X219.267 Y4.781 E.00413
G1 X219.177 Y4.814 E.00344
G1 X211.613 Y4.814 E.27313
G1 X211.495 Y4.748 E.00488
G1 X211.342 Y4.494 E.0107
G1 X211.096 Y4.23 E.01305
G1 X210.966 Y4.128 E.00598
G1 X210.646 Y3.952 E.01316
G1 X210.487 Y3.895 E.00611
G1 X209.989 Y3.814 E.01822
G1 X.863 Y3.814 E7.55071
G1 E-1.2 F2400
;WIPE_START
G1 F9000
G1 X.719 Y3.767
G1 X.686 Y3.677
G1 X.686 Y3.494
G1 X.733 Y3.39
G1 X.823 Y3.357
G1 X2.183 Y3.357
;WIPE_END
G1 X7.531 Y8.803 Z.6
G1 X208.694 Y213.643 Z.6
G1 Z.2
G1 E1.2 F1800
;TYPE:Inner wall
;WIDTH:0.499999
G1 X.857 Y213.643 E7.50414
G1 X.857 Y6.357 E7.48425
G1 X209.143 Y6.357 E7.52036
G1 X209.143 Y6.671 E.01135
M73 P1 R154
M73 P1 R154
G1 X209.237 Y7.018 E.01297
G2 X209.829 Y7.357 I.636 J-.424 E.02551
G1 X219.143 Y7.357 E.3363
G1 X219.143 Y212.643 E7.41204
G1 X209.751 Y212.643 E.33911
G1 X209.442 Y212.762 E.01197
G1 X209.237 Y212.982 E.01083
G1 X209.143 Y213.329 E.01297
G1 X209.143 Y213.643 E.01135
G1 X208.734 Y213.643 E.01477
G1 X209.6 Y213.329 F9000
;TYPE:Outer wall
G1 F1800
G1 X209.6 Y214.1 E.02785
G1 X.4 Y214.1 E7.55337
G1 X.4 Y5.9 E7.51726
G1 X209.6 Y5.9 E7.55337
G1 X209.6 Y6.671 E.02785
M73 P1 R153
M73 P1 R153
G1 X209.671 Y6.837 E.00648
G1 X209.829 Y6.9 E.00615
G1 X219.6 Y6.9 E.35281
G1 X219.6 Y213.1 E7.44505
G1 X209.829 Y213.1 E.35281
G1 X209.671 Y213.163 E.00615
G1 X209.616 Y213.292 E.00504
G1 E-1.2 F2400
;WIPE_START
G1 F9000
G1 X209.6 Y214.1
G1 X208.408 Y214.1
;WIPE_END
G1 Z.6
G1 X219.008 Y9.454
G1 Z.6
G1 Z.2
G1 E1.2 F1800
;TYPE:Sparse infill
;WIDTH:0.5
G1 X217.228 Y7.674 E.09089
G1 X214.925 Y7.674 E.08317
G1 X218.825 Y11.574 E.19915
G1 X218.825 Y13.877 E.08314
G1 X212.622 Y7.673 E.31677
G1 X210.318 Y7.673 E.08317
G1 X218.825 Y16.18 E.43438
G1 X218.825 Y18.482 E.08314
G1 X207.018 Y6.675 E.60291
G1 X204.715 Y6.675 E.08314
G1 X218.825 Y20.785 E.7205
G1 X218.825 Y23.088 E.08314
G1 X202.412 Y6.675 E.83808
G1 X200.109 Y6.675 E.08314
G1 X218.825 Y25.391 E.95566
G1 X218.825 Y27.694 E.08314
G1 X197.806 Y6.675 E1.07325
G1 X195.504 Y6.675 E.08314
G1 X218.825 Y29.996 E1.19083
G1 X218.825 Y32.299 E.08314
G1 X193.201 Y6.675 E1.30842
G1 X190.898 Y6.675 E.08314
G1 X218.825 Y34.602 E1.426
G1 X218.825 Y36.905 E.08314
G1 X188.595 Y6.675 E1.54359
G1 X186.292 Y6.675 E.08314
G1 X218.825 Y39.208 E1.66117
G1 X218.825 Y41.51 E.08314
G1 X183.99 Y6.675 E1.77875
G1 X181.687 Y6.675 E.08314
G1 X218.825 Y43.813 E1.89634
G1 X218.825 Y46.116 E.08314
G1 X179.384 Y6.675 E2.01392
G1 X177.081 Y6.675 E.08314
G1 X218.825 Y48.419 E2.13151
G1 X218.825 Y50.721 E.08314
G1 X174.779 Y6.675 E2.24909
G1 X172.476 Y6.675 E.08314
G1 X218.825 Y53.024 E2.36667
G1 X218.825 Y55.327 E.08314
G1 X170.173 Y6.675 E2.48426
G1 X167.87 Y6.675 E.08314
G1 X218.825 Y57.63 E2.60184
G1 X218.825 Y59.933 E.08314
G1 X165.567 Y6.675 E2.71943
G1 X163.265 Y6.675 E.08314
G1 X218.825 Y62.235 E2.83701
G1 X218.825 Y64.538 E.08314
G1 X160.962 Y6.675 E2.9546
G1 X158.659 Y6.675 E.08314
G1 X218.825 Y66.841 E3.07218
G1 X218.825 Y69.144 E.08314
G1 X156.356 Y6.675 E3.18976
G1 X154.053 Y6.675 E.08314
G1 X218.825 Y71.447 E3.30735
G1 X218.825 Y73.749 E.08314
M73 P1 R152
M73 P1 R152
G1 X151.751 Y6.675 E3.42493
G1 X149.448 Y6.675 E.08314
G1 X218.825 Y76.052 E3.54252
G1 X218.825 Y78.355 E.08314
M73 P2 R152
M73 P2 R152
G1 X147.145 Y6.675 E3.6601
G1 X144.842 Y6.675 E.08314
G1 X218.825 Y80.658 E3.77768
G1 X218.825 Y82.961 E.08314
G1 X142.539 Y6.675 E3.89527
G1 X140.237 Y6.675 E.08314
G1 X218.825 Y85.263 E4.01285
G1 X218.825 Y87.566 E.08314
G1 X137.934 Y6.675 E4.13044
G1 X135.631 Y6.675 E.08314
G1 X218.825 Y89.869 E4.24802
G1 X218.825 Y92.172 E.08314
G1 X133.328 Y6.675 E4.3656
G1 X131.026 Y6.675 E.08314
G1 X218.825 Y94.474 E4.48319
G1 X218.825 Y96.777 E.08314
G1 X128.723 Y6.675 E4.60077
G1 X126.42 Y6.675 E.08314
G1 X218.825 Y99.08 E4.71836
G1 X218.825 Y101.383 E.08314
G1 X124.117 Y6.675 E4.83594
G1 X121.814 Y6.675 E.08314
G1 X218.825 Y103.686 E4.95353
G1 X218.825 Y105.988 E.08314
G1 X119.512 Y6.675 E5.07111
G1 X117.209 Y6.675 E.08314
M73 P2 R151
M73 P2 R151
G1 X218.825 Y108.291 E5.18869
G1 X218.825 Y110.594 E.08314
G1 X114.906 Y6.675 E5.30628
G1 X112.603 Y6.675 E.08314
G1 X218.825 Y112.897 E5.42386
G1 X218.825 Y115.2 E.08314
G1 X110.3 Y6.675 E5.54145
G1 X107.998 Y6.675 E.08314
G1 X218.825 Y117.502 E5.65903
G1 X218.825 Y119.805 E.08314
G1 X105.695 Y6.675 E5.77661
G1 X103.392 Y6.675 E.08314
G1 X218.825 Y122.108 E5.8942
G1 X218.825 Y124.411 E.08314
G1 X101.089 Y6.675 E6.01178
G1 X98.786 Y6.675 E.08314
M73 P3 R151
M73 P3 R151
G1 X218.825 Y126.714 E6.12937
G1 X218.825 Y129.016 E.08314
G1 X96.484 Y6.675 E6.24695
G1 X94.181 Y6.675 E.08314
G1 X218.825 Y131.319 E6.36453
G1 X218.825 Y133.622 E.08314
M73 P3 R150
M73 P3 R150
G1 X91.878 Y6.675 E6.48212
G1 X89.575 Y6.675 E.08314
G1 X218.825 Y135.925 E6.5997
G1 X218.825 Y138.227 E.08314
G1 X87.273 Y6.675 E6.71729
G1 X84.97 Y6.675 E.08314
G1 X218.825 Y140.53 E6.83487
G1 X218.825 Y142.833 E.08314
G1 X82.667 Y6.675 E6.95246
G1 X80.364 Y6.675 E.08314
G1 X218.825 Y145.136 E7.07004
G1 X218.825 Y147.439 E.08314
G1 X78.061 Y6.675 E7.18762
G1 X75.759 Y6.675 E.08314
G1 X218.825 Y149.741 E7.30521
G1 X218.825 Y152.044 E.08314
G1 X73.456 Y6.675 E7.42279
G1 X71.153 Y6.675 E.08314
M73 P3 R149
M73 P3 R149
G1 X218.825 Y154.347 E7.54038
G1 X218.825 Y156.65 E.08314
G1 X68.85 Y6.675 E7.65796
G1 X66.547 Y6.675 E.08314
M73 P4 R149
M73 P4 R149
G1 X218.825 Y158.953 E7.77554
G1 X218.825 Y161.255 E.08314
G1 X64.245 Y6.675 E7.89313
G1 X61.942 Y6.675 E.08314
G1 X218.825 Y163.558 E8.01071
G1 X218.825 Y165.861 E.08314
G1 X59.639 Y6.675 E8.1283
G1 X57.336 Y6.675 E.08314
G1 X218.825 Y168.164 E8.24588
G1 X218.825 Y170.467 E.08314
G1 X55.033 Y6.675 E8.36347
G1 X52.731 Y6.675 E.08314
M73 P4 R148
M73 P4 R148
G1 X218.825 Y172.769 E8.48105
G1 X218.825 Y175.072 E.08314
G1 X50.428 Y6.675 E8.59863
G1 X48.125 Y6.675 E.08314
G1 X218.825 Y177.375 E8.71622
G1 X218.825 Y179.678 E.08314
G1 X45.822 Y6.675 E8.8338
G1 X43.52 Y6.675 E.08314
G1 X218.825 Y181.98 E8.95139
G1 X218.825 Y184.283 E.08314
G1 X41.217 Y6.675 E9.06897
G1 X38.914 Y6.675 E.08314
M73 P5 R148
M73 P5 R148
G1 X218.825 Y186.586 E9.18655
G1 X218.825 Y188.889 E.08314
G1 X36.611 Y6.675 E9.30414
G1 X34.308 Y6.675 E.08314
M73 P5 R147
M73 P5 R147
G1 X218.825 Y191.192 E9.42172
G1 X218.825 Y193.494 E.08314
G1 X32.006 Y6.675 E9.53931
G1 X29.703 Y6.675 E.08314
G1 X218.825 Y195.797 E9.65689
G1 X218.825 Y198.1 E.08314
G1 X27.4 Y6.675 E9.77447
G1 X25.097 Y6.675 E.08314
G1 X218.825 Y200.403 E9.89206
G1 X218.825 Y202.706 E.08314
G1 X22.794 Y6.675 E10.00964
G1 X20.492 Y6.675 E.08314
M73 P5 R146
M73 P5 R146
G1 X218.825 Y205.008 E10.12723
G1 X218.825 Y207.311 E.08314
G1 X18.189 Y6.675 E10.24481
G1 X15.886 Y6.675 E.08314
M73 P6 R146
M73 P6 R146
G1 X218.825 Y209.614 E10.3624
G1 X218.825 Y211.917 E.08314
G1 X13.583 Y6.675 E10.47998
G1 X11.28 Y6.675 E.08314
G1 X216.931 Y212.326 E10.50086
G1 X214.629 Y212.326 E.08312
G1 X8.978 Y6.675 E10.50089
G1 X6.675 Y6.675 E.08314
M73 P6 R145
M73 P6 R145
G1 X212.327 Y212.327 E10.50092
G1 X210.025 Y212.327 E.08312
G1 X4.372 Y6.675 E10.50095
G1 X2.069 Y6.675 E.08314
G1 X208.72 Y213.325 E10.55189
G1 X206.417 Y213.325 E.08314
G1 X1.175 Y8.083 E10.47998
G1 X1.175 Y10.386 E.08314
G1 X204.114 Y213.325 E10.3624
G1 X201.811 Y213.325 E.08314
G1 X1.175 Y12.689 E10.24481
G1 X1.175 Y14.992 E.08314
M73 P7 R145
M73 P7 R145
G1 X199.508 Y213.325 E10.12723
G1 X197.206 Y213.325 E.08314
M73 P7 R144
M73 P7 R144
G1 X1.175 Y17.294 E10.00964
G1 X1.175 Y19.597 E.08314
G1 X194.903 Y213.325 E9.89206
G1 X192.6 Y213.325 E.08314
G1 X1.175 Y21.9 E9.77447
G1 X1.175 Y24.203 E.08314
G1 X190.297 Y213.325 E9.65689
G1 X187.994 Y213.325 E.08314
G1 X1.175 Y26.506 E9.53931
G1 X1.175 Y28.808 E.08314
G1 X185.692 Y213.325 E9.42172
G1 X183.389 Y213.325 E.08314
M73 P7 R143
M73 P7 R143
G1 X1.175 Y31.111 E9.30414
G1 X1.175 Y33.414 E.08314
G1 X181.086 Y213.325 E9.18655
G1 X178.783 Y213.325 E.08314
G1 X1.175 Y35.717 E9.06897
G1 X1.175 Y38.02 E.08314
M73 P8 R143
M73 P8 R143
G1 X176.48 Y213.325 E8.95139
G1 X174.178 Y213.325 E.08314
G1 X1.175 Y40.322 E8.8338
G1 X1.175 Y42.625 E.08314
G1 X171.875 Y213.325 E8.71622
G1 X169.572 Y213.325 E.08314
G1 X1.175 Y44.928 E8.59863
G1 X1.175 Y47.231 E.08314
M73 P8 R142
M73 P8 R142
G1 X167.269 Y213.325 E8.48105
G1 X164.967 Y213.325 E.08314
G1 X1.175 Y49.533 E8.36347
G1 X1.175 Y51.836 E.08314
G1 X162.664 Y213.325 E8.24588
G1 X160.361 Y213.325 E.08314
G1 X1.175 Y54.139 E8.1283
G1 X1.175 Y56.442 E.08314
G1 X158.058 Y213.325 E8.01071
G1 X155.755 Y213.325 E.08314
G1 X1.175 Y58.745 E7.89313
G1 X1.175 Y61.047 E.08314
G1 X153.453 Y213.325 E7.77554
G1 X151.15 Y213.325 E.08314
G1 X1.175 Y63.35 E7.65796
G1 X1.175 Y65.653 E.08314
M73 P9 R141
M73 P9 R141
G1 X148.847 Y213.325 E7.54038
G1 X146.544 Y213.325 E.08314
G1 X1.175 Y67.956 E7.42279
G1 X1.175 Y70.259 E.08314
G1 X144.241 Y213.325 E7.30521
G1 X141.939 Y213.325 E.08314
G1 X1.175 Y72.561 E7.18762
G1 X1.175 Y74.864 E.08314
G1 X139.636 Y213.325 E7.07004
G1 X137.333 Y213.325 E.08314
G1 X1.175 Y77.167 E6.95246
G1 X1.175 Y79.47 E.08314
G1 X135.03 Y213.325 E6.83487
G1 X132.727 Y213.325 E.08314
G1 X1.175 Y81.773 E6.71729
G1 X1.175 Y84.075 E.08314
G1 X130.425 Y213.325 E6.5997
G1 X128.122 Y213.325 E.08314
M73 P9 R140
M73 P9 R140
G1 X1.175 Y86.378 E6.48212
G1 X1.175 Y88.681 E.08314
G1 X125.819 Y213.325 E6.36453
G1 X123.516 Y213.325 E.08314
G1 X1.175 Y90.984 E6.24695
G1 X1.175 Y93.286 E.08314
G1 X121.214 Y213.325 E6.12937
G1 X118.911 Y213.325 E.08314
G1 X1.175 Y95.589 E6.01178
G1 X1.175 Y97.892 E.08314
G1 X116.608 Y213.325 E5.8942
G1 X114.305 Y213.325 E.08314
M73 P10 R140
M73 P10 R140
G1 X1.175 Y100.195 E5.77661
G1 X1.175 Y102.498 E.08314
G1 X112.002 Y213.325 E5.65903
G1 X109.7 Y213.325 E.08314
G1 X1.175 Y104.8 E5.54145
G1 X1.175 Y107.103 E.08314
G1 X107.397 Y213.325 E5.42386
G1 X105.094 Y213.325 E.08314
G1 X1.175 Y109.406 E5.30628
G1 X1.175 Y111.709 E.08314
M73 P10 R139
M73 P10 R139
G1 X102.791 Y213.325 E5.18869
G1 X100.488 Y213.325 E.08314
G1 X1.175 Y114.012 E5.07111
G1 X1.175 Y116.314 E.08314
G1 X98.186 Y213.325 E4.95353
G1 X95.883 Y213.325 E.08314
G1 X1.175 Y118.617 E4.83594
G1 X1.175 Y120.92 E.08314
G1 X93.58 Y213.325 E4.71836
G1 X91.277 Y213.325 E.08314
G1 X1.175 Y123.223 E4.60077
G1 X1.175 Y125.526 E.08314
G1 X88.974 Y213.325 E4.48319
G1 X86.672 Y213.325 E.08314
G1 X1.175 Y127.828 E4.3656
G1 X1.175 Y130.131 E.08314
G1 X84.369 Y213.325 E4.24802
G1 X82.066 Y213.325 E.08314
G1 X1.175 Y132.434 E4.13044
G1 X1.175 Y134.737 E.08314
G1 X79.763 Y213.325 E4.01285
G1 X77.461 Y213.325 E.08314
G1 X1.175 Y137.039 E3.89527
G1 X1.175 Y139.342 E.08314
G1 X75.158 Y213.325 E3.77768
G1 X72.855 Y213.325 E.08314
G1 X1.175 Y141.645 E3.6601
G1 X1.175 Y143.948 E.08314
M73 P10 R138
M73 P10 R138
G1 X70.552 Y213.325 E3.54252
G1 X68.249 Y213.325 E.08314
G1 X1.175 Y146.251 E3.42493
G1 X1.175 Y148.553 E.08314
M73 P11 R138
M73 P11 R138
G1 X65.947 Y213.325 E3.30735
G1 X63.644 Y213.325 E.08314
G1 X1.175 Y150.856 E3.18976
G1 X1.175 Y153.159 E.08314
G1 X61.341 Y213.325 E3.07218
G1 X59.038 Y213.325 E.08314
G1 X1.175 Y155.462 E2.9546
G1 X1.175 Y157.765 E.08314
G1 X56.735 Y213.325 E2.83701
G1 X54.433 Y213.325 E.08314
G1 X1.175 Y160.067 E2.71943
G1 X1.175 Y162.37 E.08314
G1 X52.13 Y213.325 E2.60184
G1 X49.827 Y213.325 E.08314
G1 X1.175 Y164.673 E2.48426
G1 X1.175 Y166.976 E.08314
G1 X47.524 Y213.325 E2.36667
G1 X45.221 Y213.325 E.08314
G1 X1.175 Y169.279 E2.24909
G1 X1.175 Y171.581 E.08314
G1 X42.919 Y213.325 E2.13151
G1 X40.616 Y213.325 E.08314
G1 X1.175 Y173.884 E2.01392
G1 X1.175 Y176.187 E.08314
G1 X38.313 Y213.325 E1.89634
G1 X36.01 Y213.325 E.08314
G1 X1.175 Y178.49 E1.77875
G1 X1.175 Y180.792 E.08314
G1 X33.708 Y213.325 E1.66117
G1 X31.405 Y213.325 E.08314
G1 X1.175 Y183.095 E1.54359
G1 X1.175 Y185.398 E.08314
G1 X29.102 Y213.325 E1.426
