;TIME:3880.67
;Filament used:7.51862m
;Layer height:0.200
; HEADER_BLOCK_START
; generated by Creality_Print V6.1.0.2041 on 2025-04-07 at 13:42:19
; total layer number: 54
; filament_density: 1.24
; filament_diameter: 1.75
; max_z_height: 10.80
; HEADER_BLOCK_END

; MINX = 65.55
; MINY = 2.50
; MINZ = 0.00
; MAXX = 154.45
; MAXY = 217.50
; MAXZ = 223.00

; THUMBNAIL_BLOCK_START

;
; THUMBNAIL_BLOCK_END

; THUMBNAIL_BLOCK_START

;
; THUMBNAIL_BLOCK_END

; external perimeters extrusion width = 0.42mm
; perimeters extrusion width = 0.45mm
; infill extrusion width = 0.45mm
; solid infill extrusion width = 0.42mm
; top infill extrusion width = 0.42mm
; first layer extrusion width = 0.50mm

; external perimeters extrusion width = 0.42mm
; perimeters extrusion width = 0.45mm
; infill extrusion width = 0.45mm
; solid infill extrusion width = 0.42mm
; top infill extrusion width = 0.42mm
; first layer extrusion width = 0.50mm

; EXECUTABLE_BLOCK_START
M73 P0 R64
M201 X5000 Y5000 Z500 E5000
M203 X500 Y500 Z30 E100
M204 P5000 R2500 T5000 ; sets acceleration (P, T) and retract acceleration (R), mm/sec^2
M205 X10.00 Y10.00 Z0.40 E5.00 ; sets the jerk limits, mm/sec
;TYPE:Custom
M220 S100 ;Reset Feedrate 
M221 S100 ;Reset Flowrate 
 
M140 S60 ;Set final bed temp 
G28 ;Home 
 
G92 E0 ;Reset Extruder 
G1 Z2.0 F3000 ;Move Z Axis up 
M104 S205 ;Set final nozzle temp 
G1 X-2.1 Y20 Z0.28 F5000.0 ;Move to start position 
M190 S60 ;Wait for bed temp to stabilize 
M109 S205 ;Wait for nozzle temp to stabilize 
G1 X-2.1 Y145.0 Z0.28 F1500.0 E15 ;Draw the first line 
G1 X-2.4 Y145.0 Z0.28 F5000.0 ;Move to side a little 
G1 X-2.4 Y20 Z0.28 F1500.0 E30 ;Draw the second line 
G92 E0  ;Reset Extruder 
G1 E-1.0000 F1800 ;Retract a bit 
G1 Z2.0 F3000 ;Move Z Axis up 
G1 E0.0000 F1800
G90
G21
M83 ; use relative distances for extrusion
" "
G1 E-1.2 F2400
M106 S0
;LAYER_CHANGE
;Z:0.2
;HEIGHT:0.2
;BEFORE_LAYER_CHANGE
;0.2
G92 E0

;_SET_FAN_SPEED_CHANGING_LAYER
M204 P500
M205 X10 Y10
M204 T500
G1 Z.4 F9000
G1 X63.093 Y3.5
G1 Z.2
G1 E1.2 F1800
;TYPE:Skirt
;WIDTH:0.5
G1 F3000
G1 X63.485 Y2.169 E.0501
G1 X64.954 Y1.116 E.06526
G1 X68.954 Y.116 E.14887
G1 X69.55 Y.043 E.02168
G1 X154.45 Y.043 E3.0654
G1 X155.781 Y.435 E.0501
G1 X156.688 Y1.485 E.0501
G1 X156.907 Y2.5 E.03748
G1 X156.907 Y217.5 E7.76279
G1 X156.515 Y218.831 E.0501
G1 X155.465 Y219.738 E.0501
G1 X154.45 Y219.957 E.03748
G1 X69.55 Y219.957 E3.0654
G1 X68.954 Y219.884 E.02168
G1 X64.954 Y218.884 E.14887
G1 X63.758 Y218.181 E.0501
G1 X63.093 Y216.5 E.06526
G1 X63.093 Y3.54 E7.68914
; printing object Cuerpo1 id:0 copy 0
G1 E-1.2 F2400
;WIPE_START
G1 F9000
G1 X63.485 Y2.169
G1 X63.951 Y1.835
;WIPE_END
G1 X66.896 Y8.876 Z.6
G1 X153.64 Y216.306 Z.6
G1 Z.2
G1 E1.2 F1800
;TYPE:Inner wall
;WIDTH:0.42552
G1 X153.63 Y216.704 E.01202
G1 X153.133 Y216.738 E.01508
G1 X153.234 Y216.62 E.00472
G2 X153.292 Y216 I-9.354 J-1.176 E.01881
;WIDTH:0.396715
G1 X153.334 Y215.504 E.01392
;WIDTH:0.367909
G1 X153.337 Y214.29 E.03116
;WIDTH:0.365904
G1 X153.66 Y214.29 E.00823
G1 X153.66 Y214.452 E.00412
;WIDTH:0.367909
G1 X153.659 Y215.54 E.02794
;WIDTH:0.396715
G1 X153.645 Y216.122 E.01627
;WIDTH:0.42552
G1 X153.641 Y216.266 E.00437
G1 E-1.2 F2400
;WIPE_START
G1 F9000
G1 X153.63 Y216.704
G1 X153.133 Y216.738
G1 X153.234 Y216.62
G1 X153.292 Y216
G1 X153.316 Y215.716
;WIPE_END
G1 X145.791 Y214.44 Z.6
G1 X80.29 Y203.339 Z.6
G1 Z.2
G1 E1.2 F1800
;WIDTH:0.499999
G1 X80.379 Y203.357 E.00325
G1 X149.693 Y203.357 E2.50266
G1 X149.693 Y215.064 E.42271
G1 X149.745 Y216.114 E.03793
G1 X149.834 Y216.654 E.01979
G1 X149.885 Y216.703 E.00255
G2 X148.457 Y216.643 I-1.506 J18.861 E.05161
G1 X70.407 Y216.643 E2.81808
G1 X70.407 Y213.329 E.11967
G1 X70.377 Y213.127 E.00736
G1 X70.249 Y212.891 E.00968
G1 X69.997 Y212.701 E.01143
G1 X69.721 Y212.643 E.01016
G1 X67.379 Y212.643 E.08459
G1 X66.967 Y212.78 E.01566
G1 X66.851 Y213.054 E.01075
;WIDTH:0.45719
G1 X66.736 Y213.329 E.00974
;WIDTH:0.414381
G1 X66.736 Y215.686 E.06917
G1 X66.364 Y215.686 E.0109
G1 X66.364 Y213.329 E.06917
;WIDTH:0.45719
G1 X66.386 Y212.914 E.01357
;WIDTH:0.499999
G1 X66.407 Y212.5 E.01498
G1 X66.407 Y7.5 E7.40172
G1 X66.386 Y7.086 E.01498
M73 P1 R64
;WIDTH:0.45719
M73 P1 R64
G1 X66.364 Y6.671 E.01357
;WIDTH:0.414381
G1 X66.364 Y4.314 E.06917
G1 X66.736 Y4.314 E.0109
G1 X66.736 Y6.77 E.07207
;WIDTH:0.45719
G1 X66.851 Y6.995 E.00827
M73 P1 R63
;WIDTH:0.499999
M73 P1 R63
G1 X66.967 Y7.22 E.00913
G1 X67.379 Y7.357 E.01566
G1 X69.721 Y7.357 E.08459
G1 X69.923 Y7.327 E.00736
G1 X70.159 Y7.199 E.00968
G1 X70.349 Y6.947 E.01143
G1 X70.407 Y6.671 E.01016
G1 X70.407 Y3.357 E.11967
G1 X148.463 Y3.357 E2.81829
G2 X149.876 Y3.298 I.192 J-12.374 E.05109
G1 X149.834 Y3.346 E.0023
G1 X149.736 Y3.969 E.02278
G1 X149.693 Y5 E.03725
G1 X149.693 Y16.643 E.4204
G1 X80.379 Y16.643 E2.50266
G1 X80.169 Y16.676 E.00767
G1 X79.941 Y16.801 E.00937
G1 X79.75 Y17.054 E.01145
G1 X79.693 Y17.329 E.01013
G1 X79.693 Y202.671 E6.69198
G1 X79.726 Y202.881 E.00767
G1 X79.851 Y203.109 E.00937
G1 X80.104 Y203.3 E.01145
G1 X80.251 Y203.33 E.00543
G1 E-1.2 F2400
;WIPE_START
G1 F9000
G1 X80.379 Y203.357
G1 X82.249 Y203.357
;WIPE_END
G1 X84.832 Y196.175 Z.6
G1 X153.659 Y4.852 Z.6
G1 Z.2
G1 E1.2 F1800
;WIDTH:0.367909
G1 X153.66 Y5.71 E.02202
;WIDTH:0.365904
G1 X153.338 Y5.71 E.00823
G1 X153.337 Y5.549 E.0041
;WIDTH:0.367909
G1 X153.334 Y4.456 E.02806
;WIDTH:0.396715
G1 X153.284 Y3.918 E.0151
;WIDTH:0.42552
G1 X153.234 Y3.38 E.01633
G1 X153.111 Y3.26 E.00521
G1 X153.63 Y3.296 E.01573
G2 X153.645 Y3.989 I12.196 J.093 E.02093
;WIDTH:0.396715
G1 X153.659 Y4.496 E.01418
;WIDTH:0.367909
G1 X153.659 Y4.812 E.00812
G1 E-1.2 F2400
;WIPE_START
G1 F9000
G1 X153.66 Y5.71
G1 X153.338 Y5.71
G1 X153.337 Y5.549
G1 X153.335 Y4.93
;WIPE_END
G1 X150.686 Y12.088 Z.6
G1 X80.15 Y202.671 Z.6
G1 Z.2
G1 E1.2 F1800
;TYPE:Outer wall
;WIDTH:0.499999
G1 X80.217 Y202.833 E.00632
G1 X80.379 Y202.9 E.00632
G1 X150.15 Y202.9 E2.51917
G1 X150.15 Y215.024 E.43776
G1 X150.196 Y216.039 E.03668
G1 X150.285 Y216.58 E.01979
G1 X150.51 Y216.771 E.01067
G1 X152.607 Y216.772 E.07569
G1 X152.817 Y216.57 E.01053
G2 X152.943 Y215.502 I-339.058 J-40.424 E.03882
G1 X152.949 Y213.9 E.05785
G1 X154.05 Y213.9 E.03975
G1 X154.05 Y217.11 E.11589
G2 X152.429 Y217.229 I.207 J13.956 E.05873
G1 X150.469 Y217.227 E.07074
G2 X148.457 Y217.1 I-2.005 J15.795 E.07284
G1 X69.95 Y217.1 E2.83458
G1 X69.95 Y213.329 E.13617
G1 X69.883 Y213.167 E.00632
G1 X69.721 Y213.1 E.00632
G1 X67.379 Y213.1 E.08459
G1 X67.241 Y213.146 E.00522
G1 X67.15 Y213.329 E.00738
G1 X67.15 Y216.1 E.10007
G1 X65.95 Y216.1 E.04333
G1 X65.95 Y3.9 E7.66168
G1 X67.15 Y3.9 E.04333
G1 X67.15 Y6.671 E.10007
G1 X67.241 Y6.854 E.00738
G1 X67.379 Y6.9 E.00522
G1 X69.721 Y6.9 E.08459
G1 X69.883 Y6.833 E.00632
G1 X69.95 Y6.671 E.00632
G1 X69.95 Y2.9 E.13617
G1 X148.459 Y2.9 E2.83465
G2 X150.51 Y2.773 I-.033 J-17.187 E.07423
G1 X152.494 Y2.771 E.07165
G2 X154.05 Y2.89 I1.617 J-10.936 E.05638
G1 X154.05 Y6.1 E.11589
G1 X152.949 Y6.1 E.03975
G1 X152.943 Y4.485 E.05832
G1 X152.817 Y3.43 E.03835
G1 X152.613 Y3.234 E.01024
G1 X150.487 Y3.229 E.07675
G1 X150.285 Y3.42 E.01004
G1 X150.193 Y3.988 E.02078
G1 X150.15 Y5 E.03655
G1 X150.15 Y17.1 E.4369
G1 X80.379 Y17.1 E2.51917
G1 X80.217 Y17.167 E.00632
M73 P2 R63
M73 P2 R63
G1 X80.15 Y17.329 E.00632
G1 X80.15 Y202.631 E6.69054
G1 E-1.2 F2400
;WIPE_START
G1 F9000
G1 X80.217 Y202.833
G1 X80.379 Y202.9
G1 X81.991 Y202.9
;WIPE_END
G1 Z.6
G1 X148.761 Y3.49
G1 Z.6
G1 Z.2
G1 E1.2 F1800
;TYPE:Bottom surface
;WIDTH:0.500569
G1 F4800
G1 X149.387 Y4.116 E.03201
G1 X149.361 Y4.738 E.02249
G1 X148.323 Y3.7 E.05308
G1 X147.676 Y3.7 E.0234
G1 X149.351 Y5.374 E.08562
G1 X149.351 Y6.022 E.0234
G1 X147.029 Y3.7 E.11871
G1 X146.381 Y3.7 E.0234
G1 X149.35 Y6.669 E.15179
G1 X149.35 Y7.316 E.0234
G1 X145.734 Y3.7 E.18488
G1 X145.087 Y3.7 E.0234
G1 X149.35 Y7.963 E.21797
G1 X149.35 Y8.61 E.0234
G1 X144.44 Y3.7 E.25106
G1 X143.793 Y3.7 E.0234
G1 X149.35 Y9.258 E.28414
G1 X149.35 Y9.905 E.0234
G1 X143.145 Y3.7 E.31723
G1 X142.498 Y3.7 E.0234
G1 X149.35 Y10.552 E.35032
G1 X149.35 Y11.199 E.0234
G1 X141.851 Y3.7 E.38341
G1 X141.204 Y3.7 E.0234
G1 X149.35 Y11.846 E.4165
G1 X149.35 Y12.494 E.0234
G1 X140.557 Y3.7 E.44958
G1 X139.909 Y3.7 E.0234
G1 X149.35 Y13.141 E.48267
G1 X149.35 Y13.788 E.0234
G1 X139.262 Y3.7 E.51576
G1 X138.615 Y3.7 E.0234
G1 X149.35 Y14.435 E.54885
G1 X149.35 Y15.082 E.0234
G1 X137.968 Y3.7 E.58193
G1 X137.32 Y3.7 E.0234
G1 X149.35 Y15.729 E.61502
G1 X149.35 Y16.3 E.02063
G1 X149.274 Y16.3 E.00277
G1 X136.673 Y3.7 E.6442
G1 X136.026 Y3.7 E.0234
G1 X148.626 Y16.3 E.6442
G1 X147.979 Y16.3 E.0234
G1 X135.379 Y3.7 E.6442
G1 X134.732 Y3.7 E.0234
G1 X147.332 Y16.3 E.6442
G1 X146.685 Y16.3 E.0234
G1 X134.084 Y3.7 E.6442
G1 X133.437 Y3.7 E.0234
G1 X146.038 Y16.3 E.6442
G1 X145.39 Y16.3 E.0234
G1 X132.79 Y3.7 E.6442
G1 X132.143 Y3.7 E.0234
G1 X144.743 Y16.3 E.6442
G1 X144.096 Y16.3 E.0234
G1 X131.496 Y3.7 E.6442
G1 X130.848 Y3.7 E.0234
G1 X143.449 Y16.3 E.6442
G1 X142.801 Y16.3 E.0234
G1 X130.201 Y3.7 E.6442
G1 X129.554 Y3.7 E.0234
G1 X142.154 Y16.3 E.6442
G1 X141.507 Y16.3 E.0234
G1 X128.907 Y3.7 E.6442
G1 X128.259 Y3.7 E.0234
G1 X140.86 Y16.3 E.6442
G1 X140.213 Y16.3 E.0234
G1 X127.612 Y3.7 E.64419
G1 X126.965 Y3.7 E.0234
G1 X139.565 Y16.3 E.64419
G1 X138.918 Y16.3 E.0234
G1 X126.318 Y3.7 E.64419
G1 X125.671 Y3.7 E.0234
G1 X138.271 Y16.3 E.64419
G1 X137.624 Y16.3 E.0234
G1 X125.023 Y3.7 E.64419
G1 X124.376 Y3.7 E.0234
G1 X136.977 Y16.3 E.64419
G1 X136.329 Y16.3 E.0234
G1 X123.729 Y3.7 E.64419
G1 X123.082 Y3.7 E.0234
G1 X135.682 Y16.3 E.64419
G1 X135.035 Y16.3 E.0234
G1 X122.435 Y3.7 E.64419
G1 X121.787 Y3.7 E.0234
G1 X134.388 Y16.3 E.64419
G1 X133.74 Y16.3 E.0234
G1 X121.14 Y3.7 E.64419
G1 X120.493 Y3.7 E.0234
G1 X133.093 Y16.3 E.64419
G1 X132.446 Y16.3 E.0234
G1 X119.846 Y3.7 E.64419
G1 X119.199 Y3.7 E.0234
G1 X131.799 Y16.3 E.64419
G1 X131.152 Y16.3 E.0234
M73 P2 R62
M73 P2 R62
G1 X118.551 Y3.7 E.64419
G1 X117.904 Y3.7 E.0234
G1 X130.504 Y16.3 E.64419
G1 X129.857 Y16.3 E.0234
G1 X117.257 Y3.7 E.64419
G1 X116.61 Y3.7 E.0234
G1 X129.21 Y16.3 E.64419
G1 X128.563 Y16.3 E.0234
G1 X115.962 Y3.7 E.64419
G1 X115.315 Y3.7 E.0234
G1 X127.916 Y16.3 E.64419
G1 X127.268 Y16.3 E.0234
G1 X114.668 Y3.7 E.64419
G1 X114.021 Y3.7 E.0234
G1 X126.621 Y16.3 E.64419
G1 X125.974 Y16.3 E.0234
G1 X113.374 Y3.7 E.64419
G1 X112.726 Y3.7 E.0234
G1 X125.327 Y16.3 E.64419
G1 X124.679 Y16.3 E.0234
G1 X112.079 Y3.7 E.64419
G1 X111.432 Y3.7 E.0234
G1 X124.032 Y16.3 E.64419
G1 X123.385 Y16.3 E.0234
G1 X110.785 Y3.7 E.64419
G1 X110.138 Y3.7 E.0234
G1 X122.738 Y16.3 E.64419
G1 X122.091 Y16.3 E.0234
G1 X109.49 Y3.7 E.64419
G1 X108.843 Y3.7 E.0234
G1 X121.443 Y16.3 E.64419
G1 X120.796 Y16.3 E.0234
G1 X108.196 Y3.7 E.64419
G1 X107.549 Y3.7 E.0234
G1 X120.149 Y16.3 E.64419
G1 X119.502 Y16.3 E.0234
G1 X106.901 Y3.7 E.64419
G1 X106.254 Y3.7 E.0234
G1 X118.855 Y16.3 E.64419
G1 X118.207 Y16.3 E.0234
G1 X105.607 Y3.7 E.64419
G1 X104.96 Y3.7 E.0234
G1 X117.56 Y16.3 E.64419
G1 X116.913 Y16.3 E.0234
G1 X104.313 Y3.7 E.64419
G1 X103.665 Y3.7 E.0234
G1 X116.266 Y16.3 E.64419
G1 X115.619 Y16.3 E.0234
G1 X103.018 Y3.7 E.64419
G1 X102.371 Y3.7 E.0234
G1 X114.971 Y16.3 E.64419
G1 X114.324 Y16.3 E.0234
G1 X101.724 Y3.7 E.64419
G1 X101.077 Y3.7 E.0234
G1 X113.677 Y16.3 E.64419
G1 X113.03 Y16.3 E.0234
G1 X100.429 Y3.7 E.64419
G1 X99.782 Y3.7 E.0234
G1 X112.382 Y16.3 E.64419
G1 X111.735 Y16.3 E.0234
G1 X99.135 Y3.7 E.64419
G1 X98.488 Y3.7 E.0234
G1 X111.088 Y16.3 E.64419
G1 X110.441 Y16.3 E.0234
G1 X97.841 Y3.7 E.64419
G1 X97.193 Y3.7 E.0234
G1 X109.794 Y16.3 E.64419
G1 X109.146 Y16.3 E.0234
G1 X96.546 Y3.7 E.64419
G1 X95.899 Y3.7 E.0234
G1 X108.499 Y16.3 E.64419
G1 X107.852 Y16.3 E.0234
G1 X95.252 Y3.7 E.64419
G1 X94.604 Y3.7 E.0234
G1 X107.205 Y16.3 E.64419
G1 X106.558 Y16.3 E.0234
G1 X93.957 Y3.7 E.64419
G1 X93.31 Y3.7 E.0234
G1 X105.91 Y16.3 E.64419
G1 X105.263 Y16.3 E.0234
M73 P3 R62
M73 P3 R62
G1 X92.663 Y3.7 E.64419
G1 X92.016 Y3.7 E.0234
G1 X104.616 Y16.3 E.64419
G1 X103.969 Y16.3 E.0234
G1 X91.368 Y3.7 E.64419
G1 X90.721 Y3.7 E.0234
G1 X103.321 Y16.3 E.64419
G1 X102.674 Y16.3 E.0234
G1 X90.074 Y3.7 E.64419
G1 X89.427 Y3.7 E.0234
G1 X102.027 Y16.3 E.64419
G1 X101.38 Y16.3 E.0234
G1 X88.78 Y3.7 E.64419
G1 X88.132 Y3.7 E.0234
G1 X100.733 Y16.3 E.64419
G1 X100.085 Y16.3 E.0234
G1 X87.485 Y3.7 E.64419
G1 X86.838 Y3.7 E.0234
G1 X99.438 Y16.3 E.64419
G1 X98.791 Y16.3 E.0234
G1 X86.191 Y3.7 E.64419
G1 X85.543 Y3.7 E.0234
G1 X98.144 Y16.3 E.64419
G1 X97.497 Y16.3 E.0234
G1 X84.896 Y3.7 E.64419
G1 X84.249 Y3.7 E.0234
G1 X96.849 Y16.3 E.64419
G1 X96.202 Y16.3 E.0234
G1 X83.602 Y3.7 E.64419
G1 X82.955 Y3.7 E.0234
G1 X95.555 Y16.3 E.64419
G1 X94.908 Y16.3 E.0234
G1 X82.307 Y3.7 E.64419
G1 X81.66 Y3.7 E.0234
G1 X94.26 Y16.3 E.64419
G1 X93.613 Y16.3 E.0234
G1 X81.013 Y3.7 E.64419
G1 X80.366 Y3.7 E.0234
G1 X92.966 Y16.3 E.64419
G1 X92.319 Y16.3 E.0234
G1 X79.719 Y3.7 E.64419
G1 X79.071 Y3.7 E.0234
G1 X91.672 Y16.3 E.64419
G1 X91.024 Y16.3 E.0234
G1 X78.424 Y3.7 E.64419
G1 X77.777 Y3.7 E.0234
G1 X90.377 Y16.3 E.64419
G1 X89.73 Y16.3 E.0234
G1 X77.13 Y3.7 E.64419
G1 X76.483 Y3.7 E.0234
G1 X89.083 Y16.3 E.64419
G1 X88.436 Y16.3 E.0234
G1 X75.835 Y3.7 E.64419
G1 X75.188 Y3.7 E.0234
G1 X87.788 Y16.3 E.64419
G1 X87.141 Y16.3 E.0234
G1 X74.541 Y3.7 E.64419
G1 X73.894 Y3.7 E.0234
G1 X86.494 Y16.3 E.64419
G1 X85.847 Y16.3 E.0234
G1 X73.246 Y3.7 E.64419
G1 X72.599 Y3.7 E.0234
G1 X85.199 Y16.3 E.64419
G1 X84.552 Y16.3 E.0234
G1 X71.952 Y3.7 E.64419
G1 X71.305 Y3.7 E.0234
G1 X83.905 Y16.3 E.64419
G1 X83.258 Y16.3 E.0234
G1 X70.749 Y3.791 E.63951
G1 X70.747 Y4.436 E.02331
G1 X82.611 Y16.3 E.60654
G1 X81.963 Y16.3 E.0234
G1 X70.744 Y5.081 E.57358
G1 X70.742 Y5.726 E.02331
G1 X81.316 Y16.3 E.54061
G1 X80.669 Y16.3 E.0234
G1 X70.74 Y6.371 E.50764
G1 X70.738 Y6.832 E.01669
G3 X70.702 Y6.981 I-.438 J-.027 E.00554
G1 X80.064 Y16.348 E.47877
G2 X79.664 Y16.59 I.3 J.948 E.01705
G1 X70.458 Y7.384 E.47066
G3 X70.065 Y7.638 I-.746 J-.724 E.01707
G1 X79.412 Y16.985 E.47789
G1 X79.398 Y17.014 E.00117
G2 X79.35 Y17.57 I1.75 J.431 E.02026
G1 X69.48 Y7.7 E.50462
G1 X68.833 Y7.7 E.0234
G1 X79.35 Y18.217 E.53771
G1 X79.35 Y18.865 E.0234
G1 X68.185 Y7.7 E.57079
G1 X67.538 Y7.7 E.0234
G1 X79.35 Y19.512 E.60388
G1 X79.35 Y20.159 E.0234
G1 X66.75 Y7.559 E.64419
G1 X66.75 Y8.206 E.0234
G1 X79.35 Y20.806 E.64419
G1 X79.35 Y21.453 E.0234
G1 X66.75 Y8.853 E.64419
G1 X66.75 Y9.5 E.0234
G1 X79.35 Y22.101 E.64419
G1 X79.35 Y22.748 E.0234
G1 X66.75 Y10.148 E.64419
G1 X66.75 Y10.795 E.0234
G1 X79.35 Y23.395 E.64419
G1 X79.35 Y24.042 E.0234
G1 X66.75 Y11.442 E.64419
G1 X66.75 Y12.089 E.0234
G1 X79.35 Y24.689 E.64419
G1 X79.35 Y25.337 E.0234
G1 X66.75 Y12.736 E.64419
G1 X66.75 Y13.384 E.0234
G1 X79.35 Y25.984 E.64419
G1 X79.35 Y26.631 E.0234
G1 X66.75 Y14.031 E.64419
G1 X66.75 Y14.678 E.0234
G1 X79.35 Y27.278 E.64419
G1 X79.35 Y27.926 E.0234
G1 X66.75 Y15.325 E.64419
G1 X66.75 Y15.972 E.0234
G1 X79.35 Y28.573 E.64419
G1 X79.35 Y29.22 E.0234
G1 X66.75 Y16.62 E.64419
G1 X66.75 Y17.267 E.0234
G1 X79.35 Y29.867 E.64419
G1 X79.35 Y30.514 E.0234
G1 X66.75 Y17.914 E.64419
G1 X66.75 Y18.561 E.0234
G1 X79.35 Y31.162 E.64419
G1 X79.35 Y31.809 E.0234
G1 X66.75 Y19.209 E.64419
G1 X66.75 Y19.856 E.0234
G1 X79.35 Y32.456 E.64419
G1 X79.35 Y33.103 E.0234
G1 X66.75 Y20.503 E.64419
G1 X66.75 Y21.15 E.0234
G1 X79.35 Y33.75 E.64419
G1 X79.35 Y34.398 E.0234
G1 X66.75 Y21.797 E.64419
G1 X66.75 Y22.445 E.0234
G1 X79.35 Y35.045 E.64419
G1 X79.35 Y35.692 E.0234
G1 X66.75 Y23.092 E.64419
G1 X66.75 Y23.739 E.0234
G1 X79.35 Y36.339 E.64419
G1 X79.35 Y36.986 E.0234
G1 X66.75 Y24.386 E.64419
G1 X66.75 Y25.033 E.0234
G1 X79.35 Y37.634 E.64419
G1 X79.35 Y38.281 E.0234
G1 X66.75 Y25.681 E.64419
G1 X66.75 Y26.328 E.0234
G1 X79.35 Y38.928 E.64419
G1 X79.35 Y39.575 E.0234
G1 X66.75 Y26.975 E.64419
G1 X66.75 Y27.622 E.0234
G1 X79.35 Y40.223 E.64419
G1 X79.35 Y40.87 E.0234
G1 X66.75 Y28.27 E.64419
G1 X66.75 Y28.917 E.0234
G1 X79.35 Y41.517 E.64419
G1 X79.35 Y42.164 E.0234
G1 X66.75 Y29.564 E.64419
