;TIME:1269.87
;Filament used:1.71247m
;Layer height:0.200
; HEADER_BLOCK_START
; generated by Creality_Print V6.0.4.1793 on 2025-03-06 at 22:49:50
; total layer number: 40
; filament_density: 1.24
; filament_diameter: 1.75
; max_z_height: 8.00
; HEADER_BLOCK_END

; MINX = 14.55
; MINY = 14.80
; MINZ = 0.00
; MAXX = 205.10
; MAXY = 205.35
; MAXZ = 8.00

; THUMBNAIL_BLOCK_START

;
; THUMBNAIL_BLOCK_END

; THUMBNAIL_BLOCK_START

;
; THUMBNAIL_BLOCK_END

; external perimeters extrusion width = 0.42mm
; perimeters extrusion width = 0.45mm
; infill extrusion width = 0.45mm
; solid infill extrusion width = 0.42mm
; top infill extrusion width = 0.42mm
; first layer extrusion width = 0.50mm

; EXECUTABLE_BLOCK_START
M73 P0 R21
M201 X5000 Y5000 Z500 E5000
M203 X500 Y500 Z30 E100
M204 P5000 R2500 T5000 ; sets acceleration (P, T) and retract acceleration (R), mm/sec^2
M205 X10.00 Y10.00 Z0.40 E5.00 ; sets the jerk limits, mm/sec
;TYPE:Custom
M220 S100 ;Reset Feedrate 
M221 S100 ;Reset Flowrate 
 
M140 S50 ;Set final bed temp 
G28 ;Home 
 
G92 E0 ;Reset Extruder 
G1 Z2.0 F3000 ;Move Z Axis up 
M104 S190 ;Set final nozzle temp 
G1 X-2.1 Y20 Z0.28 F5000.0 ;Move to start position 
M190 S50 ;Wait for bed temp to stabilize 
M109 S190 ;Wait for nozzle temp to stabilize 
G1 X-2.1 Y145.0 Z0.28 F1500.0 E15 ;Draw the first line 
G1 X-2.4 Y145.0 Z0.28 F5000.0 ;Move to side a little 
G1 X-2.4 Y20 Z0.28 F1500.0 E30 ;Draw the second line 
G92 E0  ;Reset Extruder 
G1 E-1.0000 F1800 ;Retract a bit 
M73 P0 R20
M73 P0 R20
G1 Z2.0 F3000 ;Move Z Axis up 
G1 E0.0000 F1800
G90
G21
M83 ; use relative distances for extrusion
" "
G1 E-1.2 F2400
M106 S0
;LAYER_CHANGE
;Z:0.2
;HEIGHT:0.2
;BEFORE_LAYER_CHANGE
;0.2
G92 E0

;_SET_FAN_SPEED_CHANGING_LAYER
M204 P500
M205 X10 Y10
M204 T500
G1 Z.2 F9000
G1 X99.787 Y99.787
G1 E1.2 F1800
;TYPE:Skirt
;WIDTH:0.5
G1 F3000
G1 X191.94 Y7.633 E4.70551
G1 X193.01 Y6.676 E.05181
M73 P1 R20
M73 P1 R20
G1 X194.538 Y5.585 E.06782
G1 X197.113 Y4.326 E.10347
G1 X199.398 Y3.689 E.08565
G1 X201.261 Y3.457 E.06781
G1 X203.632 Y3.514 E.08562
G1 X206.437 Y4.102 E.10348
G1 X208.633 Y5.002 E.08568
G1 X210.649 Y6.251 E.08563
G1 X212.432 Y7.816 E.08565
G1 X213.934 Y9.652 E.08565
G1 X215.113 Y11.71 E.08563
G1 X215.796 Y13.46 E.06784
G1 X216.384 Y16.265 E.10348
G1 X216.441 Y18.636 E.08562
G1 X216.107 Y20.985 E.08565
G1 X215.571 Y22.785 E.06781
G1 X214.566 Y24.933 E.08565
G1 X213.221 Y26.888 E.08566
G1 X212.264 Y27.957 E.05181
G1 X27.018 Y213.149 E9.45758
G1 X25.112 Y214.56 E.08564
G1 X22.998 Y215.639 E.08566
G1 X20.737 Y216.355 E.08565
G1 X17.893 Y216.709 E.10346
G1 X15.526 Y216.57 E.08564
G1 X13.212 Y216.043 E.08568
G1 X11.018 Y215.143 E.08563
G1 X9.404 Y214.182 E.06782
G1 X7.568 Y212.68 E.08565
G1 X5.716 Y210.493 E.10346
G1 X4.537 Y208.435 E.08566
G1 X3.713 Y206.211 E.08563
G1 X3.327 Y204.372 E.06784
G1 X3.188 Y202.004 E.08564
G1 X3.543 Y199.161 E.10346
G1 X4.259 Y196.899 E.08565
G1 X5.337 Y194.786 E.08565
G1 X6.429 Y193.257 E.06782
G1 X7.385 Y192.188 E.05181
G1 X99.758 Y99.815 E4.71671
G1 X100.082 Y100.138 F9000
G1 F3000
G1 X192.263 Y7.956 E4.70695
G1 X193.305 Y7.025 E.05044
M73 P2 R20
M73 P2 R20
G1 X194.772 Y5.978 E.06509
G1 X197.279 Y4.752 E.10074
G1 X199.492 Y4.136 E.08293
G1 X201.28 Y3.913 E.06508
G1 X203.575 Y3.967 E.0829
G1 X206.307 Y4.54 E.10076
G1 X208.432 Y5.413 E.08295
G1 X210.383 Y6.623 E.08291
G1 X212.109 Y8.139 E.08292
G1 X213.562 Y9.917 E.08292
G1 X214.702 Y11.911 E.08291
G1 X215.358 Y13.591 E.06511
G1 X215.93 Y16.322 E.10076
G1 X215.984 Y18.617 E.0829
G1 X215.659 Y20.891 E.08292
G1 X215.145 Y22.618 E.06509
G1 X214.173 Y24.699 E.08293
G1 X212.872 Y26.592 E.08293
G1 X211.941 Y27.634 E.05044
G1 X26.722 Y212.8 E9.45621
G1 X24.878 Y214.167 E.08291
G1 X22.832 Y215.213 E.08294
G1 X20.643 Y215.907 E.08293
G1 X17.875 Y216.252 E.10073
G1 X15.582 Y216.117 E.08292
G1 X13.342 Y215.605 E.08295
G1 X11.218 Y214.732 E.0829
G1 X9.67 Y213.81 E.06509
G1 X7.891 Y212.357 E.08292
G1 X6.088 Y210.228 E.10074
G1 X4.947 Y208.234 E.08294
G1 X4.151 Y206.08 E.0829
G1 X3.781 Y204.315 E.06511
G1 X3.645 Y202.023 E.08292
G1 X3.99 Y199.254 E.10073
G1 X4.685 Y197.065 E.08293
G1 X5.73 Y195.02 E.08293
G1 X6.778 Y193.553 E.06509
G1 X7.709 Y192.511 E.05044
G1 X100.053 Y100.166 E4.71527
G1 X100.377 Y100.49 F9000
G1 F3000
G1 X192.587 Y8.28 E4.7084
G1 X193.601 Y7.374 E.04908
M73 P3 R20
M73 P3 R20
G1 X195.006 Y6.37 E.06236
G1 X197.445 Y5.178 E.09802
G1 X199.585 Y4.584 E.0802
G1 X201.299 Y4.37 E.06235
G1 X203.519 Y4.421 E.08017
G1 X206.176 Y4.978 E.09803
G1 X208.231 Y5.824 E.08023
G1 X210.118 Y6.995 E.08018
G1 X211.786 Y8.462 E.0802
G1 X213.19 Y10.183 E.0802
G1 X214.291 Y12.111 E.08018
G1 X214.919 Y13.721 E.06239
G1 X215.477 Y16.378 E.09803
G1 X215.527 Y18.598 E.08017
G1 X215.212 Y20.797 E.0802
G1 X214.719 Y22.452 E.06236
G1 X213.781 Y24.466 E.0802
G1 X212.523 Y26.297 E.08021
G1 X211.618 Y27.311 E.04908
G1 X26.427 Y212.451 E9.45485
G1 X24.644 Y213.775 E.08019
G1 X22.666 Y214.787 E.08021
G1 X20.549 Y215.46 E.0802
G1 X17.856 Y215.796 E.09801
G1 X15.639 Y215.663 E.08019
G1 X13.473 Y215.167 E.08023
G1 X11.419 Y214.322 E.08018
G1 X9.935 Y213.438 E.06237
G1 X8.214 Y212.034 E.0802
G1 X6.46 Y209.962 E.09801
G1 X5.358 Y208.033 E.08021
G1 X4.589 Y205.95 E.08018
G1 X4.234 Y204.259 E.06238
G1 X4.102 Y202.042 E.08019
G1 X4.438 Y199.348 E.09801
G1 X5.11 Y197.231 E.0802
G1 X6.123 Y195.254 E.0802
G1 X7.126 Y193.848 E.06236
G1 X8.032 Y192.834 E.04908
G1 X100.348 Y100.518 E4.71383
; printing object eje.STL id:8171063952611762432 copy 0
G1 E-1.2 F2400
;WIPE_START
G1 F9000
G1 X101.762 Y99.104
;WIPE_END
G1 X104.716 Y96.687 Z.4
G1 X203.272 Y16.021 Z.4
G1 Z.2
G1 E1.2 F1800
;TYPE:Inner wall
;WIDTH:0.499999
G1 X203.342 Y16.06 E.0029
G1 X203.735 Y16.412 E.01907
G1 X204.018 Y16.858 E.01908
G1 X204.197 Y17.356 E.01908
G1 X204.233 Y17.883 E.01909
G1 X204.153 Y18.406 E.01908
G1 X203.934 Y18.887 E.01908
G1 X203.592 Y19.335 E.02037
G1 X19.86 Y203.068 E9.38166
;WIDTH:0.526701
G1 X19.653 Y203.256 E.01071
M73 P4 R20
;WIDTH:0.553403
M73 P4 R20
G2 X19.062 Y203.828 I5.614 J6.385 E.03316
;WIDTH:0.576904
G1 X18.604 Y204.158 E.02384
;WIDTH:0.602986
G1 X18.121 Y204.356 E.0231
;WIDTH:0.631905
G1 X17.539 Y204.419 E.02721
;WIDTH:0.64735
G1 X17.088 Y204.362 E.02171
;WIDTH:0.659069
G1 X16.516 Y204.131 E.03003
;WIDTH:0.66247
G1 X16.107 Y203.81 E.02543
G1 X15.766 Y203.382 E.02679
;WIDTH:0.659179
G1 X15.536 Y202.809 E.03003
;WIDTH:0.647349
G1 X15.479 Y202.358 E.02171
;WIDTH:0.631905
G1 X15.541 Y201.777 E.02721
;WIDTH:0.602986
G1 X15.678 Y201.411 E.01729
;WIDTH:0.591409
G1 X15.947 Y200.982 E.02193
;WIDTH:0.555202
G1 X16.398 Y200.504 E.02658
;WIDTH:0.550187
G1 X16.591 Y200.294 E.01143
;WIDTH:0.525093
G1 X16.783 Y200.084 E.01086
;WIDTH:0.499999
G1 X200.499 Y16.368 E9.38083
G1 X200.859 Y16.054 E.01724
M73 P5 R20
M73 P5 R20
G1 X201.327 Y15.808 E.01909
G1 X201.838 Y15.672 E.01908
G1 X202.365 Y15.679 E.01905
G1 X202.881 Y15.802 E.01914
G1 X203.237 Y16.001 E.01474
G1 X202.936 Y15.348 F9000
;TYPE:Outer wall
G1 F1800
G1 X203.047 Y15.374 E.00413
G1 X203.607 Y15.688 E.02318
G1 X204.085 Y16.116 E.02316
G1 X204.429 Y16.658 E.02317
G1 X204.646 Y17.262 E.02317
G1 X204.69 Y17.902 E.02318
G1 X204.593 Y18.537 E.02317
G1 X204.327 Y19.121 E.02317
G1 X203.929 Y19.645 E.02377
G1 X19.398 Y204.177 E9.42246
G1 X19.004 Y204.497 E.01832
M73 P6 R19
M73 P6 R19
G1 X18.461 Y204.773 E.02199
G1 X18.003 Y204.9 E.01715
G1 X17.44 Y204.946 E.02041
G1 X16.937 Y204.87 E.01839
G1 X16.42 Y204.682 E.01985
G1 X15.925 Y204.374 E.02103
G1 X15.524 Y203.972 E.02052
G1 X15.215 Y203.476 E.02108
G1 X15.027 Y202.961 E.01982
G1 X14.959 Y202.525 E.01593
G1 X14.982 Y201.963 E.02031
G1 X15.124 Y201.436 E.01969
G1 X15.401 Y200.893 E.02199
G1 X15.721 Y200.5 E.01832
G1 X200.176 Y16.044 E9.41858
G1 X200.592 Y15.68 E.01997
G1 X201.161 Y15.382 E.02318
G1 X201.781 Y15.216 E.02317
G1 X202.421 Y15.225 E.02313
G1 X202.897 Y15.338 E.01764
G1 E-1.2 F2400
;WIPE_START
G1 F9000
G1 X203.047 Y15.374
G1 X203.607 Y15.688
G1 X204.085 Y16.116
G1 X204.386 Y16.59
;WIPE_END
G1 X201.689 Y19.29 Z.4
G1 X17.401 Y203.808 Z.4
G1 Z.2
G1 E1.2 F1800
;TYPE:Inner wall
;WIDTH:0.653385
G1 X16.923 Y203.654 E.02422
;WIDTH:0.66053
G1 X16.478 Y203.31 E.02741
G1 X16.243 Y202.974 E.01999
;WIDTH:0.653428
G1 X16.072 Y202.441 E.02698
;WIDTH:0.633507
G1 X16.09 Y201.89 E.02574
;WIDTH:0.602986
G1 X16.276 Y201.401 E.02314
;WIDTH:0.562059
G1 X16.602 Y200.995 E.02134
;WIDTH:0.539366
G1 X16.987 Y200.745 E.01802
;WIDTH:0.510969
G1 X17.297 Y200.625 E.0123
;WIDTH:0.499999
G1 X17.777 Y200.572 E.01745
G1 X18.106 Y200.613 E.01198
G1 X18.552 Y200.802 E.01748
G1 X18.962 Y201.156 E.01955
G1 X19.23 Y201.626 E.01955
G1 X19.326 Y202.158 E.01952
G1 X19.299 Y202.489 E.01198
;WIDTH:0.526701
G1 X19.181 Y202.799 E.01266
;WIDTH:0.553403
G1 X19.063 Y203.108 E.01336
G1 X18.743 Y203.433 E.01841
;WIDTH:0.576904
G1 X18.383 Y203.675 E.01828
;WIDTH:0.61068
G1 X17.885 Y203.826 E.02334
;WIDTH:0.633507
G1 X17.456 Y203.825 E.02002
;WIDTH:0.653385
G1 X17.439 Y203.82 E.00088
M73 P7 R19
M73 P7 R19
G1 X17.822 Y203.312 F9000
;TYPE:Outer wall
;WIDTH:0.499999
G1 F1800
G1 X17.468 Y203.293 E.0128
G1 X17.11 Y203.143 E.01401
G1 X16.833 Y202.9 E.0133
G3 X16.59 Y202.353 I1.053 J-.795 E.0218
G1 X16.595 Y201.965 E.01401
G1 X16.712 Y201.625 E.01298
G1 X16.976 Y201.302 E.01507
G1 X17.29 Y201.108 E.0133
G1 X17.497 Y201.048 E.0078
G1 X17.864 Y201.032 E.01327
G1 X18.075 Y201.08 E.0078
G1 X18.418 Y201.259 E.01398
G1 X18.683 Y201.542 E.01401
G1 X18.839 Y201.898 E.01401
G1 X18.871 Y202.265 E.0133
G1 X18.831 Y202.477 E.0078
G1 X18.68 Y202.812 E.01327
G3 X17.862 Y203.313 I-1.034 J-.772 E.03548
G1 E-1.2 F2400
;WIPE_START
G1 F9000
G1 X17.468 Y203.293
G1 X17.11 Y203.143
G1 X16.833 Y202.9
G1 X16.703 Y202.69
G1 X16.59 Y202.353
G1 X16.593 Y202.107
;WIPE_END
G1 Z.4
G1 X203.994 Y17.156
G1 Z.4
G1 Z.2
G1 E1.2 F1800
;TYPE:Bottom surface
;WIDTH:0.500545
G1 F4800
G1 X203.261 Y16.423 E.03746
G2 X202.194 Y16.003 I-1.202 J1.485 E.04214
G1 X203.895 Y17.704 E.08696
G3 X203.828 Y18.285 I-2.357 J.026 E.02119
G1 X201.613 Y16.069 E.11328
G2 X201.166 Y16.27 I.675 J2.101 E.01774
G1 X203.628 Y18.731 E.12586
G3 X203.346 Y19.096 I-1.235 J-.663 E.01675
G1 X200.801 Y16.552 E.13009
G2 X200.477 Y16.875 I1.788 J2.118 E.01656
G1 X203.023 Y19.421 E.13014
G1 X202.699 Y19.744 E.01654
G1 X200.153 Y17.198 E.13014
G1 X199.83 Y17.522 E.01654
G1 X202.375 Y20.068 E.13014
G1 X202.052 Y20.391 E.01654
G1 X199.506 Y17.846 E.13014
G1 X199.182 Y18.169 E.01654
G1 X201.728 Y20.715 E.13014
G1 X201.405 Y21.039 E.01654
G1 X198.859 Y18.493 E.13014
G1 X198.535 Y18.816 E.01654
G1 X201.081 Y21.362 E.13014
G1 X200.757 Y21.686 E.01654
G1 X198.212 Y19.14 E.13014
G1 X197.888 Y19.464 E.01654
G1 X200.434 Y22.009 E.13014
G1 X200.11 Y22.333 E.01654
G1 X197.565 Y19.787 E.13014
G1 X197.241 Y20.111 E.01654
G1 X199.787 Y22.656 E.13014
G1 X199.463 Y22.98 E.01654
G1 X196.917 Y20.434 E.13014
G1 X196.594 Y20.758 E.01654
G1 X199.139 Y23.304 E.13014
G1 X198.816 Y23.627 E.01654
G1 X196.27 Y21.081 E.13014
G1 X195.947 Y21.405 E.01654
G1 X198.492 Y23.951 E.13014
G1 X198.169 Y24.274 E.01654
G1 X195.623 Y21.729 E.13014
G1 X195.299 Y22.052 E.01654
G1 X197.845 Y24.598 E.13014
G1 X197.522 Y24.922 E.01654
G1 X194.976 Y22.376 E.13014
G1 X194.652 Y22.699 E.01654
G1 X197.198 Y25.245 E.13014
G1 X196.874 Y25.569 E.01654
G1 X194.329 Y23.023 E.13014
G1 X194.005 Y23.347 E.01654
G1 X196.551 Y25.892 E.13014
G1 X196.227 Y26.216 E.01654
G1 X193.681 Y23.67 E.13014
G1 X193.358 Y23.994 E.01654
G1 X195.904 Y26.54 E.13014
G1 X195.58 Y26.863 E.01654
G1 X193.034 Y24.317 E.13014
G1 X192.711 Y24.641 E.01654
G1 X195.256 Y27.187 E.13014
G1 X194.933 Y27.51 E.01654
G1 X192.387 Y24.965 E.13014
G1 X192.063 Y25.288 E.01654
G1 X194.609 Y27.834 E.13014
G1 X194.286 Y28.157 E.01654
G1 X191.74 Y25.612 E.13014
G1 X191.416 Y25.935 E.01654
G1 X193.962 Y28.481 E.13014
G1 X193.638 Y28.805 E.01654
G1 X191.093 Y26.259 E.13014
G1 X190.769 Y26.583 E.01654
G1 X193.315 Y29.128 E.13014
G1 X192.991 Y29.452 E.01654
G1 X190.446 Y26.906 E.13014
G1 X190.122 Y27.23 E.01654
G1 X192.668 Y29.775 E.13014
G1 X192.344 Y30.099 E.01654
G1 X189.798 Y27.553 E.13014
G1 X189.475 Y27.877 E.01654
G1 X192.021 Y30.423 E.13014
G1 X191.697 Y30.746 E.01654
G1 X189.151 Y28.2 E.13014
G1 X188.828 Y28.524 E.01654
G1 X191.373 Y31.07 E.13014
G1 X191.05 Y31.393 E.01654
G1 X188.504 Y28.848 E.13014
G1 X188.18 Y29.171 E.01654
G1 X190.726 Y31.717 E.13014
G1 X190.403 Y32.041 E.01654
G1 X187.857 Y29.495 E.13014
G1 X187.533 Y29.818 E.01654
G1 X190.079 Y32.364 E.13014
G1 X189.755 Y32.688 E.01654
G1 X187.21 Y30.142 E.13014
G1 X186.886 Y30.466 E.01654
G1 X189.432 Y33.011 E.13014
G1 X189.108 Y33.335 E.01654
G1 X186.562 Y30.789 E.13014
G1 X186.239 Y31.113 E.01654
G1 X188.785 Y33.658 E.13014
G1 X188.461 Y33.982 E.01654
G1 X185.915 Y31.436 E.13014
G1 X185.592 Y31.76 E.01654
G1 X188.137 Y34.306 E.13014
G1 X187.814 Y34.629 E.01654
G1 X185.268 Y32.084 E.13014
G1 X184.945 Y32.407 E.01654
G1 X187.49 Y34.953 E.13014
G1 X187.167 Y35.276 E.01654
G1 X184.621 Y32.731 E.13014
G1 X184.297 Y33.054 E.01654
G1 X186.843 Y35.6 E.13014
G1 X186.519 Y35.924 E.01654
G1 X183.974 Y33.378 E.13014
G1 X183.65 Y33.701 E.01654
G1 X186.196 Y36.247 E.13014
G1 X185.872 Y36.571 E.01654
G1 X183.327 Y34.025 E.13014
G1 X183.003 Y34.349 E.01654
G1 X185.549 Y36.894 E.13014
G1 X185.225 Y37.218 E.01654
G1 X182.679 Y34.672 E.13014
G1 X182.356 Y34.996 E.01654
M73 P8 R19
M73 P8 R19
G1 X184.902 Y37.542 E.13014
G1 X184.578 Y37.865 E.01654
G1 X182.032 Y35.319 E.13014
G1 X181.709 Y35.643 E.01654
G1 X184.254 Y38.189 E.13014
G1 X183.931 Y38.512 E.01654
G1 X181.385 Y35.967 E.13014
G1 X181.061 Y36.29 E.01654
G1 X183.607 Y38.836 E.13014
G1 X183.284 Y39.16 E.01654
G1 X180.738 Y36.614 E.13014
G1 X180.414 Y36.937 E.01654
G1 X182.96 Y39.483 E.13014
G1 X182.636 Y39.807 E.01654
G1 X180.091 Y37.261 E.13014
G1 X179.767 Y37.585 E.01654
G1 X182.313 Y40.13 E.13014
G1 X181.989 Y40.454 E.01654
G1 X179.443 Y37.908 E.13014
G1 X179.12 Y38.232 E.01654
G1 X181.666 Y40.777 E.13014
G1 X181.342 Y41.101 E.01654
G1 X178.796 Y38.555 E.13014
G1 X178.473 Y38.879 E.01654
G1 X181.018 Y41.425 E.13014
G1 X180.695 Y41.748 E.01654
G1 X178.149 Y39.203 E.13014
G1 X177.826 Y39.526 E.01654
G1 X180.371 Y42.072 E.13014
G1 X180.048 Y42.395 E.01654
G1 X177.502 Y39.85 E.13014
G1 X177.178 Y40.173 E.01654
G1 X179.724 Y42.719 E.13014
G1 X179.401 Y43.043 E.01654
G1 X176.855 Y40.497 E.13014
G1 X176.531 Y40.82 E.01654
G1 X179.077 Y43.366 E.13014
G1 X178.753 Y43.69 E.01654
G1 X176.208 Y41.144 E.13014
G1 X175.884 Y41.468 E.01654
G1 X178.43 Y44.013 E.13014
G1 X178.106 Y44.337 E.01654
G1 X175.56 Y41.791 E.13014
G1 X175.237 Y42.115 E.01654
G1 X177.783 Y44.661 E.13014
G1 X177.459 Y44.984 E.01654
G1 X174.913 Y42.438 E.13014
G1 X174.59 Y42.762 E.01654
G1 X177.135 Y45.308 E.13014
G1 X176.812 Y45.631 E.01654
G1 X174.266 Y43.086 E.13014
G1 X173.942 Y43.409 E.01654
G1 X176.488 Y45.955 E.13014
G1 X176.165 Y46.278 E.01654
G1 X173.619 Y43.733 E.13014
G1 X173.295 Y44.056 E.01654
G1 X175.841 Y46.602 E.13014
G1 X175.517 Y46.926 E.01654
G1 X172.972 Y44.38 E.13014
G1 X172.648 Y44.704 E.01654
G1 X175.194 Y47.249 E.13014
G1 X174.87 Y47.573 E.01654
G1 X172.325 Y45.027 E.13014
G1 X172.001 Y45.351 E.01654
G1 X174.547 Y47.896 E.13014
G1 X174.223 Y48.22 E.01654
G1 X171.677 Y45.674 E.13014
G1 X171.354 Y45.998 E.01654
G1 X173.899 Y48.544 E.13014
G1 X173.576 Y48.867 E.01654
G1 X171.03 Y46.321 E.13014
G1 X170.707 Y46.645 E.01654
G1 X173.252 Y49.191 E.13014
G1 X172.929 Y49.514 E.01654
G1 X170.383 Y46.969 E.13014
G1 X170.059 Y47.292 E.01654
G1 X172.605 Y49.838 E.13014
G1 X172.282 Y50.162 E.01654
G1 X169.736 Y47.616 E.13014
G1 X169.412 Y47.939 E.01654
G1 X171.958 Y50.485 E.13014
G1 X171.634 Y50.809 E.01654
G1 X169.089 Y48.263 E.13014
G1 X168.765 Y48.587 E.01654
G1 X171.311 Y51.132 E.13014
G1 X170.987 Y51.456 E.01654
G1 X168.441 Y48.91 E.13014
G1 X168.118 Y49.234 E.01654
G1 X170.664 Y51.78 E.13014
G1 X170.34 Y52.103 E.01654
G1 X167.794 Y49.557 E.13014
G1 X167.471 Y49.881 E.01654
G1 X170.016 Y52.427 E.13014
G1 X169.693 Y52.75 E.01654
G1 X167.147 Y50.205 E.13014
G1 X166.823 Y50.528 E.01654
G1 X169.369 Y53.074 E.13014
G1 X169.046 Y53.397 E.01654
