;TIME:1690.18
;Filament used:1.92698m
;Layer height:0.200
; HEADER_BLOCK_START
; generated by Creality_Print V6.0.4.1793 on 2025-03-05 at 22:19:25
; total layer number: 50
; filament_density: 1.24
; filament_diameter: 1.75
; max_z_height: 10.00
; HEADER_BLOCK_END

; MINX = 15.08
; MINY = 15.08
; MINZ = 0.00
; MAXX = 204.92
; MAXY = 204.92
; MAXZ = 10.00

; THUMBNAIL_BLOCK_START

;
; THUMBNAIL_BLOCK_END

; THUMBNAIL_BLOCK_START

;
; THUMBNAIL_BLOCK_END

; external perimeters extrusion width = 0.42mm
; perimeters extrusion width = 0.45mm
; infill extrusion width = 0.45mm
; solid infill extrusion width = 0.42mm
; top infill extrusion width = 0.42mm
; first layer extrusion width = 0.50mm

; EXECUTABLE_BLOCK_START
M73 P0 R28
M201 X5000 Y5000 Z500 E5000
M203 X500 Y500 Z30 E100
M204 P5000 R2500 T5000 ; sets acceleration (P, T) and retract acceleration (R), mm/sec^2
M205 X10.00 Y10.00 Z0.40 E5.00 ; sets the jerk limits, mm/sec
;TYPE:Custom
M220 S100 ;Reset Feedrate 
M221 S100 ;Reset Flowrate 
 
M140 S60 ;Set final bed temp 
G28 ;Home 
 
G92 E0 ;Reset Extruder 
G1 Z2.0 F3000 ;Move Z Axis up 
M104 S205 ;Set final nozzle temp 
G1 X-2.1 Y20 Z0.28 F5000.0 ;Move to start position 
M190 S60 ;Wait for bed temp to stabilize 
M109 S205 ;Wait for nozzle temp to stabilize 
G1 X-2.1 Y145.0 Z0.28 F1500.0 E15 ;Draw the first line 
G1 X-2.4 Y145.0 Z0.28 F5000.0 ;Move to side a little 
G1 X-2.4 Y20 Z0.28 F1500.0 E30 ;Draw the second line 
G92 E0  ;Reset Extruder 
G1 E-1.0000 F1800 ;Retract a bit 
G1 Z2.0 F3000 ;Move Z Axis up 
G1 E0.0000 F1800
G90
G21
M83 ; use relative distances for extrusion
" "
G1 E-1.2 F2400
M106 S0
;LAYER_CHANGE
;Z:0.2
;HEIGHT:0.2
;BEFORE_LAYER_CHANGE
;0.2
G92 E0

;_SET_FAN_SPEED_CHANGING_LAYER
M204 P500
M205 X10 Y10
M204 T500
G1 Z.4 F9000
G1 X99.838 Y99.838
M73 P0 R27
M73 P0 R27
G1 Z.2
G1 E1.2 F1800
;TYPE:Skirt
;WIDTH:0.5
G1 F3000
G1 X191.762 Y7.914 E4.69378
G1 X192.831 Y6.957 E.05181
G1 X194.36 Y5.866 E.06781
G1 X196.878 Y4.63 E.1013
G1 X199.219 Y3.97 E.08782
G1 X201.578 Y3.717 E.08565
G1 X203.454 Y3.795 E.06781
G1 X205.784 Y4.242 E.08565
G1 X208.008 Y5.065 E.08564
G1 X210.471 Y6.533 E.10349
G1 X212.254 Y8.097 E.08564
G1 X213.755 Y9.933 E.08564
G1 X214.717 Y11.546 E.06783
G1 X215.617 Y13.741 E.08564
G1 X216.205 Y16.546 E.10347
G1 X216.262 Y18.917 E.08565
G1 X215.928 Y21.266 E.08565
G1 X215.212 Y23.527 E.08565
G1 X214.388 Y25.215 E.06782
G1 X213.043 Y27.169 E.08565
G1 X212.086 Y28.238 E.05181
G1 X27.547 Y212.722 E9.42147
G1 X25.64 Y214.134 E.08564
M73 P1 R27
M73 P1 R27
G1 X23.527 Y215.212 E.08566
G1 X21.265 Y215.928 E.08565
G1 X18.422 Y216.283 E.10346
G1 X16.054 Y216.144 E.08565
G1 X13.741 Y215.617 E.08566
G1 X11.546 Y214.717 E.08564
G1 X9.933 Y213.755 E.06783
G1 X8.097 Y212.254 E.08564
G1 X6.245 Y210.067 E.10345
G1 X5.065 Y208.008 E.08567
G1 X4.242 Y205.784 E.08564
G1 X3.856 Y203.946 E.06782
G1 X3.717 Y201.578 E.08565
G1 X4.072 Y198.734 E.10346
G1 X4.788 Y196.473 E.08565
G1 X5.866 Y194.36 E.08565
G1 X6.957 Y192.831 E.06782
G1 X7.914 Y191.762 E.05181
G1 X99.81 Y99.866 E4.69234
G1 X100.133 Y100.189 F9000
G1 F3000
G1 X192.085 Y8.237 E4.69523
G1 X193.127 Y7.306 E.05044
G1 X194.594 Y6.259 E.06508
G1 X197.047 Y5.054 E.09866
G1 X199.313 Y4.417 E.08501
G1 X201.597 Y4.174 E.08292
G1 X203.398 Y4.248 E.06508
G1 X205.654 Y4.68 E.08293
G1 X207.808 Y5.476 E.08291
G1 X210.205 Y6.905 E.10076
G1 X211.931 Y8.42 E.08291
G1 X213.383 Y10.198 E.08291
G1 X214.306 Y11.747 E.0651
G1 X215.179 Y13.871 E.08291
G1 X215.752 Y16.602 E.10074
G1 X215.806 Y18.898 E.08292
G1 X215.481 Y21.172 E.08292
G1 X214.787 Y23.361 E.08293
G1 X213.995 Y24.981 E.06509
G1 X212.694 Y26.873 E.08293
G1 X211.763 Y27.915 E.05044
G1 X27.251 Y212.374 E9.42011
G1 X25.406 Y213.741 E.08291
G1 X23.361 Y214.787 E.08294
G1 X21.172 Y215.481 E.08293
G1 X18.403 Y215.826 E.10073
G1 X16.111 Y215.69 E.08292
G1 X13.871 Y215.179 E.08294
G1 X11.747 Y214.306 E.08291
G1 X10.198 Y213.383 E.0651
G1 X8.42 Y211.931 E.08291
G1 X6.617 Y209.802 E.10073
G1 X5.476 Y207.808 E.08294
G1 X4.68 Y205.654 E.08291
G1 X4.31 Y203.889 E.0651
G1 X4.174 Y201.597 E.08292
G1 X4.519 Y198.828 E.10073
G1 X5.213 Y196.639 E.08293
G1 X6.259 Y194.594 E.08293
G1 X7.306 Y193.127 E.06509
G1 X8.237 Y192.085 E.05044
M73 P2 R27
M73 P2 R27
G1 X100.105 Y100.218 E4.69089
G1 X100.428 Y100.541 F9000
G1 F3000
G1 X192.408 Y8.561 E4.69667
G1 X193.422 Y7.655 E.04908
G1 X194.828 Y6.651 E.06236
G1 X197.215 Y5.479 E.09602
G1 X199.407 Y4.865 E.0822
G1 X201.616 Y4.631 E.0802
G1 X203.341 Y4.702 E.06236
G1 X205.523 Y5.118 E.0802
G1 X207.607 Y5.887 E.08019
G1 X209.939 Y7.277 E.09803
G1 X211.607 Y8.743 E.08019
G1 X213.011 Y10.464 E.08019
G1 X213.896 Y11.948 E.06238
G1 X214.741 Y14.002 E.08019
G1 X215.298 Y16.659 E.09802
G1 X215.349 Y18.879 E.0802
G1 X215.034 Y21.078 E.0802
G1 X214.361 Y23.195 E.0802
G1 X213.602 Y24.747 E.06236
G1 X212.345 Y26.578 E.0802
G1 X211.439 Y27.592 E.04908
G1 X26.956 Y212.025 E9.41875
G1 X25.172 Y213.349 E.08019
G1 X23.195 Y214.361 E.08021
G1 X21.078 Y215.034 E.0802
G1 X18.384 Y215.369 E.09801
G1 X16.167 Y215.237 E.0802
G1 X14.002 Y214.741 E.08021
G1 X11.948 Y213.896 E.08019
G1 X10.464 Y213.011 E.06238
G1 X8.743 Y211.607 E.08019
G1 X6.989 Y209.536 E.098
G1 X5.887 Y207.607 E.08022
G1 X5.118 Y205.523 E.08019
G1 X4.763 Y203.833 E.06237
G1 X4.631 Y201.616 E.0802
G1 X4.966 Y198.922 E.09801
G1 X5.639 Y196.805 E.0802
G1 X6.651 Y194.828 E.0802
G1 X7.655 Y193.422 E.06236
G1 X8.561 Y192.408 E.04908
G1 X100.4 Y100.569 E4.68945
; printing object eje.STL id:8171063952611762432 copy 0
G1 E-1.2 F2400
;WIPE_START
G1 F9000
G1 X101.814 Y99.155
;WIPE_END
G1 X107.773 Y94.386 Z.6
G1 X203.938 Y17.414 Z.6
G1 Z.2
G1 E1.2 F1800
;TYPE:Inner wall
;WIDTH:0.499999
G1 X204.018 Y17.637 E.00857
G1 X204.055 Y18.164 E.01908
G1 X203.975 Y18.687 E.01908
G1 X203.756 Y19.168 E.01908
G1 X203.414 Y19.616 E.02037
G1 X20.212 Y202.818 E9.35458
;WIDTH:0.526701
G1 X20.005 Y203.007 E.01071
M73 P3 R27
;WIDTH:0.553403
M73 P3 R27
G2 X19.323 Y203.635 I34.397 J38.052 E.03737
;WIDTH:0.542972
G1 X18.944 Y203.855 E.0173
;WIDTH:0.536936
G1 X18.458 Y204.005 E.01987
;WIDTH:0.54346
G1 X17.989 Y204.04 E.0186
G1 X17.495 Y203.956 E.01981
;WIDTH:0.537239
G1 X16.974 Y203.734 E.02211
G1 X16.584 Y203.421 E.01953
G1 X16.304 Y203.082 E.01717
;WIDTH:0.54359
G1 X16.097 Y202.674 E.01809
G1 X15.974 Y202.15 E.02129
;WIDTH:0.537376
G1 X15.975 Y201.641 E.01985
;WIDTH:0.537621
G1 X16.127 Y201.103 E.02185
;WIDTH:0.542978
G1 X16.365 Y200.677 E.01929
;WIDTH:0.550187
G3 X16.943 Y200.045 I123.915 J112.492 E.03431
;WIDTH:0.525093
G1 X17.135 Y199.834 E.01086
;WIDTH:0.499999
G1 X200.321 Y16.649 E9.35375
G1 X200.68 Y16.334 E.01724
M73 P4 R27
M73 P4 R27
G1 X201.149 Y16.089 E.01909
G1 X201.659 Y15.953 E.01908
G1 X202.187 Y15.96 E.01905
G1 X202.702 Y16.083 E.01914
G1 X203.163 Y16.341 E.01908
G1 X203.557 Y16.693 E.01907
G1 X203.84 Y17.14 E.01909
G1 X203.925 Y17.376 E.00907
G1 X204.112 Y16.72 F9000
;TYPE:Outer wall
G1 F1800
G1 X204.251 Y16.939 E.00936
G1 X204.467 Y17.543 E.02317
G1 X204.511 Y18.183 E.02317
G1 X204.414 Y18.818 E.02317
G1 X204.149 Y19.402 E.02318
G1 X203.751 Y19.926 E.02377
G1 X20.316 Y203.361 E9.36645
G1 X19.805 Y203.854 E.02565
M73 P4 R26
M73 P4 R26
G1 X19.363 Y204.172 E.01965
G1 X18.874 Y204.393 E.01937
G1 X18.456 Y204.49 E.01549
G1 X17.909 Y204.513 E.01978
G1 X17.359 Y204.412 E.02019
G1 X16.8 Y204.183 E.02182
G1 X16.354 Y203.864 E.01978
G1 X16.01 Y203.486 E.01845
G1 X15.741 Y203.043 E.01871
G1 X15.55 Y202.515 E.02029
G1 X15.482 Y201.971 E.01978
G1 X15.53 Y201.445 E.01907
G1 X15.684 Y200.93 E.01938
G1 X15.93 Y200.466 E.01899
G1 X16.249 Y200.074 E.01825
G1 X199.998 Y16.325 E9.38247
G1 X200.414 Y15.961 E.01997
M73 P5 R26
M73 P5 R26
G1 X200.983 Y15.663 E.02318
G1 X201.602 Y15.497 E.02317
G1 X202.243 Y15.506 E.02314
G1 X202.869 Y15.655 E.02322
G1 X203.429 Y15.969 E.02318
G1 X203.907 Y16.397 E.02316
G1 X204.09 Y16.686 E.01237
G1 E-1.2 F2400
;WIPE_START
G1 F9000
G1 X204.251 Y16.939
G1 X204.467 Y17.543
G1 X204.511 Y18.183
G1 X204.448 Y18.596
;WIPE_END
G1 X198.986 Y23.926 Z.6
G1 X18.199 Y200.336 Z.6
G1 Z.2
G1 E1.2 F1800
;TYPE:Inner wall
G1 X18.303 Y200.334 E.00376
G1 X18.624 Y200.418 E.01198
G1 X19.094 Y200.686 E.01952
G1 X19.448 Y201.096 E.01955
G1 X19.645 Y201.6 E.01955
G1 X19.675 Y202.083 E.01748
G1 X19.604 Y202.407 E.01198
;WIDTH:0.526701
G1 X19.509 Y202.633 E.00935
;WIDTH:0.553403
G1 X19.415 Y202.859 E.00987
G1 X19.186 Y203.106 E.0136
;WIDTH:0.537927
G1 X18.765 Y203.394 E.01995
;WIDTH:0.537301
G1 X18.283 Y203.537 E.01961
G1 X17.746 Y203.516 E.02099
;WIDTH:0.537141
G1 X17.245 Y203.322 E.02098
G1 X16.835 Y202.975 E.02097
;WIDTH:0.537293
G1 X16.621 Y202.638 E.01555
G1 X16.473 Y202.186 E.0186
;WIDTH:0.534865
G1 X16.476 Y201.643 E.0211
;WIDTH:0.537536
G1 X16.619 Y201.203 E.01809
G1 X16.915 Y200.789 E.01985
;WIDTH:0.550187
G3 X17.283 Y200.536 I.632 J.525 E.01813
;WIDTH:0.525093
G1 X17.499 Y200.425 E.00925
;WIDTH:0.499999
G1 X17.82 Y200.342 E.01198
G1 X18.159 Y200.336 E.01224
G1 X17.811 Y200.81 F9000
;TYPE:Outer wall
G1 F1800
G1 X17.849 Y200.798 E.00143
G1 X18.216 Y200.782 E.01327
G1 X18.427 Y200.831 E.0078
G1 X18.77 Y201.009 E.01398
G1 X19.035 Y201.293 E.01401
G1 X19.191 Y201.648 E.01401
G1 X19.222 Y202.015 E.0133
G1 X19.183 Y202.228 E.0078
G1 X19.032 Y202.563 E.01327
G1 X18.894 Y202.729 E.0078
G1 X18.58 Y202.956 E.01398
G1 X18.208 Y203.065 E.01401
G1 X17.82 Y203.043 E.01401
G1 X17.462 Y202.894 E.01401
G1 X17.185 Y202.651 E.0133
G3 X16.947 Y201.716 I1.049 J-.765 E.0357
G1 X17.053 Y201.398 E.01211
G1 X17.328 Y201.053 E.01593
G1 X17.642 Y200.859 E.0133
G1 X17.773 Y200.821 E.00493
G1 E-1.2 F2400
;WIPE_START
G1 F9000
G1 X17.849 Y200.798
G1 X18.216 Y200.782
G1 X18.427 Y200.831
G1 X18.77 Y201.009
G1 X19.035 Y201.293
G1 X19.191 Y201.648
G1 X19.206 Y201.821
;WIPE_END
G1 Z.6
G1 X203.816 Y17.437
G1 Z.6
G1 Z.2
G1 E1.2 F1800
;TYPE:Bottom surface
;WIDTH:0.500034
G1 F4800
G1 X203.084 Y16.705 E.03735
G2 X202.016 Y16.284 I-1.203 J1.485 E.04211
G1 X203.716 Y17.984 E.0868
G3 X203.65 Y18.564 I-2.339 J.029 E.02116
G1 X201.436 Y16.35 E.11309
G2 X200.989 Y16.55 I.666 J2.086 E.0177
G1 X203.45 Y19.011 E.12569
G3 X203.169 Y19.376 I-1.234 J-.662 E.01672
G1 X200.624 Y16.831 E.12993
G2 X200.3 Y17.154 I1.786 J2.117 E.01652
G1 X202.846 Y19.7 E.13
G1 X202.523 Y20.023 E.01651
G1 X199.977 Y17.477 E.13
G1 X199.654 Y17.8 E.01651
G1 X202.2 Y20.346 E.13
G1 X201.876 Y20.669 E.01651
G1 X199.331 Y18.124 E.13
G1 X199.008 Y18.447 E.01651
G1 X201.553 Y20.992 E.13
G1 X201.23 Y21.316 E.01651
G1 X198.684 Y18.77 E.13
G1 X198.361 Y19.093 E.01651
G1 X200.907 Y21.639 E.13
G1 X200.584 Y21.962 E.01651
G1 X198.038 Y19.416 E.13
G1 X197.715 Y19.74 E.01651
G1 X200.26 Y22.285 E.13
G1 X199.937 Y22.609 E.01651
G1 X197.391 Y20.063 E.13
G1 X197.068 Y20.386 E.01651
G1 X199.614 Y22.932 E.13
G1 X199.291 Y23.255 E.01651
G1 X196.745 Y20.709 E.13
G1 X196.422 Y21.033 E.01651
G1 X198.967 Y23.578 E.13
G1 X198.644 Y23.902 E.01651
G1 X196.098 Y21.356 E.13
G1 X195.775 Y21.679 E.01651
G1 X198.321 Y24.225 E.13
G1 X197.998 Y24.548 E.01651
G1 X195.452 Y22.002 E.13
G1 X195.129 Y22.325 E.01651
G1 X197.675 Y24.871 E.13
G1 X197.351 Y25.194 E.01651
G1 X194.806 Y22.649 E.13
G1 X194.482 Y22.972 E.01651
G1 X197.028 Y25.518 E.13
G1 X196.705 Y25.841 E.01651
G1 X194.159 Y23.295 E.13
G1 X193.836 Y23.618 E.01651
G1 X196.382 Y26.164 E.13
G1 X196.058 Y26.487 E.01651
G1 X193.513 Y23.942 E.13
G1 X193.189 Y24.265 E.01651
G1 X195.735 Y26.811 E.13
G1 X195.412 Y27.134 E.01651
G1 X192.866 Y24.588 E.13
G1 X192.543 Y24.911 E.01651
G1 X195.089 Y27.457 E.13
G1 X194.765 Y27.78 E.01651
G1 X192.22 Y25.235 E.13
G1 X191.896 Y25.558 E.01651
G1 X194.442 Y28.104 E.13
G1 X194.119 Y28.427 E.01651
G1 X191.573 Y25.881 E.13
G1 X191.25 Y26.204 E.01651
G1 X193.796 Y28.75 E.13
G1 X193.473 Y29.073 E.01651
G1 X190.927 Y26.527 E.13
G1 X190.604 Y26.851 E.01651
G1 X193.149 Y29.396 E.13
G1 X192.826 Y29.72 E.01651
G1 X190.28 Y27.174 E.13
G1 X189.957 Y27.497 E.01651
G1 X192.503 Y30.043 E.13
G1 X192.18 Y30.366 E.01651
G1 X189.634 Y27.82 E.13
G1 X189.311 Y28.144 E.01651
G1 X191.856 Y30.689 E.13
G1 X191.533 Y31.013 E.01651
G1 X188.987 Y28.467 E.13
G1 X188.664 Y28.79 E.01651
G1 X191.21 Y31.336 E.13
G1 X190.887 Y31.659 E.01651
G1 X188.341 Y29.113 E.13
G1 X188.018 Y29.437 E.01651
G1 X190.563 Y31.982 E.13
G1 X190.24 Y32.305 E.01651
G1 X187.695 Y29.76 E.13
G1 X187.371 Y30.083 E.01651
G1 X189.917 Y32.629 E.13
G1 X189.594 Y32.952 E.01651
G1 X187.048 Y30.406 E.13
G1 X186.725 Y30.729 E.01651
G1 X189.271 Y33.275 E.13
G1 X188.947 Y33.598 E.01651
G1 X186.402 Y31.053 E.13
G1 X186.078 Y31.376 E.01651
G1 X188.624 Y33.922 E.13
G1 X188.301 Y34.245 E.01651
G1 X185.755 Y31.699 E.13
G1 X185.432 Y32.022 E.01651
G1 X187.978 Y34.568 E.13
G1 X187.654 Y34.891 E.01651
G1 X185.109 Y32.346 E.13
G1 X184.785 Y32.669 E.01651
G1 X187.331 Y35.215 E.13
G1 X187.008 Y35.538 E.01651
G1 X184.462 Y32.992 E.13
G1 X184.139 Y33.315 E.01651
G1 X186.685 Y35.861 E.13
G1 X186.362 Y36.184 E.01651
G1 X183.816 Y33.638 E.13
G1 X183.493 Y33.962 E.01651
G1 X186.038 Y36.507 E.13
G1 X185.715 Y36.831 E.01651
G1 X183.169 Y34.285 E.13
G1 X182.846 Y34.608 E.01651
G1 X185.392 Y37.154 E.13
G1 X185.069 Y37.477 E.01651
G1 X182.523 Y34.931 E.13
G1 X182.2 Y35.255 E.01651
M73 P6 R26
M73 P6 R26
G1 X184.745 Y37.8 E.13
G1 X184.422 Y38.124 E.01651
G1 X181.876 Y35.578 E.13
G1 X181.553 Y35.901 E.01651
G1 X184.099 Y38.447 E.13
G1 X183.776 Y38.77 E.01651
G1 X181.23 Y36.224 E.13
G1 X180.907 Y36.548 E.01651
G1 X183.452 Y39.093 E.13
G1 X183.129 Y39.417 E.01651
G1 X180.583 Y36.871 E.13
G1 X180.26 Y37.194 E.01651
G1 X182.806 Y39.74 E.13
G1 X182.483 Y40.063 E.01651
G1 X179.937 Y37.517 E.13
G1 X179.614 Y37.84 E.01651
G1 X182.16 Y40.386 E.13
G1 X181.836 Y40.709 E.01651
G1 X179.291 Y38.164 E.13
G1 X178.967 Y38.487 E.01651
G1 X181.513 Y41.033 E.13
G1 X181.19 Y41.356 E.01651
G1 X178.644 Y38.81 E.13
G1 X178.321 Y39.133 E.01651
G1 X180.867 Y41.679 E.13
G1 X180.543 Y42.002 E.01651
G1 X177.998 Y39.457 E.13
G1 X177.674 Y39.78 E.01651
G1 X180.22 Y42.326 E.13
G1 X179.897 Y42.649 E.01651
G1 X177.351 Y40.103 E.13
G1 X177.028 Y40.426 E.01651
G1 X179.574 Y42.972 E.13
G1 X179.25 Y43.295 E.01651
G1 X176.705 Y40.75 E.13
G1 X176.382 Y41.073 E.01651
G1 X178.927 Y43.618 E.13
G1 X178.604 Y43.942 E.01651
G1 X176.058 Y41.396 E.13
G1 X175.735 Y41.719 E.01651
G1 X178.281 Y44.265 E.13
G1 X177.958 Y44.588 E.01651
G1 X175.412 Y42.042 E.13
G1 X175.089 Y42.366 E.01651
G1 X177.634 Y44.911 E.13
G1 X177.311 Y45.235 E.01651
G1 X174.765 Y42.689 E.13
G1 X174.442 Y43.012 E.01651
G1 X176.988 Y45.558 E.13
G1 X176.665 Y45.881 E.01651
G1 X174.119 Y43.335 E.13
G1 X173.796 Y43.659 E.01651
G1 X176.341 Y46.204 E.13
G1 X176.018 Y46.528 E.01651
G1 X173.472 Y43.982 E.13
G1 X173.149 Y44.305 E.01651
G1 X175.695 Y46.851 E.13
G1 X175.372 Y47.174 E.01651
G1 X172.826 Y44.628 E.13
G1 X172.503 Y44.951 E.01651
G1 X175.049 Y47.497 E.13
G1 X174.725 Y47.82 E.01651
G1 X172.18 Y45.275 E.13
G1 X171.856 Y45.598 E.01651
G1 X174.402 Y48.144 E.13
G1 X174.079 Y48.467 E.01651
G1 X171.533 Y45.921 E.13
G1 X171.21 Y46.244 E.01651
G1 X173.756 Y48.79 E.13
G1 X173.432 Y49.113 E.01651
G1 X170.887 Y46.568 E.13
G1 X170.563 Y46.891 E.01651
G1 X173.109 Y49.437 E.13
G1 X172.786 Y49.76 E.01651
G1 X170.24 Y47.214 E.13
G1 X169.917 Y47.537 E.01651
G1 X172.463 Y50.083 E.13
G1 X172.139 Y50.406 E.01651
G1 X169.594 Y47.861 E.13
G1 X169.271 Y48.184 E.01651
G1 X171.816 Y50.729 E.13
G1 X171.493 Y51.053 E.01651
G1 X168.947 Y48.507 E.13
G1 X168.624 Y48.83 E.01651
G1 X171.17 Y51.376 E.13
G1 X170.847 Y51.699 E.01651
G1 X168.301 Y49.153 E.13
G1 X167.978 Y49.477 E.01651
G1 X170.523 Y52.022 E.13
G1 X170.2 Y52.346 E.01651
G1 X167.654 Y49.8 E.13
G1 X167.331 Y50.123 E.01651
G1 X169.877 Y52.669 E.13
G1 X169.554 Y52.992 E.01651
G1 X167.008 Y50.446 E.13
G1 X166.685 Y50.77 E.01651
G1 X169.23 Y53.315 E.13
G1 X168.907 Y53.639 E.01651
G1 X166.361 Y51.093 E.13
G1 X166.038 Y51.416 E.01651
G1 X168.584 Y53.962 E.13
G1 X168.261 Y54.285 E.01651
G1 X165.715 Y51.739 E.13
G1 X165.392 Y52.062 E.01651
G1 X167.938 Y54.608 E.13
G1 X167.614 Y54.931 E.01651
G1 X165.069 Y52.386 E.13
G1 X164.745 Y52.709 E.01651
G1 X167.291 Y55.255 E.13
G1 X166.968 Y55.578 E.01651
G1 X164.422 Y53.032 E.13
