;TIME:2636.15
;Filament used:3.42373m
;Layer height:0.200
; HEADER_BLOCK_START
; generated by Creality_Print V6.1.0.2041 on 2025-04-15 at 11:43:45
; total layer number: 90
; filament_density: 1.24
; filament_diameter: 1.75
; max_z_height: 18.00
; HEADER_BLOCK_END

; MINX = 94.00
; MINY = 79.50
; MINZ = 0.00
; MAXX = 126.00
; MAXY = 140.50
; MAXZ = 18.00

; THUMBNAIL_BLOCK_START

;
; THUMBNAIL_BLOCK_END

; THUMBNAIL_BLOCK_START

;
; THUMBNAIL_BLOCK_END

; external perimeters extrusion width = 0.42mm
; perimeters extrusion width = 0.45mm
; infill extrusion width = 0.45mm
; solid infill extrusion width = 0.42mm
; top infill extrusion width = 0.42mm
; first layer extrusion width = 0.50mm

; EXECUTABLE_BLOCK_START
M73 P0 R43
M201 X5000 Y5000 Z500 E5000
M203 X500 Y500 Z30 E100
M204 P5000 R2500 T5000 ; sets acceleration (P, T) and retract acceleration (R), mm/sec^2
M205 X10.00 Y10.00 Z0.40 E5.00 ; sets the jerk limits, mm/sec
;TYPE:Custom
M220 S100 ;Reset Feedrate 
M221 S100 ;Reset Flowrate 
 
M140 S60 ;Set final bed temp 
G28 ;Home 
 
G92 E0 ;Reset Extruder 
G1 Z2.0 F3000 ;Move Z Axis up 
M104 S205 ;Set final nozzle temp 
G1 X-2.1 Y20 Z0.28 F5000.0 ;Move to start position 
M190 S60 ;Wait for bed temp to stabilize 
M109 S205 ;Wait for nozzle temp to stabilize 
G1 X-2.1 Y145.0 Z0.28 F1500.0 E15 ;Draw the first line 
G1 X-2.4 Y145.0 Z0.28 F5000.0 ;Move to side a little 
G1 X-2.4 Y20 Z0.28 F1500.0 E30 ;Draw the second line 
G92 E0  ;Reset Extruder 
G1 E-1.0000 F1800 ;Retract a bit 
G1 Z2.0 F3000 ;Move Z Axis up 
G1 E0.0000 F1800
G90
G21
M83 ; use relative distances for extrusion
" "
G1 E-1.2 F2400
M106 S0
;LAYER_CHANGE
;Z:0.2
;HEIGHT:0.2
;BEFORE_LAYER_CHANGE
;0.2
G92 E0

;_SET_FAN_SPEED_CHANGING_LAYER
M204 P500
M205 X10 Y10
M204 T500
G1 Z.4 F9000
G1 X78.131 Y66.445
G1 Z.2
G1 E1.2 F1800
;TYPE:Skirt
;WIDTH:0.5
G1 F3000
G1 X80.706 Y63.835 E.13238
G1 X83.924 Y61.497 E.14361
G1 X87.186 Y59.861 E.13178
G1 X90.393 Y58.817 E.12175
G1 X94.01 Y58.219 E.13238
G1 X96 Y58.129 E.07191
G1 X124 Y58.129 E1.01097
G1 X125.677 Y58.195 E.06059
G1 X129.282 Y58.739 E.13166
G1 X132.797 Y59.853 E.13311
G1 X136.074 Y61.496 E.13238
G1 X139.055 Y63.631 E.13238
G1 X141.665 Y66.206 E.13239
G1 X143.84 Y69.158 E.13237
G1 X145.526 Y72.414 E.13239
G1 X146.752 Y76.18 E.14301
G1 X147.281 Y79.51 E.12175
G1 X147.371 Y81.5 E.07191
G1 X147.371 Y138.5 E2.05804
G1 X147.281 Y140.49 E.07191
G1 X146.756 Y143.802 E.12109
G1 X145.647 Y147.296 E.13238
G1 X143.84 Y150.842 E.14368
G1 X141.665 Y153.794 E.13237
G1 X139.294 Y156.165 E.1211
G1 X136.074 Y158.504 E.14368
G1 X132.796 Y160.147 E.13238
G1 X129.302 Y161.256 E.13238
G1 X125.99 Y161.781 E.12108
G1 X124 Y161.871 E.07191
G1 X96 Y161.871 E1.01097
G1 X94.01 Y161.781 E.07191
G1 X90.698 Y161.256 E.12108
G1 X87.222 Y160.154 E.13166
G1 X83.658 Y158.34 E.1444
G1 X80.706 Y156.165 E.13238
G1 X78.131 Y153.555 E.13239
G1 X75.997 Y150.576 E.13232
G1 X74.361 Y147.313 E.13178
G1 X73.317 Y144.107 E.12175
G1 X72.719 Y140.49 E.13239
G1 X72.629 Y138.5 E.07191
G1 X72.629 Y81.5 E2.05804
G1 X72.719 Y79.51 E.07191
G1 X73.244 Y76.198 E.12108
G1 X74.353 Y72.704 E.13239
G1 X76.16 Y69.158 E.14367
G1 X78.108 Y66.477 E.11964
G1 X78.476 Y66.745 F9000
G1 F3000
G1 X78.479 Y66.742 E.00015
G1 X81.003 Y64.183 E.12979
G1 X84.163 Y61.887 E.14102
G1 X87.362 Y60.283 E.1292
G1 X90.5 Y59.262 E.11914
G1 X94.046 Y58.675 E.12979
G1 X96 Y58.586 E.07062
G1 X124 Y58.586 E1.01097
G1 X125.641 Y58.65 E.05929
G1 X129.176 Y59.184 E.12908
G1 X132.622 Y60.276 E.13051
G1 X135.836 Y61.886 E.12979
G1 X138.758 Y63.979 E.12979
G1 X141.318 Y66.503 E.1298
G1 X143.45 Y69.397 E.12978
G1 X145.104 Y72.589 E.1298
G1 X146.307 Y76.287 E.14043
G1 X146.825 Y79.546 E.11915
G1 X146.914 Y81.5 E.07061
G1 X146.914 Y138.5 E2.05804
G1 X146.825 Y140.454 E.07061
G1 X146.312 Y143.695 E.1185
G1 X145.224 Y147.122 E.12979
G1 X143.45 Y150.603 E.14109
G1 X141.318 Y153.497 E.12978
G1 X138.997 Y155.818 E.11851
G1 X136.103 Y157.95 E.12979
G1 X132.911 Y159.604 E.12979
G1 X129.195 Y160.812 E.14109
G1 X125.954 Y161.325 E.11849
G1 X124 Y161.414 E.07062
G1 X96 Y161.414 E1.01097
G1 X94.046 Y161.325 E.07062
G1 X90.805 Y160.812 E.11849
G1 X87.397 Y159.732 E.12908
G1 X83.897 Y157.95 E.14179
G1 X81.003 Y155.818 E.12979
G1 X78.479 Y153.258 E.1298
G1 X76.387 Y150.337 E.12973
G1 X74.783 Y147.138 E.12921
G1 X73.762 Y144 E.11914
G1 X73.175 Y140.454 E.1298
G1 X73.086 Y138.5 E.07061
G1 X73.086 Y81.5 E2.05804
G1 X73.175 Y79.546 E.07062
G1 X73.688 Y76.305 E.11849
G1 X74.776 Y72.878 E.1298
G1 X76.55 Y69.397 E.14108
G1 X78.453 Y66.777 E.1169
G1 X78.821 Y67.045 F9000
G1 F3000
G1 X78.826 Y67.039 E.0003
G1 X81.3 Y64.53 E.1272
G1 X84.402 Y62.276 E.13843
G1 X87.537 Y60.705 E.12663
G1 X90.606 Y59.706 E.11654
G1 X94.082 Y59.131 E.1272
G1 X96 Y59.043 E.06932
G1 X124 Y59.043 E1.01097
G1 X125.605 Y59.106 E.058
G1 X129.07 Y59.629 E.12651
G1 X132.447 Y60.698 E.1279
G1 X135.597 Y62.275 E.1272
G1 X138.461 Y64.326 E.1272
G1 X140.97 Y66.8 E.12721
G1 X143.06 Y69.636 E.12719
G1 X144.682 Y72.763 E.12721
G1 X145.863 Y76.394 E.13786
G1 X146.369 Y79.582 E.11655
G1 X146.457 Y81.5 E.06932
G1 X146.457 Y138.5 E2.05804
G1 X146.369 Y140.418 E.06932
M73 P1 R43
M73 P1 R43
G1 X145.867 Y143.589 E.11591
G1 X144.802 Y146.947 E.1272
G1 X143.061 Y150.364 E.1385
G1 X140.97 Y153.2 E.12719
G1 X138.7 Y155.47 E.11592
G1 X135.864 Y157.561 E.1272
G1 X132.737 Y159.182 E.1272
G1 X129.088 Y160.367 E.1385
G1 X125.918 Y160.869 E.1159
G1 X124 Y160.957 E.06932
G1 X96 Y160.957 E1.01097
G1 X94.082 Y160.869 E.06932
G1 X90.912 Y160.367 E.1159
G1 X87.571 Y159.309 E.12651
G1 X84.136 Y157.561 E.13919
G1 X81.3 Y155.47 E.1272
G1 X78.826 Y152.961 E.12721
G1 X76.776 Y150.098 E.12714
G1 X75.205 Y146.963 E.12663
G1 X74.206 Y143.894 E.11654
G1 X73.631 Y140.418 E.12721
G1 X73.543 Y138.5 E.06932
G1 X73.543 Y81.5 E2.05804
G1 X73.631 Y79.582 E.06932
G1 X74.133 Y76.412 E.1159
G1 X75.198 Y73.053 E.12721
G1 X76.939 Y69.636 E.13849
G1 X78.798 Y67.078 E.11416
; printing object ESP32 TypeC.STL id:23 copy 0
G1 E-1.2 F2400
;WIPE_START
G1 F9000
G1 X78.826 Y67.039
G1 X80.197 Y65.649
;WIPE_END
G1 X87.428 Y68.09 Z.6
G1 X124.825 Y80.715 Z.6
G1 Z.2
G1 E1.2 F1800
;TYPE:Inner wall
;WIDTH:0.499999
G1 X125.078 Y81.148 E.01811
G1 X125.143 Y81.662 E.01872
G1 X125.143 Y138.498 E2.05211
G1 X125.01 Y139.015 E.01926
G1 X124.802 Y139.302 E.01281
G1 X124.515 Y139.51 E.01281
G3 X123.966 Y139.643 I-.868 J-2.384 E.02041
G1 X96.002 Y139.643 E1.00968
G1 X95.485 Y139.51 E.01926
G1 X95.198 Y139.302 E.01281
G1 X94.991 Y139.016 E.01275
G3 X94.857 Y138.466 I2.398 J-.874 E.02046
G1 X94.857 Y81.502 E2.05676
G1 X94.99 Y80.985 E.01926
G1 X95.198 Y80.698 E.01281
G1 X95.484 Y80.491 E.01275
G3 X96.033 Y80.357 I.874 J2.399 E.02045
G1 X124.176 Y80.38 E1.0161
G1 X124.515 Y80.49 E.01288
G1 X124.792 Y80.692 E.01237
G1 X124.195 Y79.923 F9000
;TYPE:Outer wall
G1 F1800
G1 X124.248 Y79.923 E.00192
G1 X124.725 Y80.078 E.0181
G3 X125.287 Y80.553 I-1.217 J2.011 E.02669
G1 X125.518 Y81.005 E.01833
G1 X125.6 Y81.662 E.02392
G1 X125.6 Y138.678 E2.05861
G1 X125.422 Y139.225 E.02075
G1 X125.129 Y139.629 E.01803
G1 X124.725 Y139.922 E.01803
G1 X124.24 Y140.08 E.01839
G1 X123.984 Y140.1 E.00927
G1 X95.822 Y140.1 E1.01683
G1 X95.275 Y139.922 E.02075
G1 X94.871 Y139.629 E.01803
G1 X94.578 Y139.226 E.01798
G1 X94.42 Y138.74 E.01845
G1 X94.4 Y138.484 E.00927
G1 X94.4 Y81.322 E2.06391
G1 X94.578 Y80.775 E.02075
G1 X94.871 Y80.371 E.01803
G1 X95.274 Y80.078 E.01798
G1 X95.76 Y79.92 E.01845
G1 X96.016 Y79.9 E.00926
G1 X124.155 Y79.923 E1.01599
G1 E-1.2 F2400
;WIPE_START
G1 F9000
G1 X124.248 Y79.923
G1 X124.725 Y80.078
G1 X125.043 Y80.309
G1 X125.287 Y80.553
G1 X125.518 Y81.005
G1 X125.537 Y81.163
;WIPE_END
G1 X120.561 Y86.951 Z.6
G1 X119.678 Y87.978 Z.6
G1 Z.2
G1 E1.2 F1800
;TYPE:Inner wall
G1 X119.643 Y87.8 E.00655
G1 X119.643 Y87.15 E.02346
G1 X119.66 Y86.998 E.00554
G1 X119.784 Y86.734 E.01053
G3 X120.481 Y86.465 I.608 J.537 E.02804
G1 X120.609 Y86.253 E.00894
G1 X120.808 Y86.123 E.00856
G1 X121.078 Y86.068 E.00995
G1 X122.521 Y86.068 E.0521
G3 X123.126 Y86.431 I-.046 J.762 E.02648
G1 X123.206 Y86.754 E.01201
G1 X123.206 Y88.196 E.0521
G3 X123.093 Y88.573 I-.686 J0 E.0144
G1 X122.809 Y88.726 E.01165
G1 X123.093 Y88.88 E.01165
G3 X123.206 Y89.256 I-.573 J.377 E.0144
G1 X123.206 Y90.699 E.0521
G3 X123.093 Y91.076 I-.686 J0 E.0144
G1 X122.809 Y91.229 E.01165
G1 X123.093 Y91.382 E.01165
G3 X123.206 Y91.759 I-.573 J.377 E.0144
G1 X123.206 Y93.202 E.0521
G3 X123.093 Y93.579 I-.686 J0 E.0144
G1 X122.809 Y93.732 E.01165
G1 X123.093 Y93.885 E.01165
G3 X123.206 Y94.262 I-.573 J.377 E.0144
G1 X123.206 Y95.705 E.0521
G3 X123.093 Y96.082 I-.686 J0 E.0144
G1 X122.809 Y96.235 E.01165
G1 X123.093 Y96.388 E.01165
G3 X123.206 Y96.765 I-.573 J.377 E.0144
G1 X123.206 Y98.208 E.0521
G3 X123.093 Y98.584 I-.686 J0 E.0144
G1 X122.809 Y98.737 E.01165
G1 X123.093 Y98.891 E.01165
G3 X123.206 Y99.267 I-.573 J.377 E.0144
G1 X123.206 Y100.71 E.0521
G3 X123.093 Y101.087 I-.686 J0 E.0144
G1 X122.809 Y101.24 E.01165
G1 X123.093 Y101.393 E.01165
G3 X123.206 Y101.77 I-.573 J.377 E.0144
G1 X123.206 Y103.213 E.0521
G3 X123.093 Y103.59 I-.686 J0 E.0144
G1 X122.809 Y103.743 E.01165
G1 X123.093 Y103.896 E.01165
G3 X123.206 Y104.273 I-.573 J.377 E.0144
G1 X123.206 Y105.716 E.0521
G3 X123.093 Y106.093 I-.686 J0 E.0144
G1 X122.809 Y106.246 E.01165
G1 X123.093 Y106.399 E.01165
G3 X123.206 Y106.776 I-.573 J.377 E.0144
G1 X123.206 Y108.219 E.0521
G3 X123.093 Y108.595 I-.686 J0 E.0144
G1 X122.809 Y108.749 E.01165
G1 X123.093 Y108.902 E.01165
G3 X123.206 Y109.279 I-.573 J.377 E.0144
G1 X123.206 Y110.721 E.0521
G3 X123.093 Y111.098 I-.686 J0 E.0144
G1 X122.809 Y111.251 E.01165
G1 X123.093 Y111.405 E.01165
G3 X123.206 Y111.781 I-.573 J.377 E.0144
G1 X123.206 Y113.224 E.0521
G3 X123.093 Y113.601 I-.686 J0 E.0144
G1 X122.809 Y113.754 E.01165
G1 X123.093 Y113.907 E.01165
G3 X123.206 Y114.284 I-.573 J.377 E.0144
G1 X123.206 Y115.727 E.0521
G3 X123.093 Y116.104 I-.686 J0 E.0144
G1 X122.809 Y116.257 E.01165
G1 X123.093 Y116.41 E.01165
G3 X123.206 Y116.787 I-.573 J.377 E.0144
G1 X123.206 Y118.23 E.0521
G3 X123.093 Y118.607 I-.686 J0 E.0144
G1 X122.809 Y118.76 E.01165
G1 X123.093 Y118.913 E.01165
G3 X123.206 Y119.29 I-.573 J.377 E.0144
G1 X123.206 Y120.733 E.0521
G3 X123.093 Y121.109 I-.686 J0 E.0144
G1 X122.809 Y121.262 E.01165
G1 X123.093 Y121.416 E.01165
G3 X123.206 Y121.792 I-.573 J.377 E.0144
G1 X123.206 Y123.235 E.0521
G3 X123.093 Y123.612 I-.686 J0 E.0144
G1 X122.809 Y123.765 E.01165
G1 X123.093 Y123.918 E.01165
G3 X123.206 Y124.295 I-.573 J.377 E.0144
G1 X123.206 Y125.738 E.0521
G3 X123.093 Y126.115 I-.686 J0 E.0144
G1 X122.809 Y126.268 E.01165
G1 X123.093 Y126.421 E.01165
G3 X123.206 Y126.798 I-.573 J.377 E.0144
G1 X123.206 Y128.241 E.0521
G3 X123.093 Y128.618 I-.686 J0 E.0144
G1 X122.809 Y128.771 E.01165
G1 X123.093 Y128.924 E.01165
G3 X123.206 Y129.301 I-.573 J.377 E.0144
G1 X123.206 Y130.744 E.0521
G3 X123.093 Y131.12 I-.686 J0 E.0144
G1 X122.809 Y131.274 E.01165
G1 X123.093 Y131.427 E.01165
G3 X123.206 Y131.804 I-.573 J.377 E.0144
G1 X123.206 Y133.246 E.0521
G1 X123.126 Y133.569 E.01201
G1 X122.932 Y133.795 E.01074
G1 X122.658 Y133.932 E.01107
G1 X121.078 Y133.932 E.05705
G1 X120.808 Y133.877 E.00994
G1 X120.61 Y133.747 E.00856
G1 X120.481 Y133.535 E.00895
G1 X120.093 Y133.494 E.01409
G1 X119.862 Y133.352 E.0098
G1 X119.685 Y133.087 E.01147
G1 X119.643 Y132.85 E.00872
G1 X119.643 Y132.2 E.02346
G1 X119.694 Y131.94 E.00957
G1 X119.893 Y131.67 E.01211
;WIDTH:0.512484
G1 X120.329 Y131.508 E.01722
G1 X120.477 Y131.508 E.00549
G1 X120.51 Y131.408 E.00393
G1 X120.643 Y131.274 E.007
G1 X120.505 Y131.133 E.0073
G1 X120.477 Y131.039 E.00364
;WIDTH:0.515961
G1 X120.268 Y131.038 E.00779
G1 X119.893 Y130.877 E.01524
;WIDTH:0.499999
G1 X119.694 Y130.607 E.01211
G1 X119.643 Y130.347 E.00957
G1 X119.643 Y129.697 E.02346
G1 X119.698 Y129.428 E.00993
G1 X119.904 Y129.159 E.01224
;WIDTH:0.512488
G1 X120.329 Y129.006 E.01674
G1 X120.477 Y129.006 E.00549
G1 X120.51 Y128.905 E.00393
G1 X120.643 Y128.771 E.007
G1 X120.505 Y128.63 E.0073
G1 X120.477 Y128.536 E.00364
;WIDTH:0.515962
G1 X120.268 Y128.535 E.00779
G1 X119.904 Y128.383 E.01474
;WIDTH:0.499999
G1 X119.698 Y128.114 E.01224
G1 X119.643 Y127.844 E.00993
G1 X119.643 Y127.195 E.02345
G1 X119.698 Y126.925 E.00993
G1 X119.904 Y126.656 E.01224
;WIDTH:0.512486
G1 X120.329 Y126.503 E.01674
G1 X120.477 Y126.503 E.00549
G1 X120.51 Y126.402 E.00393
G1 X120.643 Y126.268 E.007
G1 X120.505 Y126.127 E.0073
G1 X120.477 Y126.033 E.00364
;WIDTH:0.515963
G1 X120.268 Y126.032 E.00779
G1 X119.904 Y125.88 E.01474
;WIDTH:0.499999
G1 X119.698 Y125.611 E.01224
G1 X119.643 Y125.341 E.00993
G1 X119.643 Y124.692 E.02345
G1 X119.698 Y124.422 E.00993
G1 X119.904 Y124.153 E.01224
;WIDTH:0.512486
G1 X120.329 Y124 E.01674
G1 X120.477 Y124 E.00549
G1 X120.51 Y123.9 E.00393
G1 X120.643 Y123.765 E.007
G1 X120.505 Y123.624 E.0073
G1 X120.477 Y123.531 E.00364
;WIDTH:0.515961
G1 X120.268 Y123.53 E.00779
G1 X119.904 Y123.377 E.01474
;WIDTH:0.499999
G1 X119.698 Y123.108 E.01224
G1 X119.643 Y122.839 E.00993
G1 X119.643 Y122.189 E.02346
G1 X119.698 Y121.92 E.00993
G1 X119.904 Y121.651 E.01224
;WIDTH:0.512486
G1 X120.329 Y121.497 E.01674
G1 X120.477 Y121.497 E.00549
G1 X120.51 Y121.397 E.00393
G1 X120.643 Y121.262 E.007
G1 X120.505 Y121.121 E.0073
G1 X120.477 Y121.028 E.00364
;WIDTH:0.515961
G1 X120.268 Y121.027 E.00779
G1 X119.904 Y120.874 E.01474
;WIDTH:0.499999
G1 X119.698 Y120.605 E.01224
G1 X119.643 Y120.336 E.00993
G1 X119.643 Y119.686 E.02345
G1 X119.698 Y119.417 E.00993
G1 X119.904 Y119.148 E.01224
;WIDTH:0.512487
G1 X120.329 Y118.994 E.01674
G1 X120.477 Y118.994 E.00549
G1 X120.51 Y118.894 E.00393
G1 X120.643 Y118.76 E.007
G1 X120.505 Y118.619 E.0073
G1 X120.477 Y118.525 E.00364
;WIDTH:0.515961
G1 X120.268 Y118.524 E.00779
G1 X119.904 Y118.372 E.01474
;WIDTH:0.499999
G1 X119.698 Y118.103 E.01224
G1 X119.643 Y117.833 E.00993
G1 X119.643 Y117.184 E.02346
G1 X119.698 Y116.914 E.00993
G1 X119.904 Y116.645 E.01224
;WIDTH:0.512486
G1 X120.329 Y116.492 E.01674
G1 X120.477 Y116.492 E.00549
G1 X120.51 Y116.391 E.00393
G1 X120.643 Y116.257 E.007
G1 X120.505 Y116.116 E.0073
G1 X120.477 Y116.022 E.00364
;WIDTH:0.515961
G1 X120.268 Y116.021 E.00779
G1 X119.904 Y115.869 E.01474
;WIDTH:0.499999
G1 X119.698 Y115.6 E.01224
G1 X119.643 Y115.33 E.00993
G1 X119.643 Y114.681 E.02346
G1 X119.698 Y114.411 E.00993
G1 X119.904 Y114.142 E.01224
;WIDTH:0.512486
G1 X120.329 Y113.989 E.01674
G1 X120.477 Y113.989 E.00549
G1 X120.51 Y113.888 E.00393
G1 X120.643 Y113.754 E.007
G1 X120.505 Y113.613 E.0073
G1 X120.477 Y113.519 E.00364
;WIDTH:0.515961
G1 X120.268 Y113.519 E.00779
G1 X119.904 Y113.366 E.01474
;WIDTH:0.499999
G1 X119.698 Y113.097 E.01224
G1 X119.643 Y112.828 E.00993
G1 X119.643 Y112.178 E.02346
G1 X119.698 Y111.909 E.00993
G1 X119.904 Y111.639 E.01224
;WIDTH:0.512486
G1 X120.329 Y111.486 E.01674
G1 X120.477 Y111.486 E.00549
G1 X120.51 Y111.386 E.00393
G1 X120.643 Y111.251 E.007
G1 X120.505 Y111.11 E.0073
G1 X120.477 Y111.017 E.00364
;WIDTH:0.515961
G1 X120.268 Y111.016 E.00779
G1 X119.904 Y110.863 E.01474
;WIDTH:0.499999
G1 X119.698 Y110.594 E.01224
G1 X119.643 Y110.325 E.00993
G1 X119.643 Y109.675 E.02346
G1 X119.698 Y109.406 E.00993
G1 X119.904 Y109.137 E.01224
;WIDTH:0.512488
G1 X120.329 Y108.983 E.01674
G1 X120.477 Y108.983 E.00549
G1 X120.51 Y108.883 E.00393
G1 X120.643 Y108.749 E.007
G1 X120.505 Y108.608 E.0073
G1 X120.477 Y108.514 E.00364
;WIDTH:0.515962
G1 X120.268 Y108.513 E.00779
G1 X119.904 Y108.361 E.01474
;WIDTH:0.499999
G1 X119.698 Y108.091 E.01224
G1 X119.643 Y107.822 E.00993
G1 X119.643 Y107.172 E.02346
G1 X119.698 Y106.903 E.00993
G1 X119.904 Y106.634 E.01224
;WIDTH:0.512486
G1 X120.329 Y106.481 E.01674
G1 X120.477 Y106.481 E.00549
G1 X120.51 Y106.38 E.00393
G1 X120.643 Y106.246 E.007
G1 X120.505 Y106.105 E.0073
G1 X120.477 Y106.011 E.00364
;WIDTH:0.515961
G1 X120.268 Y106.01 E.00779
G1 X119.904 Y105.858 E.01474
;WIDTH:0.499999
G1 X119.698 Y105.589 E.01224
G1 X119.643 Y105.319 E.00993
G1 X119.643 Y104.67 E.02346
G1 X119.698 Y104.4 E.00993
G1 X119.904 Y104.131 E.01224
