;TIME:620.06
;Filament used:0.37554m
;Layer height:0.200
; HEADER_BLOCK_START
; generated by Creality_Print V6.0.5.1840 on 2025-03-26 at 23:15:40
; total layer number: 41
; filament_density: 1.24
; filament_diameter: 1.75
; max_z_height: 5.00
; HEADER_BLOCK_END

; MINX = 102.68
; MINY = 93.00
; MINZ = 0.00
; MAXX = 117.32
; MAXY = 127.00
; MAXZ = 5.00

; THUMBNAIL_BLOCK_START

;
; THUMBNAIL_BLOCK_END

; THUMBNAIL_BLOCK_START

;
; THUMBNAIL_BLOCK_END

; external perimeters extrusion width = 0.42mm
; perimeters extrusion width = 0.45mm
; infill extrusion width = 0.45mm
; solid infill extrusion width = 0.42mm
; top infill extrusion width = 0.42mm
; first layer extrusion width = 0.46mm

; EXECUTABLE_BLOCK_START
M73 P0 R10
M201 X5000 Y5000 Z500 E5000
M203 X500 Y500 Z30 E100
M204 P5000 R2500 T5000 ; sets acceleration (P, T) and retract acceleration (R), mm/sec^2
M205 X10.00 Y10.00 Z0.40 E5.00 ; sets the jerk limits, mm/sec
;TYPE:Custom
M220 S100 ;Reset Feedrate 
M221 S100 ;Reset Flowrate 
 
M140 S60 ;Set final bed temp 
G28 ;Home 
 
G92 E0 ;Reset Extruder 
G1 Z2.0 F3000 ;Move Z Axis up 
M104 S205 ;Set final nozzle temp 
G1 X-2.1 Y20 Z0.28 F5000.0 ;Move to start position 
M190 S60 ;Wait for bed temp to stabilize 
M109 S205 ;Wait for nozzle temp to stabilize 
G1 X-2.1 Y145.0 Z0.28 F1500.0 E15 ;Draw the first line 
G1 X-2.4 Y145.0 Z0.28 F5000.0 ;Move to side a little 
G1 X-2.4 Y20 Z0.28 F1500.0 E30 ;Draw the second line 
G92 E0  ;Reset Extruder 
G1 E-1.0000 F1800 ;Retract a bit 
M73 P1 R10
M73 P1 R10
G1 Z2.0 F3000 ;Move Z Axis up 
G1 E0.0000 F1800
G90
G21
M83 ; use relative distances for extrusion
" "
G1 E-1.2 F2400
M106 S0
;LAYER_CHANGE
;Z:0.2
;HEIGHT:0.2
;BEFORE_LAYER_CHANGE
;0.2
G92 E0

;_SET_FAN_SPEED_CHANGING_LAYER
M204 P500
M205 X8 Y8
M204 T500
G1 Z.4 F9000
G1 X84.23 Y89.401
G1 Z.2
G1 E1.2 F1800
;TYPE:Skirt
;WIDTH:0.46
G1 F3000
G1 X85.412 Y85.456 E.13569
G1 X87.333 Y81.813 E.13569
G1 X89.92 Y78.609 E.13569
G1 X93.077 Y75.964 E.13569
G1 X95.067 Y74.755 E.07672
G1 X98.855 Y73.138 E.13569
G1 X102.884 Y72.283 E.13569
G1 X105.265 Y72.149 E.07857
M73 P2 R10
M73 P2 R10
G1 X114.782 Y72.149 E.31356
G1 X118.881 Y72.548 E.13569
G1 X122.826 Y73.73 E.13569
G1 X127.051 Y76.048 E.15879
G1 X130.309 Y78.841 E.14137
G1 X132.848 Y82.084 E.13569
G1 X134.713 Y85.755 E.13569
G1 X135.835 Y89.718 E.13569
G1 X136.174 Y93.5 E.1251
G1 X136.161 Y98.245 E.15633
G1 X135.166 Y126.615 E.93528
G1 X134.624 Y130.698 E.13569
G1 X133.304 Y134.599 E.13569
G1 X131.257 Y138.173 E.13569
G1 X128.558 Y141.284 E.13569
G1 X126.188 Y143.229 E.10103
G1 X124.589 Y144.358 E.0645
G1 X121.01 Y146.397 E.13569
G1 X117.106 Y147.707 E.13569
G1 X112.329 Y148.251 E.1584
G1 X107.333 Y148.251 E.16462
G1 X101.379 Y147.4 E.19815
G1 X99.78 Y146.933 E.05488
G1 X95.957 Y145.402 E.13569
G1 X92.501 Y143.162 E.13569
G1 X89.542 Y140.297 E.13569
G1 X87.191 Y136.916 E.13569
G1 X85.537 Y133.144 E.13569
G1 X84.641 Y129.125 E.13569
G1 X84.488 Y127.01 E.06985
G1 X83.831 Y97.5 E.97249
G1 X83.831 Y93.5 E.13179
G1 X84.226 Y89.441 E.13437
G1 X84.643 Y89.482 F9000
G1 F3000
G1 X84.647 Y89.442 E.00132
G1 X85.829 Y85.539 E.13434
G1 X87.748 Y81.942 E.13434
G1 X90.331 Y78.787 E.13434
G1 X95.267 Y75.121 E.20257
G1 X99.019 Y73.524 E.13434
G1 X103.01 Y72.688 E.13434
G1 X105.265 Y72.566 E.07438
G1 X114.782 Y72.566 E.31356
G1 X118.84 Y72.965 E.13434
G1 X122.743 Y74.147 E.13434
G1 X126.81 Y76.389 E.15303
G1 X130.035 Y79.158 E.14002
G1 X132.539 Y82.376 E.13434
G1 X134.368 Y86.02 E.13434
G1 X135.453 Y89.951 E.13434
G1 X135.757 Y93.5 E.11736
G1 X135.745 Y98.23 E.15585
G1 X134.75 Y126.601 E.93528
G1 X134.208 Y130.642 E.13434
G1 X132.891 Y134.501 E.13434
G1 X130.846 Y138.03 E.13434
G1 X128.154 Y141.092 E.13434
M73 P3 R10
M73 P3 R10
G1 X125.947 Y142.888 E.09374
G1 X124.348 Y144.018 E.0645
G1 X120.803 Y146.033 E.13434
G1 X116.934 Y147.319 E.13434
G1 X112.329 Y147.834 E.15265
G1 X107.333 Y147.834 E.16462
G1 X101.496 Y147 E.19426
G1 X99.896 Y146.533 E.05488
G1 X96.113 Y145.013 E.13434
G1 X92.697 Y142.785 E.13434
G1 X89.782 Y139.935 E.13434
G1 X87.477 Y136.571 E.13434
G1 X85.871 Y132.823 E.13434
G1 X84.904 Y127.001 E.19444
G1 X84.248 Y97.5 E.97218
G1 X84.248 Y93.5 E.13179
G1 X84.639 Y89.522 E.1317
M73 P3 R9
M73 P3 R9
G1 X85.056 Y89.563 F9000
G1 F3000
G1 X85.064 Y89.483 E.00264
G1 X86.245 Y85.623 E.13299
G1 X88.163 Y82.072 E.13299
G1 X90.742 Y78.966 E.13299
G1 X95.468 Y75.487 E.19334
G1 X99.183 Y73.91 E.13299
G1 X103.137 Y73.094 E.13299
G1 X105.265 Y72.983 E.07021
G1 X114.782 Y72.983 E.31356
G1 X118.799 Y73.382 E.13299
G1 X122.658 Y74.563 E.13299
G1 X126.57 Y76.73 E.1473
G1 X129.76 Y79.474 E.13867
G1 X132.23 Y82.668 E.13299
G1 X134.023 Y86.284 E.13299
G1 X135.069 Y90.183 E.13299
G1 X135.34 Y93.5 E.10966
G1 X135.328 Y98.216 E.15536
G1 X134.333 Y126.586 E.93528
G1 X133.793 Y130.587 E.13299
G1 X132.477 Y134.403 E.13299
G1 X130.436 Y137.885 E.13299
G1 X127.75 Y140.898 E.13299
G1 X125.707 Y142.548 E.08652
G1 X124.108 Y143.677 E.0645
G1 X120.596 Y145.668 E.13299
G1 X116.762 Y146.93 E.13299
G1 X112.329 Y147.417 E.14693
G1 X107.333 Y147.417 E.16462
G1 X101.612 Y146.599 E.19037
G1 X100.013 Y146.133 E.05488
G1 X96.269 Y144.624 E.13299
G1 X92.895 Y142.409 E.13299
G1 X90.023 Y139.573 E.13299
G1 X87.764 Y136.227 E.13299
G1 X86.208 Y132.502 E.13299
G1 X85.321 Y126.991 E.18391
G1 X84.665 Y97.5 E.97187
G1 X84.665 Y93.5 E.13179
M73 P4 R9
M73 P4 R9
G1 X85.052 Y89.603 E.12903
; printing object Montaje id:4927571312193601536 copy 0
G1 E-1.2 F2400
;WIPE_START
G1 F3000
G1 X85.064 Y89.483
G1 X85.614 Y87.686
;WIPE_END
G1 X92.557 Y90.855 Z.6 F9000
G1 X112.032 Y99.745 Z.6
G1 Z.2
G1 E1.2 F1800
;TYPE:Inner wall
;WIDTH:0.459999
G1 X111.801 Y99.901 E.00918
G1 X111.725 Y100.036 E.0051
G1 X111.679 Y100.268 E.00781
G1 X111.688 Y101.325 E.03482
G1 X111.801 Y101.588 E.00945
G1 X112.032 Y101.745 E.00918
G1 X111.801 Y101.901 E.00918
G1 X111.725 Y102.036 E.0051
G1 X111.679 Y102.268 E.00781
G1 X111.688 Y103.325 E.03482
G1 X111.801 Y103.588 E.00945
G1 X112.032 Y103.745 E.00918
G1 X111.801 Y103.901 E.00918
G1 X111.725 Y104.036 E.0051
G1 X111.679 Y104.268 E.00781
G1 X111.688 Y105.325 E.03482
G1 X111.801 Y105.588 E.00945
G1 X112.032 Y105.745 E.00918
G1 X111.801 Y105.901 E.00918
G1 X111.725 Y106.036 E.0051
G1 X111.679 Y106.268 E.00781
G1 X111.688 Y107.325 E.03482
G1 X111.801 Y107.588 E.00945
G1 X112.032 Y107.745 E.00918
G1 X111.801 Y107.901 E.00918
G1 X111.725 Y108.036 E.0051
G1 X111.679 Y108.268 E.00781
G1 X111.688 Y109.325 E.03482
G1 X111.801 Y109.588 E.00945
G1 X112.032 Y109.745 E.00918
G1 X111.801 Y109.901 E.00918
G1 X111.725 Y110.036 E.0051
G1 X111.679 Y110.268 E.00781
G1 X111.688 Y111.325 E.03482
G1 X111.801 Y111.588 E.00945
G1 X112.032 Y111.745 E.00918
G1 X111.801 Y111.901 E.00918
G1 X111.725 Y112.036 E.0051
G1 X111.679 Y112.268 E.00781
G1 X111.688 Y113.325 E.03482
G1 X111.801 Y113.588 E.00945
G1 X112.032 Y113.745 E.00918
G1 X111.801 Y113.901 E.00918
G1 X111.725 Y114.036 E.0051
G1 X111.679 Y114.268 E.00781
G1 X111.688 Y115.325 E.03482
G1 X111.801 Y115.588 E.00945
G1 X112.032 Y115.745 E.00918
G1 X111.801 Y115.901 E.00918
G1 X111.725 Y116.036 E.0051
G1 X111.679 Y116.268 E.00781
G1 X111.688 Y117.325 E.03482
G1 X111.801 Y117.588 E.00945
G1 X112.032 Y117.745 E.00918
G1 X111.801 Y117.901 E.00918
G1 X111.725 Y118.036 E.0051
G1 X111.679 Y118.268 E.00781
G1 X111.688 Y119.325 E.03482
G1 X111.801 Y119.588 E.00945
G1 X112.032 Y119.745 E.00918
G1 X111.801 Y119.901 E.00918
G1 X111.725 Y120.036 E.0051
G1 X111.679 Y120.268 E.00781
G1 X111.688 Y121.325 E.03482
G1 X111.801 Y121.588 E.00945
G1 X112.032 Y121.745 E.00918
G1 X111.801 Y121.901 E.00918
G1 X111.725 Y122.036 E.0051
G1 X111.679 Y122.268 E.00781
G1 X111.688 Y123.325 E.03482
G1 X111.801 Y123.588 E.00945
G1 X112.032 Y123.745 E.00918
G1 X111.801 Y123.901 E.00918
G1 X111.725 Y124.036 E.0051
G1 X111.679 Y124.268 E.00781
G1 X111.679 Y125.217 E.03126
G1 X111.739 Y125.484 E.00903
G1 X111.826 Y125.62 E.0053
G1 X112.024 Y125.745 E.0077
G1 X111.826 Y125.869 E.0077
G1 X111.739 Y126.005 E.0053
G1 X111.679 Y126.353 E.01164
G1 X107.847 Y126.353 E.12624
G1 X107.655 Y126.256 E.0071
G1 X107.782 Y126.187 E.00479
G1 X107.983 Y125.728 E.0165
G1 X107.978 Y124.711 E.0335
G1 X107.86 Y124.412 E.0106
G1 X107.63 Y124.255 E.00918
G1 X107.86 Y124.099 E.00918
G1 X107.936 Y123.964 E.0051
G1 X107.983 Y123.732 E.00781
G1 X107.969 Y122.655 E.03547
G1 X107.86 Y122.412 E.0088
G1 X107.63 Y122.255 E.00918
G1 X107.86 Y122.099 E.00918
G1 X107.936 Y121.964 E.0051
G1 X107.983 Y121.732 E.00781
G1 X107.969 Y120.655 E.03547
G1 X107.86 Y120.412 E.0088
G1 X107.63 Y120.255 E.00918
G1 X107.86 Y120.099 E.00918
G1 X107.936 Y119.964 E.0051
G1 X107.983 Y119.732 E.00781
G1 X107.969 Y118.655 E.03547
G1 X107.86 Y118.412 E.0088
G1 X107.63 Y118.255 E.00918
G1 X107.86 Y118.099 E.00918
G1 X107.936 Y117.964 E.0051
G1 X107.983 Y117.732 E.00781
G1 X107.983 Y117.217 E.01697
G1 X107.969 Y116.655 E.0185
G1 X107.86 Y116.412 E.0088
G1 X107.63 Y116.255 E.00918
G1 X107.86 Y116.099 E.00918
G1 X107.936 Y115.964 E.0051
G1 X107.983 Y115.732 E.00781
G1 X107.983 Y115.217 E.01697
G1 X107.969 Y114.655 E.0185
G1 X107.86 Y114.412 E.0088
G1 X107.63 Y114.255 E.00918
G1 X107.86 Y114.099 E.00918
G1 X107.936 Y113.964 E.0051
G1 X107.983 Y113.732 E.00781
G1 X107.983 Y113.217 E.01697
G1 X107.97 Y112.655 E.0185
G1 X107.86 Y112.412 E.0088
G1 X107.63 Y112.255 E.00918
G1 X107.86 Y112.099 E.00918
G1 X107.936 Y111.964 E.0051
G1 X107.983 Y111.732 E.00781
G1 X107.983 Y111.217 E.01697
G1 X107.97 Y110.655 E.0185
G1 X107.86 Y110.412 E.0088
G1 X107.63 Y110.255 E.00918
G1 X107.86 Y110.099 E.00918
G1 X107.936 Y109.964 E.0051
G1 X107.983 Y109.732 E.00781
G1 X107.983 Y109.217 E.01697
G1 X107.97 Y108.655 E.0185
G1 X107.86 Y108.412 E.0088
G1 X107.63 Y108.255 E.00918
G1 X107.86 Y108.099 E.00918
G1 X107.936 Y107.964 E.0051
G1 X107.983 Y107.732 E.00781
G1 X107.983 Y107.217 E.01697
G1 X107.97 Y106.655 E.0185
G1 X107.86 Y106.412 E.0088
G1 X107.63 Y106.255 E.00918
G1 X107.86 Y106.099 E.00918
G1 X107.936 Y105.964 E.0051
G1 X107.983 Y105.732 E.00781
G1 X107.983 Y105.217 E.01697
G1 X107.97 Y104.655 E.0185
G1 X107.86 Y104.412 E.0088
G1 X107.63 Y104.255 E.00918
G1 X107.86 Y104.099 E.00918
G1 X107.936 Y103.964 E.0051
G1 X107.983 Y103.732 E.00781
G1 X107.983 Y103.217 E.01697
G1 X107.97 Y102.655 E.0185
G1 X107.86 Y102.412 E.0088
G1 X107.63 Y102.255 E.00918
G1 X107.86 Y102.099 E.00918
G1 X107.936 Y101.964 E.0051
G1 X107.983 Y101.732 E.00781
G1 X107.983 Y101.217 E.01697
G1 X107.97 Y100.655 E.0185
G1 X107.86 Y100.412 E.0088
G1 X107.63 Y100.255 E.00918
G1 X107.86 Y100.099 E.00918
G1 X107.936 Y99.964 E.0051
G1 X107.983 Y99.732 E.00781
G1 X107.983 Y99.217 E.01697
G1 X107.969 Y98.655 E.0185
G1 X107.86 Y98.412 E.0088
G1 X107.63 Y98.255 E.00918
G1 X107.86 Y98.099 E.00918
G1 X107.969 Y97.86 E.00866
G1 X107.966 Y97.436 E.01395
G1 X107.812 Y97.149 E.01072
G1 X107.615 Y97.009 E.00799
G1 X107.357 Y96.953 E.0087
G1 X105.729 Y96.953 E.05362
G1 X105.729 Y94.047 E.09574
G1 X114.276 Y94.047 E.2816
G1 X114.276 Y96.953 E.09574
G1 X113.907 Y96.953 E.01217
G1 X113.488 Y97.113 E.01477
G1 X113.386 Y97.343 E.00829
G1 X112.756 Y97.508 E.02144
G1 X111.963 Y97.748 E.02729
G1 X111.758 Y97.968 E.00992
G1 X111.679 Y98.268 E.01023
G1 X111.688 Y99.325 E.03482
G1 X111.801 Y99.588 E.00945
G1 X111.999 Y99.722 E.00786
G1 X112.299 Y100.058 F9000
;TYPE:Outer wall
G1 F1800
G1 X112.137 Y100.148 E.0061
G1 X112.096 Y100.271 E.00425
G1 X112.111 Y101.296 E.03376
M73 P5 R9
M73 P5 R9
G1 X112.27 Y101.422 E.00669
G1 X113.682 Y101.659 E.04716
G1 X113.698 Y101.693 E.00125
G1 X112.299 Y102.058 E.04766
G1 X112.137 Y102.148 E.0061
G1 X112.096 Y102.271 E.00425
G1 X112.111 Y103.296 E.03376
G1 X112.27 Y103.422 E.00669
G1 X113.682 Y103.659 E.04716
G1 X113.698 Y103.693 E.00125
G1 X112.299 Y104.058 E.04766
G1 X112.137 Y104.148 E.0061
G1 X112.096 Y104.271 E.00425
G1 X112.111 Y105.296 E.03376
G1 X112.27 Y105.422 E.00669
G1 X113.682 Y105.659 E.04716
G1 X113.698 Y105.693 E.00125
G1 X112.299 Y106.058 E.04766
G1 X112.137 Y106.148 E.0061
G1 X112.096 Y106.271 E.00425
G1 X112.111 Y107.296 E.03376
G1 X112.27 Y107.422 E.00669
G1 X113.682 Y107.659 E.04716
G1 X113.698 Y107.693 E.00125
G1 X112.299 Y108.058 E.04766
G1 X112.137 Y108.148 E.0061
G1 X112.096 Y108.271 E.00425
G1 X112.111 Y109.296 E.03376
G1 X112.27 Y109.422 E.00669
G1 X113.682 Y109.659 E.04716
G1 X113.698 Y109.693 E.00125
G1 X112.299 Y110.058 E.04766
G1 X112.137 Y110.148 E.0061
G1 X112.096 Y110.271 E.00425
G1 X112.111 Y111.296 E.03376
G1 X112.27 Y111.422 E.00669
G1 X113.682 Y111.659 E.04716
G1 X113.698 Y111.693 E.00125
G1 X112.299 Y112.058 E.04766
G1 X112.137 Y112.148 E.0061
G1 X112.096 Y112.271 E.00425
G1 X112.111 Y113.296 E.03376
G1 X112.27 Y113.422 E.00669
G1 X113.682 Y113.659 E.04716
G1 X113.698 Y113.693 E.00125
G1 X112.299 Y114.058 E.04766
G1 X112.137 Y114.148 E.0061
G1 X112.096 Y114.271 E.00425
G1 X112.111 Y115.296 E.03376
G1 X112.27 Y115.422 E.00669
G1 X113.682 Y115.659 E.04716
G1 X113.698 Y115.693 E.00125
G1 X112.299 Y116.058 E.04766
G1 X112.137 Y116.148 E.0061
G1 X112.096 Y116.271 E.00425
G1 X112.111 Y117.296 E.03376
G1 X112.27 Y117.422 E.00669
G1 X113.682 Y117.659 E.04716
G1 X113.698 Y117.693 E.00125
G1 X112.299 Y118.058 E.04766
G1 X112.137 Y118.148 E.0061
G1 X112.096 Y118.271 E.00425
G1 X112.111 Y119.296 E.03376
G1 X112.27 Y119.422 E.00669
G1 X113.682 Y119.659 E.04716
G1 X113.698 Y119.693 E.00125
G1 X112.299 Y120.058 E.04766
G1 X112.137 Y120.148 E.0061
G1 X112.096 Y120.271 E.00425
G1 X112.111 Y121.296 E.03376
G1 X112.27 Y121.422 E.00669
G1 X113.682 Y121.659 E.04716
G1 X113.698 Y121.693 E.00125
G1 X112.299 Y122.058 E.04766
G1 X112.137 Y122.148 E.0061
G1 X112.096 Y122.271 E.00425
G1 X112.111 Y123.296 E.03376
G1 X112.27 Y123.422 E.00669
G1 X113.682 Y123.659 E.04716
G1 X113.698 Y123.693 E.00125
G1 X112.252 Y124.071 E.04925
G1 X112.111 Y124.193 E.00615
G1 X112.096 Y124.496 E.01
G1 X112.116 Y125.306 E.02668
G1 X112.27 Y125.422 E.00636
G1 X113.682 Y125.659 E.04716
G1 X113.698 Y125.693 E.00125
G1 X112.252 Y126.071 E.04925
G1 X112.116 Y126.183 E.00581
G1 X112.098 Y126.77 E.01934
G1 X107.557 Y126.77 E.14962
G1 X107.497 Y126.631 E.00498
G1 X107.388 Y126.578 E.00397
G1 X105.963 Y126.339 E.04761
G1 X105.978 Y126.303 E.00126
G1 X107.486 Y125.909 E.05136
G1 X107.566 Y125.728 E.00654
G1 X107.55 Y124.704 E.03372
G1 X107.391 Y124.578 E.00669
G1 X105.98 Y124.341 E.04716
G1 X105.963 Y124.307 E.00125
G1 X107.363 Y123.942 E.04766
G1 X107.525 Y123.852 E.0061
G1 X107.566 Y123.729 E.00425
G1 X107.55 Y122.704 E.03376
G1 X107.391 Y122.578 E.00669
G1 X105.98 Y122.341 E.04716
G1 X105.963 Y122.307 E.00125
G1 X107.363 Y121.942 E.04766
G1 X107.525 Y121.852 E.0061
G1 X107.566 Y121.729 E.00425
G1 X107.55 Y120.704 E.03376
G1 X107.391 Y120.578 E.00669
G1 X105.98 Y120.341 E.04716
G1 X105.963 Y120.307 E.00125
G1 X107.363 Y119.942 E.04766
G1 X107.525 Y119.852 E.0061
G1 X107.566 Y119.729 E.00425
G1 X107.55 Y118.704 E.03376
G1 X107.391 Y118.578 E.00669
G1 X105.98 Y118.341 E.04716
G1 X105.963 Y118.307 E.00125
G1 X107.363 Y117.942 E.04766
G1 X107.525 Y117.852 E.0061
G1 X107.566 Y117.729 E.00425
G1 X107.55 Y116.704 E.03376
G1 X107.391 Y116.578 E.00669
G1 X105.98 Y116.341 E.04716
G1 X105.963 Y116.307 E.00125
G1 X107.363 Y115.942 E.04766
G1 X107.525 Y115.852 E.0061
G1 X107.566 Y115.729 E.00425
G1 X107.55 Y114.704 E.03376
G1 X107.391 Y114.578 E.00669
G1 X105.98 Y114.341 E.04716
G1 X105.963 Y114.307 E.00125
G1 X107.363 Y113.942 E.04766
G1 X107.525 Y113.852 E.0061
G1 X107.566 Y113.729 E.00425
G1 X107.55 Y112.704 E.03376
G1 X107.392 Y112.578 E.00669
G1 X105.98 Y112.341 E.04716
G1 X105.963 Y112.307 E.00125
G1 X107.363 Y111.942 E.04766
G1 X107.525 Y111.852 E.0061
G1 X107.566 Y111.729 E.00425
G1 X107.55 Y110.704 E.03376
G1 X107.392 Y110.578 E.00669
G1 X105.98 Y110.341 E.04716
G1 X105.963 Y110.307 E.00125
G1 X107.363 Y109.942 E.04766
G1 X107.525 Y109.852 E.0061
G1 X107.566 Y109.729 E.00425
G1 X107.55 Y108.704 E.03376
G1 X107.392 Y108.578 E.00669
G1 X105.98 Y108.341 E.04716
G1 X105.963 Y108.307 E.00125
G1 X107.363 Y107.942 E.04766
G1 X107.525 Y107.852 E.0061
G1 X107.566 Y107.729 E.00425
G1 X107.566 Y107.217 E.01688
G1 X107.55 Y106.704 E.01689
