;TIME:1999.43
;Filament used:3.77102m
;Layer height:0.200
; HEADER_BLOCK_START
; generated by Creality_Print V6.0.4.1793 on 2025-03-09 at 19:37:25
; total layer number: 30
; filament_density: 1.24
; filament_diameter: 1.75
; max_z_height: 6.00
; HEADER_BLOCK_END

; MINX = 60.00
; MINY = 90.00
; MINZ = 0.00
; MAXX = 160.00
; MAXY = 130.00
; MAXZ = 6.00

; THUMBNAIL_BLOCK_START

;
; THUMBNAIL_BLOCK_END

; THUMBNAIL_BLOCK_START

;
; THUMBNAIL_BLOCK_END

; external perimeters extrusion width = 0.42mm
; perimeters extrusion width = 0.45mm
; infill extrusion width = 0.45mm
; solid infill extrusion width = 0.42mm
; top infill extrusion width = 0.42mm
; first layer extrusion width = 0.50mm

; EXECUTABLE_BLOCK_START
M73 P0 R33
M201 X5000 Y5000 Z500 E5000
M203 X500 Y500 Z30 E100
M204 P5000 R2500 T5000 ; sets acceleration (P, T) and retract acceleration (R), mm/sec^2
M205 X10.00 Y10.00 Z0.40 E5.00 ; sets the jerk limits, mm/sec
;TYPE:Custom
M220 S100 ;Reset Feedrate 
M221 S100 ;Reset Flowrate 
 
M140 S60 ;Set final bed temp 
G28 ;Home 
 
G92 E0 ;Reset Extruder 
G1 Z2.0 F3000 ;Move Z Axis up 
M104 S205 ;Set final nozzle temp 
G1 X-2.1 Y20 Z0.28 F5000.0 ;Move to start position 
M190 S60 ;Wait for bed temp to stabilize 
M109 S205 ;Wait for nozzle temp to stabilize 
G1 X-2.1 Y145.0 Z0.28 F1500.0 E15 ;Draw the first line 
G1 X-2.4 Y145.0 Z0.28 F5000.0 ;Move to side a little 
G1 X-2.4 Y20 Z0.28 F1500.0 E30 ;Draw the second line 
G92 E0  ;Reset Extruder 
G1 E-1.0000 F1800 ;Retract a bit 
G1 Z2.0 F3000 ;Move Z Axis up 
G1 E0.0000 F1800
G90
G21
M83 ; use relative distances for extrusion
" "
G1 E-1.2 F2400
M106 S0
;LAYER_CHANGE
;Z:0.2
;HEIGHT:0.2
;BEFORE_LAYER_CHANGE
;0.2
G92 E0

;_SET_FAN_SPEED_CHANGING_LAYER
M204 P500
M205 X10 Y10
M204 T500
G1 Z.4 F9000
G1 X49.394 Y73.457
G1 Z.2
G1 E1.2 F1800
;TYPE:Skirt
;WIDTH:0.5
G1 F3000
G1 X50.694 Y72.583 E.05656
G1 X53.331 Y71.271 E.10635
G1 X56.129 Y70.312 E.1068
G1 X58.985 Y69.734 E.10519
G1 X61.921 Y69.532 E.10627
G1 X159.046 Y69.554 E3.50679
G1 X162.218 Y69.932 E.11535
G1 X165.167 Y70.705 E.11005
G1 X167.569 Y71.67 E.09349
G1 X169.591 Y72.751 E.08279
G1 X172.171 Y74.567 E.11389
G1 X174.612 Y76.869 E.12117
G1 X176.217 Y78.848 E.09199
G1 X177.546 Y80.916 E.08877
G1 X178.822 Y83.561 E.10602
G1 X179.862 Y86.811 E.12322
G1 X180.375 Y89.97 E.11553
G1 X180.471 Y92 E.07339
G1 X180.471 Y128 E1.29982
G1 X180.44 Y129.154 E.04167
G1 X180.068 Y132.218 E.11146
G1 X179.251 Y135.297 E.115
G1 X177.863 Y138.497 E.12597
G1 X175.88 Y141.608 E.13319
G1 X173.832 Y143.943 E.11214
G1 X171.717 Y145.796 E.10154
G1 X169.499 Y147.305 E.09685
G1 X167.229 Y148.486 E.09241
G1 X164.447 Y149.524 E.1072
G1 X161.716 Y150.16 E.10125
G1 X159.046 Y150.446 E.09694
G1 X60.846 Y150.44 E3.54559
G1 X57.782 Y150.068 E.11146
G1 X54.833 Y149.295 E.11005
G1 X52.431 Y148.33 E.09349
G1 X50.409 Y147.249 E.08279
G1 X47.829 Y145.433 E.11389
G1 X45.388 Y143.131 E.12117
G1 X43.783 Y141.152 E.09199
G1 X42.454 Y139.084 E.08877
G1 X41.109 Y136.266 E.11273
G1 X40.138 Y133.189 E.11652
G1 X39.609 Y129.845 E.12224
G1 X39.529 Y128 E.06667
G1 X39.529 Y92 E1.29982
G1 X39.582 Y90.481 E.05487
G1 X39.949 Y87.691 E.1016
G1 X40.705 Y84.833 E.10673
G1 X41.67 Y82.431 E.09349
G1 X42.751 Y80.409 E.08279
G1 X44.204 Y78.283 E.09296
G1 X46.168 Y76.057 E.10719
G1 X48.283 Y74.204 E.10154
G1 X49.361 Y73.479 E.04688
G1 X49.615 Y73.858 F9000
G1 F3000
G1 X50.922 Y72.979 E.05688
G1 X53.506 Y71.694 E.10418
G1 X56.247 Y70.753 E.10464
G1 X59.045 Y70.187 E.10305
M73 P0 R32
M73 P0 R32
G1 X61.921 Y69.989 E.1041
M73 P1 R32
M73 P1 R32
G1 X159.023 Y70.011 E3.50599
G1 X162.134 Y70.381 E.11311
G1 X165.02 Y71.137 E.1077
G1 X167.374 Y72.083 E.0916
G1 X169.357 Y73.143 E.08118
G1 X171.881 Y74.92 E.11145
G1 X174.273 Y77.176 E.11874
G1 X175.846 Y79.114 E.09011
G1 X177.148 Y81.141 E.08698
G1 X178.398 Y83.731 E.10383
G1 X179.417 Y86.915 E.12073
G1 X179.92 Y90.009 E.11316
G1 X180.014 Y92 E.07197
G1 X180.014 Y128 E1.29982
G1 X179.984 Y129.131 E.04086
G1 X179.619 Y132.134 E.10922
G1 X178.819 Y135.15 E.11264
G1 X177.46 Y138.282 E.12328
G1 X175.517 Y141.33 E.13051
G1 X173.509 Y143.62 E.10997
G1 X171.439 Y145.433 E.09937
G1 X169.264 Y146.913 E.09497
G1 X167.04 Y148.07 E.09054
G1 X164.314 Y149.086 E.10502
G1 X161.641 Y149.709 E.09909
G1 X159.023 Y149.989 E.09506
G1 X60.869 Y149.984 E3.54397
G1 X57.866 Y149.619 E.10922
G1 X54.98 Y148.863 E.1077
G1 X52.626 Y147.917 E.0916
G1 X50.643 Y146.857 E.08118
G1 X48.119 Y145.08 E.11145
G1 X45.727 Y142.824 E.11874
G1 X44.154 Y140.886 E.09011
G1 X42.852 Y138.859 E.08698
G1 X41.533 Y136.096 E.11054
G1 X40.583 Y133.085 E.11403
G1 X40.064 Y129.805 E.11987
G1 X39.986 Y128 E.06525
G1 X39.986 Y92 E1.29982
G1 X40.038 Y90.511 E.05381
G1 X40.397 Y87.78 E.09942
G1 X41.137 Y84.98 E.10457
G1 X42.083 Y82.626 E.0916
G1 X43.143 Y80.643 E.08118
G1 X44.567 Y78.561 E.09108
G1 X46.491 Y76.38 E.10502
G1 X48.561 Y74.567 E.09937
G1 X49.582 Y73.88 E.04442
G1 X49.837 Y74.259 F9000
G1 F3000
G1 X51.151 Y73.374 E.05721
G1 X53.681 Y72.116 E.10201
G1 X56.365 Y71.195 E.10247
G1 X59.104 Y70.64 E.1009
G1 X61.921 Y70.446 E.10193
G1 X159.001 Y70.467 E3.50518
G1 X162.05 Y70.831 E.11087
G1 X164.873 Y71.57 E.10534
G1 X167.178 Y72.496 E.0897
G1 X169.122 Y73.535 E.07958
G1 X171.591 Y75.273 E.10902
G1 X173.935 Y77.483 E.11632
G1 X175.474 Y79.38 E.08823
G1 X176.749 Y81.365 E.08518
G1 X177.973 Y83.901 E.10165
G1 X178.972 Y87.02 E.11824
G1 X179.465 Y90.048 E.1108
G1 X179.557 Y92 E.07054
G1 X179.557 Y128 E1.29982
G1 X179.527 Y129.109 E.04005
G1 X179.203 Y131.867 E.10027
G1 X178.386 Y135.003 E.117
G1 X177.057 Y138.066 E.12058
G1 X175.154 Y141.052 E.12782
G1 X173.186 Y143.296 E.10779
G1 X171.161 Y145.071 E.09719
G1 X169.029 Y146.521 E.09309
G1 X166.851 Y147.654 E.08867
G1 X164.181 Y148.649 E.10285
G1 X161.567 Y149.258 E.09692
G1 X159.001 Y149.533 E.09318
G1 X60.891 Y149.527 E3.54236
G1 X57.95 Y149.169 E.10698
G1 X55.127 Y148.43 E.10534
G1 X52.822 Y147.504 E.0897
G1 X50.878 Y146.465 E.07958
G1 X48.409 Y144.727 E.10902
G1 X46.065 Y142.517 E.11632
G1 X44.526 Y140.62 E.08823
G1 X43.251 Y138.635 E.08518
G1 X41.957 Y135.926 E.10836
G1 X41.028 Y132.98 E.11153
G1 X40.519 Y129.766 E.11751
G1 X40.443 Y128 E.06382
G1 X40.495 Y90.54 E1.35252
G1 X40.845 Y87.87 E.09725
G1 X41.57 Y85.127 E.10241
G1 X42.496 Y82.822 E.0897
G1 X43.535 Y80.878 E.07958
G1 X44.929 Y78.839 E.0892
G1 X46.814 Y76.704 E.10285
G1 X48.839 Y74.929 E.09719
G1 X49.803 Y74.281 E.04196
; printing object Object_1 id:8171063952611762432 copy 0
G1 E-1.2 F2400
;WIPE_START
G1 F9000
G1 X51.151 Y73.374
G1 X51.488 Y73.207
;WIPE_END
G1 X53.872 Y80.458 Z.6
G1 X68.279 Y124.269 Z.6
G1 Z.2
G1 E1.2 F1800
;TYPE:Inner wall
;WIDTH:0.499999
G1 X68.171 Y124.243 E.00399
G1 X63.829 Y124.243 E.15681
G1 X63.565 Y124.296 E.00971
G1 X63.28 Y124.517 E.01303
G1 X63.143 Y124.929 E.01566
G1 X63.143 Y128.243 E.11967
G1 X61.969 Y128.228 E.0424
G1 X61.811 Y128.138 E.00655
G1 X61.757 Y127.944 E.00727
G1 X61.757 Y92.052 E1.29594
G1 X61.846 Y91.823 E.00885
G1 X62.005 Y91.76 E.00616
G1 X63.143 Y91.758 E.0411
G1 X63.143 Y95.166 E.12305
G1 X63.28 Y95.483 E.01246
G1 X63.565 Y95.704 E.01303
G1 X63.829 Y95.757 E.00971
G1 X68.308 Y95.757 E.16175
G1 X68.61 Y95.598 E.0123
G1 X68.793 Y95.36 E.01085
G1 X68.857 Y95.071 E.01068
G1 X68.857 Y91.757 E.11967
G1 X107.143 Y91.757 E1.38235
G1 X107.143 Y95.171 E.12327
M73 P2 R32
M73 P2 R32
G1 X107.284 Y95.488 E.0125
G1 X107.53 Y95.689 E.01149
G1 X107.829 Y95.757 E.01105
G1 X112.27 Y95.757 E.16038
G1 X112.581 Y95.622 E.01222
G1 X112.783 Y95.381 E.01136
G1 X112.857 Y95.071 E.01148
G1 X112.857 Y91.757 E.11967
G1 X151.143 Y91.757 E1.38235
G1 X151.143 Y95.071 E.11967
G2 X151.286 Y95.49 I.686 J0 E.01627
G1 X151.533 Y95.69 E.01148
G1 X151.829 Y95.757 E.01094
G1 X156.171 Y95.757 E.15681
G1 X156.435 Y95.704 E.00971
G1 X156.72 Y95.483 E.01303
G1 X156.847 Y95.19 E.01152
G1 X156.857 Y91.757 E.12395
G1 X158.031 Y91.772 E.0424
G1 X158.189 Y91.862 E.00655
G1 X158.243 Y92.079 E.00809
G1 X158.243 Y127.915 E1.29389
G1 X158.207 Y128.109 E.00711
G1 X158.08 Y128.22 E.0061
G1 X156.857 Y128.234 E.04417
G1 X156.857 Y124.929 E.11936
G1 X156.72 Y124.517 E.01566
G1 X156.435 Y124.296 E.01303
G1 X156.171 Y124.243 E.00971
G1 X151.694 Y124.243 E.16167
G1 X151.372 Y124.417 E.01321
G1 X151.206 Y124.641 E.01007
G1 X151.143 Y124.929 E.01062
G1 X151.143 Y128.243 E.11967
G1 X112.857 Y128.243 E1.38235
G1 X112.857 Y124.827 E.12335
G1 X112.712 Y124.507 E.01267
G1 X112.48 Y124.316 E.01084
G1 X112.171 Y124.243 E.01146
G1 X107.72 Y124.243 E.16074
G1 X107.415 Y124.381 E.01206
G1 X107.215 Y124.623 E.01136
G1 X107.143 Y124.929 E.01131
G1 X107.143 Y128.243 E.11967
G1 X68.857 Y128.243 E1.38235
G1 X68.857 Y124.929 E.11967
G2 X68.485 Y124.319 I-.758 J.044 E.02687
G1 X68.318 Y124.278 E.0062
G1 X68.4 Y124.929 F9000
;TYPE:Outer wall
G1 F1800
G1 X68.334 Y124.768 E.00627
G1 X68.171 Y124.7 E.00637
G1 X63.829 Y124.7 E.15681
G1 X63.646 Y124.791 E.00738
G1 X63.6 Y124.929 E.00522
G1 X63.6 Y128.7 E.13617
G3 X61.781 Y128.661 I-.575 J-15.577 E.06572
G1 X61.572 Y128.549 E.00856
G1 X61.388 Y128.314 E.01079
G1 X61.3 Y127.978 E.01253
G1 X61.3 Y92.452 E1.2827
G1 X61.326 Y91.827 E.02257
G3 X61.612 Y91.42 I1.022 J.415 E.01814
G1 X61.959 Y91.303 E.01322
G1 X63.6 Y91.3 E.05924
G1 X63.6 Y95.071 E.13616
G1 X63.646 Y95.209 E.00522
G1 X63.829 Y95.3 E.00738
G1 X68.171 Y95.3 E.15681
G1 X68.328 Y95.238 E.00608
G1 X68.4 Y95.071 E.00654
G1 X68.4 Y91.3 E.13617
G1 X107.6 Y91.3 E1.41535
G1 X107.6 Y95.071 E.13617
G1 X107.665 Y95.231 E.00623
G1 X107.829 Y95.3 E.0064
G1 X112.171 Y95.3 E.15681
G1 X112.329 Y95.237 E.00611
G1 X112.4 Y95.071 E.00652
G1 X112.4 Y91.3 E.13617
G1 X151.6 Y91.3 E1.41535
G1 X151.6 Y95.071 E.13617
G1 X151.664 Y95.23 E.00617
G1 X151.829 Y95.3 E.00646
G1 X156.171 Y95.3 E.15681
G1 X156.354 Y95.209 E.00738
G1 X156.4 Y95.071 E.00522
G1 X156.4 Y91.3 E.13617
G3 X158.219 Y91.339 I.575 J15.577 E.06572
G1 X158.499 Y91.525 E.01214
G1 X158.667 Y91.798 E.01159
G1 X158.7 Y92.079 E.01022
G1 X158.7 Y127.915 E1.29389
G1 X158.66 Y128.223 E.01121
G1 X158.456 Y128.528 E.01325
G1 X158.166 Y128.676 E.01177
G1 X156.4 Y128.697 E.06375
G1 X156.4 Y124.929 E.13606
G1 X156.354 Y124.791 E.00522
G1 X156.171 Y124.7 E.00738
G1 X151.829 Y124.7 E.15681
G1 X151.662 Y124.772 E.00653
G1 X151.6 Y124.929 E.0061
G1 X151.6 Y128.7 E.13617
G1 X112.4 Y128.7 E1.41535
G1 X112.4 Y124.929 E.13617
G1 X112.332 Y124.766 E.00636
G1 X112.171 Y124.7 E.00627
G1 X107.829 Y124.7 E.15681
G1 X107.669 Y124.764 E.0062
G1 X107.6 Y124.929 E.00643
G1 X107.6 Y128.7 E.13617
G1 X68.4 Y128.7 E1.41535
G1 X68.4 Y124.969 E.13473
G1 E-1.2 F2400
;WIPE_START
G1 F9000
G1 X68.334 Y124.768
G1 X68.171 Y124.7
G1 X66.559 Y124.7
;WIPE_END
G1 X73.901 Y122.615 Z.6
G1 X134.38 Y105.443 Z.6
G1 Z.2
M73 P3 R32
M73 P3 R32
G1 E1.2 F1800
;TYPE:Inner wall
G1 X136.071 Y105.443 E.06105
G1 X136.34 Y105.498 E.00991
G1 X136.559 Y105.647 E.00957
G1 X137.096 Y106.191 E.02759
G1 X137.611 Y106.515 E.02197
G3 X138.364 Y107.232 I-7.672 J8.814 E.03754
G1 X138.829 Y107.928 E.03023
G3 X139.224 Y108.938 I-8.247 J3.806 E.03918
G1 X139.329 Y109.52 E.02138
G1 X139.343 Y110.32 E.02887
G1 X139.236 Y111.012 E.02527
G1 X139.01 Y111.692 E.02589
G1 X138.594 Y112.38 E.02901
G1 X138.111 Y112.915 E.02603
G1 X137.605 Y113.321 E.02343
G1 X137.293 Y113.502 E.01303
G1 X137.193 Y113.716 E.00851
G1 X136.556 Y114.356 E.03262
G1 X136.279 Y114.525 E.0117
G1 X136.071 Y114.557 E.0076
G1 X133.929 Y114.557 E.07734
G1 X133.657 Y114.501 E.01004
G1 X133.444 Y114.356 E.00928
G1 X132.844 Y113.756 E.03066
G1 X132.705 Y113.557 E.00876
G3 X132.643 Y113.047 I1.136 J-.397 E.01866
G3 X131.972 Y112.386 I2.235 J-2.936 E.03412
G1 X131.552 Y111.723 E.02832
G1 X131.284 Y111.026 E.02697
G1 X131.168 Y110.427 E.02201
G3 X131.459 Y108.31 I5.112 J-.377 E.07772
G1 X131.691 Y107.817 E.01968
G1 X132.087 Y107.242 E.02519
G1 X132.464 Y106.841 E.01991
G1 X132.647 Y106.69 E.00855
G1 X132.733 Y106.39 E.01128
G1 X133.444 Y105.644 E.03723
G1 X133.721 Y105.475 E.0117
G1 X133.929 Y105.443 E.0076
G1 X134.34 Y105.443 E.01485
G1 X133.968 Y105.9 F9000
;TYPE:Outer wall
G1 F1800
G1 X136.071 Y105.9 E.07594
G1 X136.234 Y105.968 E.00637
G1 X136.808 Y106.55 E.0295
G1 X137.367 Y106.902 E.02388
G1 X137.973 Y107.478 E.03017
G1 X138.449 Y108.181 E.03067
G3 X138.774 Y109.019 I-16.176 J6.763 E.03245
G1 X138.879 Y109.599 E.0213
G1 X138.886 Y110.322 E.0261
G1 X138.786 Y110.936 E.02244
G1 X138.578 Y111.542 E.02315
G1 X138.212 Y112.13 E.025
G1 X137.776 Y112.604 E.02327
G1 X137.324 Y112.961 E.02079
G1 X136.9 Y113.196 E.0175
G1 X136.845 Y113.419 E.00831
G1 X136.233 Y114.033 E.03131
G1 X136.071 Y114.1 E.00632
G1 X133.929 Y114.1 E.07734
G1 X133.767 Y114.033 E.00632
G1 X133.167 Y113.433 E.03066
G1 X133.121 Y113.366 E.00292
G1 X133.1 Y112.829 E.01942
G3 X132.309 Y112.076 I2.194 J-3.1 E.03957
G1 X131.942 Y111.485 E.02511
G1 X131.714 Y110.869 E.0237
G1 X131.618 Y110.348 E.01916
G1 X131.612 Y109.725 E.02248
G1 X131.718 Y109.025 E.02555
G1 X131.895 Y108.445 E.0219
G1 X132.12 Y107.988 E.0184
G1 X132.46 Y107.506 E.0213
G3 X133.1 Y106.917 I2.397 J1.964 E.0315
G1 X133.133 Y106.61 E.01115
G1 X133.767 Y105.967 E.03261
G1 X133.928 Y105.9 E.00627
G1 E-1.2 F2400
;WIPE_START
G1 F9000
G1 X135.928 Y105.9
;WIPE_END
G1 X128.296 Y105.854 Z.6
G1 X83.537 Y105.587 Z.6
G1 Z.2
G1 E1.2 F1800
;TYPE:Inner wall
G1 X83.721 Y105.475 E.00776
G1 X83.929 Y105.443 E.0076
G1 X86.071 Y105.443 E.07734
G1 X86.34 Y105.498 E.00991
G1 X86.559 Y105.647 E.00957
G1 X87.096 Y106.191 E.02759
G1 X87.611 Y106.515 E.02197
G1 X88.29 Y107.148 E.03351
G1 X88.829 Y107.928 E.03423
G1 X89.189 Y108.812 E.03448
G1 X89.328 Y109.517 E.02594
G3 X89.236 Y111.012 I-5.15 J.432 E.05426
G1 X88.999 Y111.725 E.02713
G1 X88.594 Y112.38 E.0278
G1 X88.111 Y112.915 E.02603
G1 X87.605 Y113.321 E.02343
G1 X87.293 Y113.502 E.01303
G1 X87.193 Y113.716 E.00851
G1 X86.556 Y114.356 E.03262
G1 X86.279 Y114.525 E.0117
G1 X86.071 Y114.557 E.0076
G1 X83.929 Y114.557 E.07734
G1 X83.657 Y114.501 E.01004
G1 X83.444 Y114.356 E.00928
G1 X82.844 Y113.756 E.03066
G1 X82.693 Y113.527 E.0099
G3 X82.643 Y113.047 I1.213 J-.368 E.01751
G3 X81.972 Y112.386 I2.235 J-2.936 E.03412
G1 X81.552 Y111.723 E.02832
G1 X81.284 Y111.026 E.02697
G1 X81.168 Y110.427 E.02201
G1 X81.155 Y109.727 E.02527
G1 X81.266 Y108.955 E.02818
G1 X81.459 Y108.31 E.0243
G1 X81.691 Y107.817 E.01968
G1 X82.087 Y107.242 E.02519
G1 X82.464 Y106.841 E.01991
G1 X82.647 Y106.69 E.00855
G1 X82.733 Y106.39 E.01128
G1 X83.444 Y105.644 E.03723
G1 X83.503 Y105.608 E.0025
G1 X83.503 Y106.235 F9000
;TYPE:Outer wall
G1 F1800
G1 X83.767 Y105.967 E.01358
G1 X83.929 Y105.9 E.00632
G1 X86.071 Y105.9 E.07734
G1 X86.234 Y105.968 E.00637
G1 X86.808 Y106.55 E.0295
G1 X87.367 Y106.902 E.02388
G1 X87.973 Y107.478 E.03017
G1 X88.449 Y108.181 E.03067
G1 X88.762 Y108.977 E.03089
G1 X88.879 Y109.598 E.02282
G1 X88.886 Y110.322 E.02614
G1 X88.786 Y110.936 E.02244
G1 X88.567 Y111.574 E.02438
G1 X88.212 Y112.13 E.02379
G1 X87.776 Y112.604 E.02327
G1 X87.324 Y112.961 E.02079
G1 X86.9 Y113.196 E.0175
G1 X86.845 Y113.419 E.00831
G1 X86.233 Y114.033 E.03131
G1 X86.071 Y114.1 E.00632
G1 X83.929 Y114.1 E.07734
G1 X83.767 Y114.033 E.00632
G1 X83.167 Y113.433 E.03066
G1 X83.1 Y113.271 E.00632
G1 X83.1 Y112.829 E.01597
G3 X82.309 Y112.076 I2.194 J-3.1 E.03957
G1 X81.942 Y111.485 E.02511
G1 X81.714 Y110.869 E.0237
G1 X81.618 Y110.348 E.01916
G1 X81.612 Y109.725 E.02248
G1 X81.718 Y109.025 E.02555
G1 X81.895 Y108.445 E.0219
G1 X82.12 Y107.988 E.0184
G1 X82.462 Y107.503 E.02141
G3 X83.1 Y106.917 I2.401 J1.973 E.03139
G1 X83.134 Y106.609 E.01119
G1 X83.475 Y106.263 E.01754
G1 E-1.2 F2400
;WIPE_START
G1 F9000
G1 X83.767 Y105.967
G1 X83.929 Y105.9
G1 X85.338 Y105.9
;WIPE_END
G1 Z.6
G1 X158.106 Y92.836
G1 Z.6
G1 Z.2
G1 E1.2 F1800
;TYPE:Bottom surface
;WIDTH:0.502147
G1 F4800
G1 X157.373 Y92.104 E.03758
G1 X157.2 Y92.101 E.00628
G1 X157.2 Y92.58 E.01737
G1 X157.9 Y93.28 E.0359
G1 X157.9 Y93.929 E.02355
G1 X157.2 Y93.23 E.03589
G1 X157.2 Y93.879 E.02356
G1 X157.899 Y94.578 E.03588
G1 X157.899 Y95.228 E.02355
G1 X157.2 Y94.528 E.03587
G3 X157.192 Y95.17 I-3.687 J.274 E.0233
G1 X157.899 Y95.877 E.03628
G1 X157.899 Y96.526 E.02355
G1 X157.017 Y95.644 E.04524
