;TIME:7299.87
;Filament used:12.12581m
;Layer height:0.200
; HEADER_BLOCK_START
; generated by Creality_Print V6.0.4.1793 on 2025-03-05 at 22:32:03
; total layer number: 269
; filament_density: 1.24
; filament_diameter: 1.75
; max_z_height: 40.00
; HEADER_BLOCK_END

; MINX = 67.33
; MINY = 65.00
; MINZ = 0.00
; MAXX = 152.67
; MAXY = 155.00
; MAXZ = 40.00

; THUMBNAIL_BLOCK_START

;
; THUMBNAIL_BLOCK_END

; THUMBNAIL_BLOCK_START

;
; THUMBNAIL_BLOCK_END

; external perimeters extrusion width = 0.42mm
; perimeters extrusion width = 0.45mm
; infill extrusion width = 0.45mm
; solid infill extrusion width = 0.42mm
; top infill extrusion width = 0.42mm
; support material extrusion width = 0.40mm
; first layer extrusion width = 0.50mm

; EXECUTABLE_BLOCK_START
M73 P0 R121
M201 X5000 Y5000 Z500 E5000
M203 X500 Y500 Z30 E100
M204 P5000 R2500 T5000 ; sets acceleration (P, T) and retract acceleration (R), mm/sec^2
M205 X10.00 Y10.00 Z0.40 E5.00 ; sets the jerk limits, mm/sec
;TYPE:Custom
M220 S100 ;Reset Feedrate 
M221 S100 ;Reset Flowrate 
 
M140 S60 ;Set final bed temp 
G28 ;Home 
 
G92 E0 ;Reset Extruder 
G1 Z2.0 F3000 ;Move Z Axis up 
M104 S205 ;Set final nozzle temp 
G1 X-2.1 Y20 Z0.28 F5000.0 ;Move to start position 
M190 S60 ;Wait for bed temp to stabilize 
M109 S205 ;Wait for nozzle temp to stabilize 
G1 X-2.1 Y145.0 Z0.28 F1500.0 E15 ;Draw the first line 
G1 X-2.4 Y145.0 Z0.28 F5000.0 ;Move to side a little 
G1 X-2.4 Y20 Z0.28 F1500.0 E30 ;Draw the second line 
G92 E0  ;Reset Extruder 
G1 E-1.0000 F1800 ;Retract a bit 
G1 Z2.0 F3000 ;Move Z Axis up 
G1 E0.0000 F1800
G90
G21
M83 ; use relative distances for extrusion
" "
G1 E-1.2 F2400
M106 S0
;LAYER_CHANGE
;Z:0.2
;HEIGHT:0.2
;BEFORE_LAYER_CHANGE
;0.2
G92 E0

;_SET_FAN_SPEED_CHANGING_LAYER
M204 P500
M205 X10 Y10
M204 T500
G1 Z.4 F9000
G1 X46.298 Y45.409
G1 Z.2
G1 E1.2 F1800
;TYPE:Skirt
;WIDTH:0.5
G1 F3000
G1 X48.613 Y43.368 E.11143
G1 X50.35 Y42.106 E.0775
G1 X53.006 Y40.536 E.11143
G1 X54.949 Y39.622 E.07751
G1 X57.852 Y38.576 E.11142
G1 X59.539 Y38.13 E.063
G1 X61.647 Y37.728 E.0775
G1 X64.72 Y37.437 E.11143
G1 X66.866 Y37.437 E.0775
G1 X154.194 Y43.684 E3.16111
G1 X158.266 Y44.376 E.14912
G1 X162.128 Y45.838 E.14912
G1 X165.637 Y48.016 E.14912
G1 X168.662 Y50.828 E.14912
G1 X171.089 Y54.17 E.14912
G1 X172.828 Y57.916 E.14912
G1 X173.814 Y61.926 E.14912
G1 X174.036 Y65 E.11127
G1 X174.036 Y155 E3.24954
G1 X173.637 Y159.111 E.14912
G1 X172.455 Y163.068 E.14912
G1 X170.534 Y166.724 E.14912
G1 X167.945 Y169.942 E.14912
G1 X164.786 Y172.602 E.14912
G1 X161.174 Y174.604 E.14912
G1 X157.244 Y175.875 E.14912
G1 X154.583 Y176.285 E.09722
G1 X68.277 Y184.061 E3.12879
G1 X65.286 Y184.149 E.10804
G1 X63.143 Y184.015 E.07751
G1 X61.414 Y183.783 E.06299
G1 X59.703 Y183.444 E.06299
G1 X58.016 Y182.998 E.063
G1 X56.361 Y182.447 E.06299
G1 X54.743 Y181.793 E.06299
G1 X53.17 Y181.039 E.06299
G1 X51.647 Y180.187 E.06299
G1 X50.181 Y179.241 E.063
G1 X48.777 Y178.206 E.06299
G1 X47.441 Y177.084 E.06299
G1 X45.258 Y174.902 E.11143
G1 X44.137 Y173.566 E.06299
G1 X43.101 Y172.162 E.06299
G1 X42.155 Y170.695 E.063
G1 X41.304 Y169.173 E.06299
G1 X40.55 Y167.599 E.06299
G1 X39.759 Y165.603 E.07751
G1 X38.898 Y162.64 E.11143
G1 X38.559 Y160.929 E.06299
G1 X38.328 Y159.199 E.06299
G1 X38.206 Y157.459 E.063
G1 X38.019 Y65.227 E3.33014
G1 X38.126 Y62.775 E.0886
G1 X38.395 Y60.645 E.07751
G1 X39.069 Y57.634 E.11143
G1 X39.732 Y55.592 E.0775
G1 X40.958 Y52.76 E.11143
G1 X41.992 Y50.879 E.07751
G1 X43.726 Y48.326 E.11143
G1 X45.095 Y46.672 E.07751
G1 X46.271 Y45.438 E.06155
G1 X46.601 Y45.753 F9000
G1 F3000
G1 X46.621 Y45.732 E.00105
G1 X48.893 Y43.729 E.10935
G1 X50.607 Y42.485 E.07647
G1 X53.214 Y40.943 E.10935
G1 X55.13 Y40.041 E.07647
G1 X57.98 Y39.015 E.10935
G1 X59.639 Y38.576 E.06196
G1 X61.719 Y38.179 E.07647
G1 X64.734 Y37.894 E.10936
G1 X66.852 Y37.894 E.07646
G1 X154.161 Y44.139 E3.16044
G1 X158.188 Y44.828 E.14751
G1 X162.004 Y46.287 E.14751
G1 X165.464 Y48.46 E.14751
G1 X168.436 Y51.264 E.14751
G1 X170.805 Y54.592 E.14751
G1 X172.483 Y58.317 E.14751
G1 X173.404 Y62.297 E.14751
G1 X173.579 Y65 E.09779
G1 X173.579 Y155 E3.24954
G1 X173.18 Y159.066 E.14751
G1 X171.998 Y162.977 E.14751
G1 X170.079 Y166.583 E.14751
G1 X167.494 Y169.748 E.14751
G1 X164.344 Y172.349 E.14751
G1 X160.749 Y174.289 E.14751
G1 X156.844 Y175.492 E.14751
G1 X154.542 Y175.83 E.08403
G1 X68.236 Y183.606 E3.12879
G1 X65.3 Y183.692 E.10604
G1 X63.186 Y183.559 E.07647
G1 X61.485 Y183.332 E.06196
G1 X59.802 Y182.998 E.06195
G1 X58.143 Y182.559 E.06196
G1 X56.515 Y182.017 E.06195
G1 X54.925 Y181.373 E.06196
G1 X53.377 Y180.631 E.06196
G1 X51.88 Y179.794 E.06196
G1 X50.438 Y178.863 E.06196
G1 X49.057 Y177.845 E.06195
G1 X47.743 Y176.741 E.06196
G1 X45.601 Y174.599 E.10936
G1 X44.498 Y173.285 E.06196
G1 X43.479 Y171.905 E.06195
G1 X42.549 Y170.463 E.06196
G1 X41.711 Y168.965 E.06196
G1 X40.969 Y167.418 E.06196
G1 X40.189 Y165.449 E.07647
G1 X39.345 Y162.54 E.10935
G1 X39.011 Y160.857 E.06195
G1 X38.783 Y159.156 E.06196
G1 X38.663 Y157.444 E.06196
G1 X38.476 Y65.226 E3.32965
G1 X38.581 Y62.818 E.08702
G1 X38.847 Y60.717 E.07647
G1 X39.508 Y57.761 E.10936
G1 X40.162 Y55.747 E.07647
G1 X41.365 Y52.967 E.10935
G1 X42.385 Y51.111 E.07647
G1 X44.088 Y48.606 E.10935
G1 X45.438 Y46.975 E.07647
G1 X46.574 Y45.782 E.05947
G1 X46.905 Y46.098 F9000
G1 F3000
G1 X46.945 Y46.056 E.0021
G1 X49.173 Y44.091 E.10728
G1 X50.864 Y42.863 E.07543
G1 X53.421 Y41.35 E.10728
G1 X55.312 Y40.46 E.07544
G1 X58.107 Y39.454 E.10728
G1 X59.738 Y39.022 E.06092
G1 X61.79 Y38.631 E.07543
G1 X64.749 Y38.351 E.10729
G1 X66.838 Y38.351 E.07543
G1 X154.129 Y44.595 E3.15978
G1 X158.11 Y45.281 E.14589
G1 X161.88 Y46.736 E.14589
G1 X165.29 Y48.903 E.14589
G1 X168.207 Y51.699 E.14589
G1 X170.519 Y55.013 E.14589
G1 X172.133 Y58.717 E.14589
G1 X172.989 Y62.666 E.14589
G1 X173.122 Y65 E.08442
G1 X173.122 Y155 E3.24954
G1 X172.723 Y159.021 E.14589
G1 X171.542 Y162.885 E.14589
G1 X169.624 Y166.441 E.14589
G1 X167.044 Y169.551 E.14589
G1 X163.904 Y172.093 E.14589
G1 X160.325 Y173.969 E.14589
G1 X154.501 Y175.375 E.21633
G1 X68.195 Y183.151 E3.12879
G1 X65.314 Y183.236 E.10404
G1 X63.229 Y183.104 E.07544
G1 X61.557 Y182.88 E.06092
G1 X59.902 Y182.552 E.06092
G1 X58.271 Y182.12 E.06092
G1 X56.67 Y181.587 E.06091
G1 X55.106 Y180.954 E.06092
G1 X53.585 Y180.224 E.06092
G1 X52.112 Y179.4 E.06092
G1 X50.695 Y178.485 E.06092
G1 X49.337 Y177.483 E.06092
G1 X48.045 Y176.398 E.06092
G1 X45.944 Y174.297 E.10729
G1 X44.859 Y173.005 E.06092
G1 X43.857 Y171.648 E.06092
G1 X42.942 Y170.23 E.06092
G1 X42.118 Y168.758 E.06092
G1 X41.389 Y167.236 E.06092
G1 X40.62 Y165.294 E.07543
G1 X39.791 Y162.44 E.10728
G1 X39.462 Y160.786 E.06092
G1 X39.238 Y159.113 E.06092
G1 X39.119 Y157.43 E.06092
G1 X38.933 Y65.225 E3.32916
G1 X39.036 Y62.861 E.08543
M73 P0 R120
M73 P0 R120
G1 X39.298 Y60.788 E.07543
G1 X39.947 Y57.889 E.10728
G1 X40.592 Y55.902 E.07543
G1 X41.772 Y53.175 E.10728
G1 X42.779 Y51.344 E.07543
G1 X44.449 Y48.887 E.10728
G1 X45.78 Y47.277 E.07543
G1 X46.877 Y46.126 E.05738
; printing object parte 1 caja pared.STL id:3230496 copy 0
G1 E-1.2 F2400
;WIPE_START
G1 F3000
G1 X46.945 Y46.056
G1 X48.371 Y44.798
;WIPE_END
G1 X53.243 Y50.673 Z.6 F9000
G1 X61.412 Y60.523 Z.6
G1 Z.2
G1 E1.2 F1800
;TYPE:Support
G3 X66.195 Y58.798 I4.385 J4.666 E.1888
G3 X72.143 Y64.371 I-.44 J6.43 E.31862
G1 X71.17 Y64.371 E.03513
G1 X71.037 Y64.505 E.00684
G1 X71.037 Y66.995 E.08988
G1 X71.17 Y67.129 E.00684
G1 X71.894 Y67.129 E.02612
G3 X71.809 Y67.371 I-1.973 J-.552 E.0093
G1 X71.17 Y67.371 E.02306
G1 X71.037 Y67.505 E.00684
G1 X71.037 Y70.495 E.10793
G1 X71.17 Y70.629 E.00684
G1 X72.672 Y70.629 E.05423
G3 X60.259 Y68.403 I-6.417 J.063 E.81472
G3 X61.383 Y60.55 I5.538 J-3.215 E.30891
G1 X61.725 Y60.856 F9000
G1 F1800
G3 X66.166 Y59.254 I4.075 J4.34 E.17529
G3 X71.611 Y63.914 I-.422 J6.004 E.27717
G2 X70.579 Y64.316 I-.315 J.717 E.04441
G1 X70.579 Y70.684 E.22992
G1 X70.981 Y71.086 E.02051
G1 X72.207 Y71.086 E.04427
G3 X60.733 Y68.564 I-5.934 J-.365 E.74086
G3 X59.859 Y64.815 I10.219 J-4.359 E.13968
G3 X61.696 Y60.884 I5.941 J.381 E.16037
G1 X62.033 Y61.221 F9000
G1 F1800
G1 X62.296 Y60.962 E.01334
G3 X66.138 Y59.711 I3.502 J4.231 E.14937
G3 X71 Y63.457 I-.353 J5.487 E.23514
G1 X70.792 Y63.457 E.00753
G1 X70.122 Y64.127 E.03418
G1 X70.122 Y70.873 E.24359
G2 X71.71 Y71.543 I1.128 J-.459 E.0691
G3 X61.198 Y68.622 I-5.432 J-.827 E.67078
G2 X60.402 Y66.217 I-15.305 J3.731 E.09158
G3 X61.566 Y61.692 I5.396 J-1.024 E.17426
G1 X62.005 Y61.249 E.0225
G1 X62.329 Y61.594 F9000
G1 F1800
G1 X62.841 Y61.126 E.02507
G3 X66.109 Y60.167 I2.97 J4.078 E.12542
G3 X70.409 Y63.194 I-.352 J5.068 E.19955
G1 X69.665 Y63.937 E.03798
G1 X69.665 Y71.063 E.25727
G1 X70.602 Y72 E.04785
G1 X71.138 Y72 E.01933
G3 X61.663 Y68.681 I-4.866 J-1.292 E.59926
G2 X60.92 Y66.44 I-9.493 J1.901 E.08546
G3 X61.924 Y61.988 I4.892 J-1.236 E.17098
G1 X62.3 Y61.622 E.01894
G1 X62.628 Y61.93 F9000
G1 F1800
G1 X62.883 Y61.671 E.01313
G3 X66.08 Y60.624 I2.926 J3.529 E.12438
G3 X69.864 Y63.092 I-.333 J4.645 E.17031
G1 X69.208 Y63.748 E.0335
G1 X69.208 Y71.252 E.27094
G1 X70.476 Y72.52 E.06473
G3 X62.127 Y68.74 I-4.207 J-1.818 E.52556
G2 X61.541 Y66.872 I-3.958 J.218 E.07142
G3 X62.1 Y62.505 I4.268 J-1.672 E.1658
G1 X62.601 Y61.959 E.02675
G1 X62.932 Y62.27 F9000
G1 F1800
G1 X63.174 Y62.022 E.0125
G3 X66.052 Y61.08 I2.633 J3.176 E.11194
G3 X69.292 Y63.017 I-.27 J4.131 E.14156
G1 X68.751 Y63.559 E.02764
G1 X68.751 Y71.441 E.28461
G1 X69.93 Y72.62 E.0602
G3 X62.592 Y68.798 I-3.659 J-1.93 E.46772
G2 X61.966 Y66.704 I-4.154 J.101 E.07987
G3 X62.469 Y62.774 I3.842 J-1.505 E.14923
G1 X62.905 Y62.299 E.02324
G1 X63.235 Y62.609 F9000
G1 F1800
G1 X63.465 Y62.374 E.01188
G3 X66.023 Y61.536 I2.341 J2.823 E.09951
G3 X68.704 Y62.96 I-.25 J3.707 E.11289
G1 X68.294 Y63.369 E.02093
G1 X68.294 Y71.631 E.29828
G1 X69.356 Y72.692 E.05421
G3 X63.057 Y68.857 I-3.093 J-2.01 E.41063
G2 X62.391 Y66.535 I-4.365 J-.004 E.08835
G3 X62.839 Y63.042 I3.415 J-1.338 E.13265
G1 X63.208 Y62.639 E.01973
G1 X63.512 Y62.984 F9000
G1 F1800
G1 X64.083 Y62.493 E.02718
G3 X65.994 Y61.993 I1.741 J2.75 E.07248
G3 X68.079 Y62.938 I-.222 J3.265 E.08444
G1 X67.837 Y63.18 E.01238
G1 X67.837 Y71.82 E.31195
G1 X68.759 Y72.742 E.04706
G3 X63.521 Y68.916 I-2.496 J-2.081 E.35353
G1 X63.377 Y67.39 E.05533
G3 X63.33 Y63.151 I2.447 J-2.147 E.16668
G1 X63.482 Y63.011 E.00747
G1 X63.799 Y63.316 F9000
G1 F1800
G3 X65.965 Y62.449 I2.038 J1.953 E.08685
G3 X67.38 Y62.95 I-.182 J2.762 E.05486
G1 X67.38 Y72.009 E.32709
G1 X68.127 Y72.756 E.03813
G3 X63.986 Y68.974 I-1.824 J-2.16 E.29431
G1 X63.823 Y67.245 E.06271
G3 X63.772 Y63.345 I2.015 J-1.977 E.15549
G1 X64.076 Y63.69 F9000
G1 F1800
G1 X64.597 Y63.303 E.02344
G3 X65.937 Y62.906 I1.33 J2.029 E.05116
G3 X66.923 Y63.198 I-.161 J2.349 E.03744
G1 X66.923 Y72.199 E.32497
G1 X67.435 Y72.711 E.02614
G3 X64.097 Y70.016 I-1.148 J-1.993 E.19957
G1 X64.451 Y69.033 E.03771
G1 X64.268 Y67.101 E.07009
G3 X64.074 Y63.767 I1.659 J-1.769 E.13299
G1 X64.075 Y63.73 E.00132
G1 X64.35 Y64.084 F9000
G1 F1800
G1 X65.119 Y63.487 E.03518
G3 X65.908 Y63.362 I.68 J1.739 E.02905
G3 X66.466 Y63.479 I-.253 J2.591 E.02062
G1 X66.466 Y72.547 E.32739
G3 X64.532 Y70.157 I-.187 J-1.826 E.13154
G1 X64.915 Y69.092 E.04088
G1 X64.713 Y66.956 E.07747
G3 X64.377 Y64.157 I1.425 J-1.591 E.11117
G1 X64.364 Y64.122 E.00135
G1 X64.731 Y64.389 F9000
G1 F1800
G1 X64.918 Y64.131 E.0115
G3 X66.009 Y63.823 I.911 J1.138 E.04202
G1 X66.009 Y72.104 E.29899
G3 X64.967 Y70.299 I.321 J-1.388 E.0844
G1 X65.38 Y69.151 E.04405
G1 X65.159 Y66.811 E.08484
G3 X64.606 Y64.713 I1.32 J-1.469 E.08293
G1 X64.717 Y64.426 E.01111
G1 X65.086 Y64.603 F9000
G1 F1800
G3 X65.552 Y64.246 I.875 J.659 E.02145
G1 X65.552 Y66.048 E.06506
G1 X65.282 Y66.122 E.01008
G3 X65.063 Y64.635 I.678 J-.86 E.05981
G1 E-1.2 F2400
;WIPE_START
G1 F1800
G1 X65.552 Y64.246
G1 X65.552 Y65.622
;WIPE_END
G1 X73.053 Y67.03 Z.6 F9000
G1 X138.495 Y79.313 Z.6
G1 Z.2
G1 E1.2 F1800
G1 X141.425 Y79.313 E.10581
G1 X141.308 Y79.638 E.01244
G3 X138.501 Y79.351 I-1.362 J-.555 E.1365
G1 X138.114 Y79.39 F9000
G1 F1800
G1 X138.06 Y78.856 E.01938
G1 X141.86 Y78.856 E.1372
G1 X141.868 Y79.104 E.00893
G3 X138.14 Y79.695 I-1.912 J-.005 E.19476
G1 X138.118 Y79.43 E.00959
G1 X137.644 Y79.406 F9000
G1 F1800
G1 X137.695 Y78.399 E.0364
G1 X142.225 Y78.399 E.16354
G1 X142.283 Y78.66 E.00966
G3 X137.632 Y79.548 I-2.326 J.439 E.26824
G1 X137.64 Y79.446 E.00369
G1 X137.218 Y79.527 F9000
G1 F1800
G1 X137.14 Y79.104 E.01553
G3 X137.389 Y77.942 I2.822 J-.004 E.0432
G1 X142.531 Y77.942 E.18567
G1 X142.584 Y78.065 E.00482
G3 X142.644 Y79.976 I-2.648 J1.04 E.07041
G3 X137.34 Y80.141 I-2.682 J-.876 E.24935
G1 X137.226 Y79.566 E.02117
G1 X136.792 Y79.607 F9000
G1 F1800
G1 X136.707 Y78.693 E.03315
G3 X137.105 Y77.485 I3.255 J.404 E.0462
G1 X142.814 Y77.485 E.20612
G1 X142.927 Y77.707 E.009
G3 X143.009 Y80.311 I-2.987 J1.397 E.09669
G3 X136.844 Y80.116 I-3.047 J-1.214 E.28975
G1 X136.796 Y79.647 E.01703
G1 X136.329 Y79.661 F9000
G1 F1800
G1 X136.289 Y78.403 E.04544
G3 X136.848 Y77.028 I3.674 J.692 E.05396
G1 X143.072 Y77.028 E.22472
G1 X143.235 Y77.303 E.01155
G3 X143.341 Y80.695 I-3.292 J1.801 E.12712
G3 X136.344 Y80.032 I-3.379 J-1.599 E.33015
G1 X136.33 Y79.701 E.01196
G1 X135.846 Y79.686 F9000
G1 F1800
G1 X135.898 Y78.061 E.05872
G3 X136.612 Y76.571 I4.066 J1.034 E.06005
G1 X143.307 Y76.571 E.24173
G1 X143.501 Y76.856 E.01245
G3 X143.635 Y81.124 I-3.556 J2.248 E.1617
G3 X135.844 Y79.889 I-3.672 J-2.029 E.37056
G1 X135.846 Y79.726 E.00588
G1 X135.404 Y79.869 F9000
G1 F1800
G1 X135.351 Y79.686 E.0069
G3 X136.395 Y76.114 I4.614 J-.59 E.13823
G1 X143.525 Y76.114 E.25743
G1 X143.723 Y76.369 E.01168
G3 X143.887 Y81.596 I-3.776 J2.735 E.20043
G3 X135.891 Y81.341 I-3.922 J-2.5 E.34774
G1 X135.417 Y79.907 E.0545
G1 X134.969 Y79.993 F9000
G1 F1800
G1 X134.869 Y79.424 E.02086
G3 X136.191 Y75.657 I5.097 J-.327 E.1481
G1 X143.729 Y75.657 E.27215
G1 X143.896 Y75.847 E.00916
G3 X144.093 Y82.107 I-3.948 J3.257 E.24331
G3 X135.11 Y80.68 I-4.127 J-3.009 E.40508
G1 X134.977 Y80.032 E.02386
G1 X134.585 Y80.107 F9000
G1 F1800
G1 X134.403 Y79.104 E.03682
G3 X135.996 Y75.2 I5.564 J-.006 E.15614
G1 X144.017 Y75.293 E.28965
G3 X144.249 Y82.652 I-4.069 J3.811 E.29034
G3 X134.794 Y81.149 I-4.282 J-3.554 E.41614
G1 X134.593 Y80.146 E.03693
G1 X134.063 Y80.3 F9000
G1 F1800
G1 X134.053 Y80.23 E.00254
G3 X135.806 Y74.743 I5.914 J-1.134 E.21689
G1 X144.113 Y74.743 E.29992
G1 X144.351 Y74.98 E.01213
G3 X144.601 Y82.943 I-4.403 J4.124 E.31419
G3 X134.37 Y81.317 I-4.633 J-3.847 E.45032
G1 X134.074 Y80.338 E.0369
G1 X133.666 Y80.443 F9000
G1 F1800
G1 X133.541 Y79.914 E.01961
G3 X135.63 Y74.286 I6.427 J-.817 E.22539
G1 X144.396 Y74.379 E.31654
G3 X144.684 Y83.54 I-4.447 J4.725 E.36744
G3 X133.946 Y81.485 I-4.716 J-4.443 E.46984
G1 X133.676 Y80.482 E.03749
G1 X133.213 Y80.585 F9000
G1 F1800
G1 X133.088 Y79.972 E.02261
G3 X135.457 Y73.829 I6.881 J-.875 E.24769
G1 X144.463 Y73.829 E.32516
G1 X144.709 Y74.046 E.01187
G3 X145.017 Y83.853 I-4.761 J5.058 E.39337
G3 X133.374 Y81.244 I-5.048 J-4.757 E.51871
G1 X133.223 Y80.624 E.02302
G1 E-1.2 F2400
;WIPE_START
G1 F1800
G1 X133.088 Y79.972
G1 X133.035 Y78.668
G1 X133.04 Y78.639
;WIPE_END
G1 X127.825 Y84.213 Z.6 F9000
G1 X70.563 Y145.411 Z.6
M73 P1 R120
M73 P1 R120
G1 Z.2
G1 E1.2 F1800
G3 X72.544 Y149.371 I-4.388 J4.67 E.16326
G1 X71.17 Y149.371 E.04958
G1 X71.037 Y149.505 E.00684
G1 X71.037 Y152.495 E.10793
G1 X71.17 Y152.629 E.00684
G1 X72.051 Y152.629 E.03178
G3 X71.94 Y152.871 I-1.986 J-.756 E.00964
G1 X71.17 Y152.871 E.0278
G1 X71.037 Y153.005 E.00684
G1 X71.037 Y155.495 E.08988
G1 X71.17 Y155.629 E.00684
G1 X72.314 Y155.629 E.04128
G3 X60.475 Y152.972 I-6.379 J.721 E.88271
G3 X66.584 Y143.686 I5.727 J-2.885 E.48556
G3 X70.534 Y145.384 I-.409 J6.395 E.15831
G1 X70.163 Y145.711 F9000
G1 F1800
G1 X71.2 Y146.892 E.05674
G3 X72.012 Y148.914 I-5.026 J3.192 E.07914
G1 X70.981 Y148.914 E.03721
G1 X70.579 Y149.316 E.02051
G1 X70.579 Y155.684 E.22992
G1 X70.981 Y156.086 E.02051
