;TIME:559.16
;Filament used:0.26603m
;Layer height:0.200
; HEADER_BLOCK_START
; generated by Creality_Print V6.0.4.1793 on 2025-03-05 at 22:43:47
; total layer number: 234
; filament_density: 1.24
; filament_diameter: 1.75
; max_z_height: 15.60
; HEADER_BLOCK_END

; MINX = 60.01
; MINY = 59.97
; MINZ = 0.00
; MAXX = 160.00
; MAXY = 160.03
; MAXZ = 15.50

; THUMBNAIL_BLOCK_START

;
; THUMBNAIL_BLOCK_END

; THUMBNAIL_BLOCK_START

;
; THUMBNAIL_BLOCK_END

; external perimeters extrusion width = 0.42mm
; perimeters extrusion width = 0.45mm
; infill extrusion width = 0.45mm
; solid infill extrusion width = 0.42mm
; top infill extrusion width = 0.42mm
; first layer extrusion width = 0.50mm

; external perimeters extrusion width = 0.42mm
; perimeters extrusion width = 0.45mm
; infill extrusion width = 0.45mm
; solid infill extrusion width = 0.42mm
; top infill extrusion width = 0.42mm
; first layer extrusion width = 0.50mm

; external perimeters extrusion width = 0.42mm
; perimeters extrusion width = 0.45mm
; infill extrusion width = 0.45mm
; solid infill extrusion width = 0.42mm
; top infill extrusion width = 0.42mm
; first layer extrusion width = 0.50mm

; EXECUTABLE_BLOCK_START
M73 P0 R9
M201 X5000 Y5000 Z500 E5000
M203 X500 Y500 Z30 E100
M204 P5000 R2500 T5000 ; sets acceleration (P, T) and retract acceleration (R), mm/sec^2
M205 X10.00 Y10.00 Z0.40 E5.00 ; sets the jerk limits, mm/sec
;TYPE:Custom
M220 S100 ;Reset Feedrate 
M221 S100 ;Reset Flowrate 
 
M140 S60 ;Set final bed temp 
G28 ;Home 
 
G92 E0 ;Reset Extruder 
G1 Z2.0 F3000 ;Move Z Axis up 
M104 S205 ;Set final nozzle temp 
G1 X-2.1 Y20 Z0.28 F5000.0 ;Move to start position 
M190 S60 ;Wait for bed temp to stabilize 
M109 S205 ;Wait for nozzle temp to stabilize 
G1 X-2.1 Y145.0 Z0.28 F1500.0 E15 ;Draw the first line 
G1 X-2.4 Y145.0 Z0.28 F5000.0 ;Move to side a little 
G1 X-2.4 Y20 Z0.28 F1500.0 E30 ;Draw the second line 
G92 E0  ;Reset Extruder 
G1 E-1.0000 F1800 ;Retract a bit 
M73 P1 R9
M73 P1 R9
G1 Z2.0 F3000 ;Move Z Axis up 
G1 E0.0000 F1800
G90
G21
M83 ; use relative distances for extrusion
" "
G1 E-1.2 F2400
M106 S0
;LAYER_CHANGE
;Z:0.2
;HEIGHT:0.2
;BEFORE_LAYER_CHANGE
;0.2
G92 E0

;_SET_FAN_SPEED_CHANGING_LAYER
M204 P500
M205 X10 Y10
; printing object Pivote inferior.STL id:4713080061261953106 copy 0
M204 T500
G1 Z.4 F9000
G1 X55.723 Y61.021
G1 Z.2
M73 P2 R9
M73 P2 R9
G1 E1.2 F1800
;TYPE:Brim
;WIDTH:0.5
G1 X55.818 Y60.632 E.01444
G1 X56.043 Y59.951 E.02589
G1 X56.198 Y59.583 E.01444
G1 X56.53 Y58.947 E.02589
G1 X56.742 Y58.608 E.01444
G1 X57.171 Y58.033 E.02589
G1 X57.436 Y57.733 E.01444
G1 X57.951 Y57.235 E.02589
G1 X58.26 Y56.981 E.01444
G1 X58.849 Y56.572 E.0259
G1 X59.195 Y56.371 E.01444
G1 X59.842 Y56.061 E.02589
G1 X60.216 Y55.918 E.01444
G1 X60.904 Y55.717 E.02589
G1 X61.295 Y55.635 E.01443
G1 X62.021 Y55.546 E.02639
G1 X62.436 Y55.529 E.01501
G1 X63.153 Y55.558 E.02589
G1 X63.527 Y55.604 E.01361
G1 X64.205 Y55.74 E.02496
G1 X64.597 Y55.851 E.0147
G1 X65.279 Y56.106 E.02631
G1 X65.641 Y56.277 E.01445
G1 X66.264 Y56.634 E.02591
G1 X66.594 Y56.86 E.01444
G1 X67.15 Y57.312 E.02589
G1 X67.44 Y57.588 E.01444
G1 X67.917 Y58.123 E.02589
G1 X68.158 Y58.442 E.01444
G1 X68.543 Y59.047 E.02589
G1 X68.73 Y59.401 E.01444
G1 X69.013 Y60.059 E.02589
G1 X69.139 Y60.432 E.01418
G1 X69.311 Y61.116 E.02547
G1 X69.379 Y61.519 E.01477
G1 X69.436 Y62.059 E.01962
G1 X69.438 Y62.836 E.02804
G1 X69.386 Y63.366 E.01923
G1 X69.322 Y63.759 E.01438
G1 X69.154 Y64.45 E.02568
G1 X69.028 Y64.83 E.01444
G1 X68.749 Y65.491 E.0259
G1 X68.564 Y65.846 E.01444
G1 X68.183 Y66.453 E.02589
G1 X67.948 Y66.767 E.01418
G1 X67.483 Y67.297 E.02547
G1 X67.191 Y67.581 E.01469
G1 X66.629 Y68.044 E.02631
G1 X66.3 Y68.273 E.01445
G1 X65.68 Y68.634 E.02591
G1 X65.319 Y68.806 E.01444
G1 X64.649 Y69.063 E.02589
G1 X64.265 Y69.175 E.01444
G1 X63.563 Y69.321 E.02589
G1 X63.166 Y69.37 E.01444
G1 X62.45 Y69.401 E.0259
G1 X62.05 Y69.386 E.01444
G1 X61.338 Y69.302 E.02589
G1 X60.946 Y69.223 E.01444
G1 X60.256 Y69.026 E.02589
G1 X59.882 Y68.885 E.01444
G1 X59.233 Y68.58 E.02589
G1 X58.886 Y68.381 E.01444
G1 X58.295 Y67.975 E.02588
G1 X57.99 Y67.728 E.01418
G1 X57.479 Y67.242 E.02547
G1 X57.207 Y66.939 E.01469
G1 X56.767 Y66.358 E.02631
G1 X56.552 Y66.021 E.01445
G1 X56.216 Y65.386 E.02591
G1 X56.058 Y65.019 E.01444
G1 X55.829 Y64.339 E.02589
G1 X55.734 Y63.958 E.01418
G1 X55.618 Y63.263 E.02547
G1 X55.583 Y62.857 E.01469
G1 X55.579 Y62.128 E.02631
G1 X55.61 Y61.73 E.01445
G1 X55.717 Y61.06 E.02447
G1 X56.168 Y61.132 F9000
G1 F1800
G1 X56.171 Y61.116 E.00057
G1 X56.259 Y60.753 E.01351
G1 X56.473 Y60.107 E.02456
G1 X56.615 Y59.773 E.01311
G1 X56.924 Y59.179 E.02416
G1 X57.123 Y58.862 E.01351
G1 X57.53 Y58.317 E.02456
G1 X57.771 Y58.045 E.01311
G1 X58.252 Y57.58 E.02416
G1 X58.532 Y57.349 E.01311
G1 X59.091 Y56.961 E.02456
G1 X59.414 Y56.773 E.01351
G1 X60.018 Y56.484 E.02416
G1 X60.357 Y56.354 E.01311
G1 X61.009 Y56.162 E.02456
G1 X61.375 Y56.086 E.01349
G1 X62.064 Y56.002 E.02503
G1 X62.442 Y55.987 E.01367
G1 X63.111 Y56.014 E.02416
G1 X63.46 Y56.056 E.01269
G1 X64.092 Y56.184 E.0233
G1 X64.449 Y56.284 E.01337
G1 X65.096 Y56.526 E.02496
G1 X65.435 Y56.685 E.01351
G1 X66.016 Y57.018 E.02418
G1 X66.324 Y57.23 E.01351
G1 X66.844 Y57.651 E.02416
G1 X67.107 Y57.902 E.01311
G1 X67.56 Y58.409 E.02456
G1 X67.786 Y58.708 E.01351
G1 X68.151 Y59.282 E.02456
G1 X68.32 Y59.603 E.01311
G1 X68.584 Y60.218 E.02416
G1 X68.698 Y60.555 E.01287
G1 X68.862 Y61.204 E.02416
G1 X68.926 Y61.585 E.01396
G1 X68.979 Y62.091 E.01836
G1 X68.98 Y62.825 E.02648
G1 X68.876 Y63.659 E.03035
G1 X68.715 Y64.319 E.02453
G1 X68.598 Y64.674 E.01351
G1 X68.333 Y65.301 E.02456
G1 X68.165 Y65.623 E.01311
G1 X67.809 Y66.189 E.02416
G1 X67.596 Y66.475 E.01287
G1 X67.155 Y66.978 E.02416
G1 X66.882 Y67.244 E.01376
G1 X66.357 Y67.676 E.02455
G1 X66.05 Y67.89 E.01351
G1 X65.461 Y68.232 E.02458
G1 X65.133 Y68.388 E.01311
G1 X64.508 Y68.627 E.02416
G1 X64.149 Y68.732 E.01351
G1 X63.494 Y68.868 E.02417
G1 X63.133 Y68.914 E.01311
G1 X62.454 Y68.943 E.02456
G1 X62.08 Y68.93 E.01351
G1 X61.415 Y68.851 E.02416
G1 X61.059 Y68.78 E.01311
G1 X60.405 Y68.593 E.02456
G1 X60.055 Y68.461 E.01351
G1 X59.449 Y68.176 E.02416
G1 X59.125 Y67.99 E.01351
G1 X58.564 Y67.605 E.02455
G1 X58.288 Y67.381 E.01286
G1 X57.811 Y66.927 E.02377
G1 X57.564 Y66.652 E.01335
G1 X57.146 Y66.101 E.02496
G1 X56.945 Y65.786 E.01351
G1 X56.627 Y65.184 E.02458
G1 X56.484 Y64.85 E.01311
G1 X56.27 Y64.216 E.02416
G1 X56.181 Y63.86 E.01326
G1 X56.073 Y63.21 E.02377
G1 X56.04 Y62.842 E.01336
G1 X56.037 Y62.151 E.02496
G1 X56.064 Y61.789 E.01311
G1 X56.162 Y61.171 E.02257
G1 X56.614 Y61.243 F9000
G1 F1800
G1 X56.621 Y61.201 E.00155
G1 X56.701 Y60.874 E.01217
G1 X56.899 Y60.274 E.02282
G1 X57.031 Y59.963 E.01218
G1 X57.318 Y59.412 E.02245
G1 X57.504 Y59.117 E.01257
G1 X57.889 Y58.602 E.02322
G1 X58.105 Y58.358 E.01178
G1 X58.553 Y57.925 E.02246
G1 X58.813 Y57.711 E.01218
G1 X59.341 Y57.344 E.02322
G1 X59.633 Y57.175 E.01217
G1 X60.194 Y56.906 E.02245
G1 X60.498 Y56.789 E.01178
G1 X61.115 Y56.607 E.02322
G1 X61.444 Y56.539 E.01213
G1 X62.095 Y56.459 E.02367
G1 X62.447 Y56.445 E.01273
G1 X63.079 Y56.471 E.02285
G1 X63.392 Y56.509 E.01138
G1 X63.98 Y56.627 E.02164
G1 X64.312 Y56.721 E.01245
G1 X64.913 Y56.946 E.02319
G1 X65.228 Y57.094 E.01256
G1 X65.777 Y57.409 E.02285
G1 X66.055 Y57.6 E.01218
G1 X66.538 Y57.992 E.02245
G1 X66.782 Y58.224 E.01218
G1 X67.203 Y58.696 E.02282
G1 X67.413 Y58.973 E.01257
G1 X67.757 Y59.516 E.02322
G1 X67.909 Y59.805 E.01178
G1 X68.159 Y60.387 E.02285
G1 X68.261 Y60.69 E.01155
G1 X68.413 Y61.293 E.02245
G1 X68.472 Y61.643 E.01282
G1 X68.522 Y62.122 E.0174
G1 X68.523 Y62.788 E.02402
G1 X68.426 Y63.568 E.0284
G1 X68.277 Y64.188 E.023
G1 X68.168 Y64.518 E.01257
G1 X67.917 Y65.111 E.02322
G1 X67.765 Y65.4 E.01178
G1 X67.434 Y65.926 E.02246
G1 X67.244 Y66.183 E.01155
G1 X66.827 Y66.659 E.02284
G1 X66.581 Y66.899 E.01242
G1 X66.085 Y67.308 E.0232
G1 X65.809 Y67.501 E.01216
G1 X65.252 Y67.824 E.02324
G1 X64.948 Y67.969 E.01218
G1 X64.367 Y68.192 E.02245
G1 X64.044 Y68.287 E.01218
G1 X63.424 Y68.416 E.02285
G1 X63.089 Y68.458 E.01218
G1 X62.447 Y68.486 E.02322
G1 X62.11 Y68.473 E.01217
G1 X61.492 Y68.4 E.02245
G1 X61.172 Y68.336 E.01178
G1 X60.554 Y68.16 E.02322
G1 X60.228 Y68.038 E.01257
G1 X59.666 Y67.773 E.02244
G1 X59.364 Y67.6 E.01257
G1 X58.834 Y67.236 E.02321
G1 X58.586 Y67.034 E.01154
G1 X58.135 Y66.604 E.02248
G1 X57.913 Y66.356 E.01204
G1 X57.518 Y65.835 E.0236
G1 X57.338 Y65.551 E.01215
G1 X57.042 Y64.992 E.02284
G1 X56.909 Y64.681 E.01218
G1 X56.708 Y64.082 E.02284
G1 X56.628 Y63.761 E.01193
G1 X56.527 Y63.158 E.02208
G1 X56.497 Y62.815 E.01243
G1 X56.494 Y62.173 E.0232
G1 X56.519 Y61.837 E.01217
G1 X56.608 Y61.283 E.02024
G1 X57.059 Y61.355 F9000
G1 F1800
G1 X57.07 Y61.286 E.00254
G1 X57.142 Y60.995 E.01083
G1 X57.326 Y60.44 E.02109
G1 X57.447 Y60.153 E.01125
G1 X57.713 Y59.644 E.02073
G1 X57.884 Y59.371 E.01163
G1 X58.247 Y58.887 E.02187
G1 X58.44 Y58.67 E.01045
G1 X58.853 Y58.27 E.02077
G1 X59.094 Y58.072 E.01125
G1 X59.591 Y57.727 E.02187
G1 X59.851 Y57.577 E.01083
G1 X60.37 Y57.329 E.02076
G1 X60.64 Y57.224 E.01045
G1 X61.221 Y57.053 E.02188
G1 X61.513 Y56.991 E.01077
G1 X62.126 Y56.915 E.02229
G1 X62.452 Y56.902 E.01178
G1 X63.048 Y56.927 E.02152
G1 X63.324 Y56.962 E.01007
G1 X63.867 Y57.071 E.02
G1 X64.175 Y57.158 E.01153
G1 X64.73 Y57.365 E.02142
G1 X65.021 Y57.502 E.01161
G1 X65.538 Y57.799 E.02151
G1 X65.785 Y57.97 E.01085
G1 X66.231 Y58.332 E.02075
G1 X66.457 Y58.547 E.01125
G1 X66.846 Y58.982 E.02108
G1 X67.04 Y59.239 E.01163
G1 X67.364 Y59.751 E.02187
G1 X67.498 Y60.007 E.01045
G1 X67.729 Y60.545 E.02114
G1 X67.823 Y60.824 E.01064
G1 X67.964 Y61.382 E.02077
G1 X68.019 Y61.7 E.01167
G1 X68.065 Y62.153 E.01643
G1 X68.066 Y62.751 E.02159
G1 X67.977 Y63.479 E.02646
G1 X67.838 Y64.057 E.02146
G1 X67.737 Y64.362 E.01162
G1 X67.505 Y64.91 E.02147
G1 X67.366 Y65.176 E.01086
G1 X67.06 Y65.664 E.02078
G1 X66.891 Y65.891 E.01024
G1 X66.499 Y66.34 E.02152
G1 X66.279 Y66.555 E.01108
G1 X65.813 Y66.94 E.02186
G1 X65.567 Y67.112 E.01081
G1 X65.043 Y67.417 E.02189
G1 X64.762 Y67.551 E.01125
G1 X64.226 Y67.756 E.02075
G1 X63.938 Y67.842 E.01085
G1 X63.354 Y67.964 E.02152
G1 X63.045 Y68.002 E.01125
G1 X62.44 Y68.028 E.02187
G1 X62.14 Y68.016 E.01083
G1 X61.569 Y67.949 E.02076
G1 X61.285 Y67.893 E.01045
G1 X60.702 Y67.727 E.02187
G1 X60.401 Y67.614 E.01163
G1 X59.882 Y67.37 E.02071
G1 X59.602 Y67.209 E.01163
G1 X59.104 Y66.866 E.02186
G1 X58.885 Y66.687 E.01021
M73 P3 R9
M73 P3 R9
G1 X58.46 Y66.282 E.02119
G1 X58.262 Y66.06 E.01072
G1 X57.891 Y65.569 E.02224
G1 X57.731 Y65.316 E.0108
G1 X57.458 Y64.8 E.02111
G1 X57.335 Y64.513 E.01125
G1 X57.145 Y63.948 E.02151
G1 X57.075 Y63.663 E.01061
G1 X56.982 Y63.106 E.0204
G1 X56.954 Y62.788 E.0115
G1 X56.951 Y62.194 E.02145
G1 X56.975 Y61.884 E.01122
G1 X57.053 Y61.395 E.0179
G1 X57.505 Y61.467 F9000
G1 F1800
G1 X57.52 Y61.371 E.00352
G1 X57.583 Y61.116 E.00949
G1 X57.752 Y60.607 E.01938
G1 X57.864 Y60.343 E.01032
G1 X58.107 Y59.876 E.01901
G1 X58.264 Y59.626 E.01069
G1 X58.606 Y59.172 E.02051
G1 X58.774 Y58.983 E.00912
G1 X59.154 Y58.615 E.0191
G1 X59.374 Y58.434 E.01031
G1 X59.841 Y58.11 E.02051
G1 X60.069 Y57.979 E.0095
G1 X60.547 Y57.751 E.0191
G1 X60.782 Y57.659 E.00912
G1 X61.328 Y57.498 E.02055
G1 X61.583 Y57.444 E.00941
G1 X62.157 Y57.372 E.02091
G1 X62.457 Y57.36 E.01083
G1 X63.022 Y57.385 E.02043
G1 X63.752 Y57.514 E.02674
G1 X64.037 Y57.594 E.01073
G1 X64.548 Y57.785 E.01966
G1 X64.815 Y57.911 E.01066
G1 X65.298 Y58.189 E.02015
G1 X65.515 Y58.339 E.00952
G1 X65.925 Y58.672 E.01906
G1 X66.132 Y58.869 E.01032
G1 X66.489 Y59.269 E.01934
G1 X66.667 Y59.504 E.01068
G1 X66.971 Y59.984 E.0205
G1 X67.087 Y60.208 E.00912
G1 X67.3 Y60.703 E.01946
G1 X67.386 Y60.959 E.00972
G1 X67.515 Y61.472 E.0191
G1 X67.565 Y61.758 E.01049
G1 X67.608 Y62.184 E.01546
G1 X67.609 Y62.715 E.01919
G1 X67.527 Y63.39 E.02453
G1 X67.4 Y63.926 E.0199
G1 X67.307 Y64.206 E.01066
G1 X67.094 Y64.709 E.01971
G1 X66.966 Y64.953 E.00993
G1 X66.685 Y65.401 E.01912
G1 X66.538 Y65.6 E.00892
G1 X66.17 Y66.022 E.02021
G1 X65.977 Y66.21 E.00973
G1 X65.54 Y66.573 E.02051
G1 X65.325 Y66.723 E.00946
G1 X64.835 Y67.01 E.02052
G1 X64.577 Y67.133 E.01031
G1 X64.084 Y67.321 E.01906
G1 X63.831 Y67.396 E.00952
G1 X63.284 Y67.511 E.02018
G1 X63.001 Y67.547 E.0103
G1 X62.434 Y67.57 E.02051
G1 X62.171 Y67.56 E.0095
G1 X61.645 Y67.497 E.0191
G1 X61.397 Y67.449 E.00912
G1 X60.851 Y67.294 E.02051
G1 X60.574 Y67.19 E.01069
G1 X60.098 Y66.966 E.01897
G1 X59.841 Y66.819 E.01069
G1 X59.374 Y66.497 E.0205
G1 X59.184 Y66.341 E.00889
G1 X58.785 Y65.959 E.01991
G1 X58.612 Y65.765 E.0094
G1 X58.263 Y65.304 E.02088
G1 X58.124 Y65.082 E.00944
G1 X57.873 Y64.607 E.01939
G1 X57.761 Y64.345 E.01031
G1 X57.583 Y63.815 E.02017
G1 X57.522 Y63.565 E.00929
G1 X57.436 Y63.053 E.01874
G1 X57.411 Y62.762 E.01057
G1 X57.408 Y62.216 E.0197
G1 X57.43 Y61.932 E.01027
G1 X57.498 Y61.507 E.01556
G1 X57.943 Y61.605 F9000
G1 F1800
G1 X58.026 Y61.226 E.01399
G1 X58.402 Y60.296 E.03622
G1 X58.944 Y59.479 E.03539
G1 X59.289 Y59.11 E.01826
G1 X59.696 Y58.762 E.01932
G1 X60.394 Y58.327 E.0297
G1 X61.228 Y58.001 E.03233
G1 X62.186 Y57.829 E.03517
G1 X62.912 Y57.833 E.02618
G1 X63.427 Y57.908 E.0188
G1 X63.949 Y58.045 E.01948
G1 X64.831 Y58.442 E.03495
G1 X65.545 Y58.95 E.03161
G1 X66.143 Y59.57 E.03111
G1 X66.561 Y60.186 E.02687
G1 X66.786 Y60.645 E.01846
G1 X66.964 Y61.138 E.01892
G1 X67.137 Y62.081 E.03462
G1 X67.135 Y62.885 E.02903
G1 X66.966 Y63.785 E.03305
G1 X66.795 Y64.264 E.01836
G1 X66.561 Y64.743 E.01926
G1 X66.08 Y65.434 E.03041
G1 X65.454 Y66.055 E.03184
G1 X64.643 Y66.595 E.03516
G1 X64.18 Y66.803 E.01833
G1 X63.671 Y66.967 E.01932
G1 X62.939 Y67.092 E.02679
G1 X61.937 Y67.074 E.0362
G1 X61.008 Y66.866 E.03438
G1 X60.538 Y66.677 E.0183
G1 X60.067 Y66.422 E.01932
G1 X59.474 Y65.985 E.02661
G1 X58.878 Y65.365 E.03105
G1 X58.401 Y64.637 E.03143
G1 X58.06 Y63.805 E.03245
G1 X57.887 Y62.962 E.03108
G1 X57.863 Y62.233 E.02633
G1 X57.918 Y61.719 E.01866
G1 X57.934 Y61.644 E.00277
G1 X58.381 Y61.742 F9000
G1 F1800
G1 X58.475 Y61.313 E.01585
G1 X58.778 Y60.556 E.02944
G1 X59.27 Y59.799 E.03259
G1 X59.628 Y59.416 E.01895
G1 X59.997 Y59.106 E.0174
G1 X60.556 Y58.755 E.02383
G1 X61.301 Y58.452 E.02904
G1 X62.176 Y58.286 E.03215
G1 X62.837 Y58.284 E.02387
G1 X63.369 Y58.361 E.01942
G1 X63.839 Y58.489 E.01758
G1 X64.561 Y58.811 E.02854
G1 X65.211 Y59.263 E.02858
G1 X65.761 Y59.821 E.02829
G1 X66.146 Y60.38 E.02451
G1 X66.38 Y60.854 E.01908
G1 X66.536 Y61.299 E.01703
G1 X66.689 Y62.172 E.032
G1 X66.678 Y62.888 E.02587
G1 X66.539 Y63.621 E.02693
G1 X66.362 Y64.118 E.01903
G1 X66.148 Y64.548 E.01735
G1 X65.7 Y65.18 E.02796
M73 P3 R8
M73 P3 R8
G1 X65.127 Y65.736 E.02883
G1 X64.466 Y66.173 E.02864
G1 X63.986 Y66.39 E.01902
G1 X63.526 Y66.533 E.01738
G1 X62.854 Y66.643 E.02459
G1 X62.045 Y66.63 E.02921
G1 X61.189 Y66.446 E.03164
G1 X60.701 Y66.25 E.01898
G1 X60.279 Y66.018 E.01738
G1 X59.739 Y65.613 E.02436
G1 X59.203 Y65.043 E.02826
G1 X58.78 Y64.381 E.02838
G1 X58.509 Y63.721 E.02577
G1 X58.344 Y62.954 E.02832
G1 X58.317 Y62.286 E.02413
G1 X58.363 Y61.824 E.01675
G1 X58.372 Y61.781 E.0016
G1 X58.818 Y61.861 F9000
G1 F1800
G1 X58.923 Y61.405 E.01688
G1 X59.205 Y60.718 E.02682
G1 X59.6 Y60.116 E.02599
G1 X59.916 Y59.771 E.01691
G1 X60.299 Y59.449 E.01804
G1 X60.804 Y59.138 E.02144
G1 X61.479 Y58.873 E.02619
G1 X62.17 Y58.743 E.02535
G1 X62.767 Y58.736 E.02157
G1 X63.242 Y58.8 E.0173
G1 X63.73 Y58.933 E.01827
G1 X64.381 Y59.231 E.02585
G1 X64.881 Y59.579 E.022
G1 X65.381 Y60.075 E.02543
G1 X65.734 Y60.577 E.02216
G1 X65.946 Y60.997 E.01698
G1 X66.108 Y61.461 E.01773
G1 X66.232 Y62.158 E.02559
G1 X66.23 Y62.797 E.02306
G1 X66.11 Y63.463 E.02443
G1 X65.957 Y63.906 E.01694
G1 X65.734 Y64.353 E.01803
G1 X65.386 Y64.848 E.02185
G1 X64.881 Y65.351 E.02571
G1 X64.283 Y65.754 E.02604
G1 X63.857 Y65.951 E.01695
G1 X63.381 Y66.1 E.01802
G1 X62.774 Y66.193 E.02215
G1 X62.046 Y66.173 E.02632
