;TIME:196.51
;Filament used:0.08788m
;Layer height:0.200
; HEADER_BLOCK_START
; generated by Creality_Print V6.0.4.1793 on 2025-03-05 at 22:44:01
; total layer number: 78
; filament_density: 1.24
; filament_diameter: 1.75
; max_z_height: 15.60
; HEADER_BLOCK_END

; MINX = 107.50
; MINY = 107.50
; MINZ = 0.00
; MAXX = 112.50
; MAXY = 112.50
; MAXZ = 15.50

; THUMBNAIL_BLOCK_START

;
; THUMBNAIL_BLOCK_END

; THUMBNAIL_BLOCK_START

;
; THUMBNAIL_BLOCK_END

; external perimeters extrusion width = 0.42mm
; perimeters extrusion width = 0.45mm
; infill extrusion width = 0.45mm
; solid infill extrusion width = 0.42mm
; top infill extrusion width = 0.42mm
; first layer extrusion width = 0.50mm

; EXECUTABLE_BLOCK_START
M73 P0 R3
M201 X5000 Y5000 Z500 E5000
M203 X500 Y500 Z30 E100
M204 P5000 R2500 T5000 ; sets acceleration (P, T) and retract acceleration (R), mm/sec^2
M205 X10.00 Y10.00 Z0.40 E5.00 ; sets the jerk limits, mm/sec
;TYPE:Custom
M220 S100 ;Reset Feedrate 
M221 S100 ;Reset Flowrate 
 
M140 S60 ;Set final bed temp 
G28 ;Home 
 
G92 E0 ;Reset Extruder 
G1 Z2.0 F3000 ;Move Z Axis up 
M104 S205 ;Set final nozzle temp 
G1 X-2.1 Y20 Z0.28 F5000.0 ;Move to start position 
M190 S60 ;Wait for bed temp to stabilize 
M109 S205 ;Wait for nozzle temp to stabilize 
G1 X-2.1 Y145.0 Z0.28 F1500.0 E15 ;Draw the first line 
G1 X-2.4 Y145.0 Z0.28 F5000.0 ;Move to side a little 
M73 P2 R3
M73 P2 R3
G1 X-2.4 Y20 Z0.28 F1500.0 E30 ;Draw the second line 
G92 E0  ;Reset Extruder 
G1 E-1.0000 F1800 ;Retract a bit 
M73 P5 R3
M73 P5 R3
G1 Z2.0 F3000 ;Move Z Axis up 
G1 E0.0000 F1800
G90
G21
M83 ; use relative distances for extrusion
" "
G1 E-1.2 F2400
M106 S0
;LAYER_CHANGE
;Z:0.2
;HEIGHT:0.2
;BEFORE_LAYER_CHANGE
;0.2
G92 E0

;_SET_FAN_SPEED_CHANGING_LAYER
M204 P500
M205 X10 Y10
; printing object Pivote inferior.STL id:13815835938836394803 copy 0
M204 T500
G1 Z.4 F9000
G1 X105.791 Y115.51
G1 Z.2
M73 P6 R3
M73 P6 R3
G1 E1.2 F1800
;TYPE:Brim
;WIDTH:0.5
G1 X105.486 Y115.263 E.01418
G1 X104.975 Y114.777 E.02547
G1 X104.704 Y114.474 E.01469
G1 X104.263 Y113.893 E.02631
G1 X104.048 Y113.556 E.01445
G1 X103.713 Y112.921 E.02591
G1 X103.555 Y112.554 E.01444
G1 X103.326 Y111.874 E.02589
G1 X103.231 Y111.493 E.01418
G1 X103.114 Y110.798 E.02547
G1 X103.079 Y110.392 E.01469
G1 X103.076 Y109.663 E.02631
G1 X103.107 Y109.265 E.01445
G1 X103.22 Y108.556 E.02591
G1 X103.314 Y108.167 E.01444
G1 X103.539 Y107.486 E.02589
G1 X103.695 Y107.118 E.01444
G1 X104.026 Y106.482 E.02589
G1 X104.239 Y106.143 E.01444
G1 X104.668 Y105.568 E.02589
G1 X104.932 Y105.268 E.01444
G1 X105.448 Y104.77 E.02589
G1 X105.757 Y104.516 E.01444
G1 X106.346 Y104.107 E.0259
G1 X106.692 Y103.906 E.01444
G1 X107.339 Y103.596 E.02589
G1 X107.712 Y103.453 E.01444
G1 X108.4 Y103.252 E.02589
G1 X108.792 Y103.17 E.01443
G1 X109.517 Y103.081 E.02639
G1 X109.933 Y103.064 E.01501
G1 X110.649 Y103.093 E.02589
G1 X111.023 Y103.139 E.01361
G1 X111.701 Y103.275 E.02496
G1 X112.093 Y103.386 E.0147
G1 X112.776 Y103.641 E.02631
G1 X113.138 Y103.812 E.01445
G1 X113.76 Y104.169 E.02591
G1 X114.09 Y104.395 E.01444
G1 X114.647 Y104.847 E.02589
G1 X114.936 Y105.123 E.01444
G1 X115.413 Y105.658 E.02589
G1 X115.655 Y105.977 E.01444
G1 X116.04 Y106.582 E.02589
G1 X116.227 Y106.936 E.01444
G1 X116.51 Y107.594 E.02589
G1 X116.635 Y107.967 E.01418
G1 X116.807 Y108.651 E.02547
G1 X116.875 Y109.054 E.01477
G1 X116.932 Y109.594 E.01962
G1 X116.935 Y110.371 E.02804
G1 X116.882 Y110.901 E.01923
G1 X116.819 Y111.294 E.01438
G1 X116.65 Y111.985 E.02568
G1 X116.525 Y112.365 E.01444
G1 X116.246 Y113.026 E.0259
G1 X116.061 Y113.381 E.01444
G1 X115.68 Y113.988 E.02589
G1 X115.445 Y114.302 E.01418
G1 X114.979 Y114.832 E.02547
G1 X114.687 Y115.116 E.01469
G1 X114.125 Y115.579 E.02631
G1 X113.797 Y115.808 E.01445
G1 X113.176 Y116.169 E.02591
G1 X112.815 Y116.341 E.01444
G1 X112.146 Y116.598 E.02589
G1 X111.762 Y116.71 E.01444
G1 X111.06 Y116.856 E.02589
G1 X110.663 Y116.905 E.01444
G1 X109.946 Y116.936 E.0259
G1 X109.546 Y116.921 E.01444
G1 X108.834 Y116.837 E.02589
G1 X108.442 Y116.758 E.01444
G1 X107.753 Y116.561 E.02589
G1 X107.378 Y116.42 E.01444
G1 X106.729 Y116.115 E.02589
G1 X106.382 Y115.916 E.01444
G1 X105.824 Y115.533 E.02444
G1 X106.083 Y115.156 F9000
G1 F1800
G1 X106.061 Y115.14 E.00099
G1 X105.784 Y114.916 E.01286
G1 X105.307 Y114.462 E.02377
G1 X105.06 Y114.187 E.01335
G1 X104.642 Y113.636 E.02496
G1 X104.441 Y113.321 E.01351
G1 X104.123 Y112.719 E.02458
G1 X103.98 Y112.385 E.01311
G1 X103.766 Y111.751 E.02416
G1 X103.677 Y111.395 E.01326
G1 X103.569 Y110.745 E.02377
G1 X103.537 Y110.377 E.01336
G1 X103.533 Y109.686 E.02496
G1 X103.561 Y109.324 E.01311
M73 P7 R3
M73 P7 R3
G1 X103.667 Y108.651 E.02458
G1 X103.756 Y108.288 E.01351
G1 X103.97 Y107.642 E.02456
G1 X104.111 Y107.308 E.01311
G1 X104.42 Y106.714 E.02416
G1 X104.619 Y106.397 E.01351
G1 X105.027 Y105.852 E.02456
G1 X105.267 Y105.58 E.01311
G1 X105.748 Y105.115 E.02416
G1 X106.029 Y104.884 E.01311
G1 X106.587 Y104.496 E.02456
G1 X106.91 Y104.308 E.01351
G1 X107.514 Y104.019 E.02416
G1 X107.853 Y103.889 E.01311
G1 X108.506 Y103.697 E.02456
G1 X108.872 Y103.621 E.01349
G1 X109.56 Y103.537 E.02503
G1 X109.938 Y103.522 E.01367
G1 X110.607 Y103.549 E.02416
G1 X110.956 Y103.591 E.01269
G1 X111.589 Y103.719 E.0233
G1 X111.945 Y103.819 E.01337
G1 X112.593 Y104.061 E.02496
G1 X112.931 Y104.22 E.01351
G1 X113.512 Y104.553 E.02418
G1 X113.821 Y104.765 E.01351
G1 X114.34 Y105.186 E.02416
G1 X114.603 Y105.437 E.01311
G1 X115.056 Y105.944 E.02456
G1 X115.282 Y106.243 E.01351
G1 X115.647 Y106.817 E.02456
G1 X115.816 Y107.138 E.01311
G1 X116.081 Y107.753 E.02416
G1 X116.195 Y108.09 E.01287
G1 X116.358 Y108.739 E.02416
G1 X116.423 Y109.12 E.01396
G1 X116.476 Y109.626 E.01836
G1 X116.476 Y110.36 E.02648
G1 X116.372 Y111.194 E.03035
G1 X116.212 Y111.854 E.02453
G1 X116.094 Y112.209 E.01351
G1 X115.829 Y112.836 E.02456
G1 X115.661 Y113.158 E.01311
G1 X115.305 Y113.724 E.02416
G1 X115.092 Y114.01 E.01287
G1 X114.651 Y114.513 E.02416
G1 X114.378 Y114.779 E.01376
G1 X113.853 Y115.211 E.02455
G1 X113.546 Y115.425 E.01351
G1 X112.957 Y115.767 E.02458
G1 X112.63 Y115.923 E.01311
G1 X112.005 Y116.162 E.02416
G1 X111.646 Y116.267 E.01351
G1 X110.99 Y116.403 E.02417
G1 X110.63 Y116.449 E.01311
G1 X109.95 Y116.478 E.02456
G1 X109.576 Y116.465 E.01351
G1 X108.912 Y116.386 E.02416
G1 X108.556 Y116.315 E.01311
G1 X107.902 Y116.128 E.02456
G1 X107.551 Y115.996 E.01351
G1 X106.946 Y115.711 E.02416
G1 X106.621 Y115.525 E.01351
G1 X106.116 Y115.179 E.02212
G1 X106.375 Y114.802 F9000
G1 F1800
G1 X106.33 Y114.771 E.00198
G1 X106.083 Y114.569 E.01154
G1 X105.632 Y114.139 E.02248
G1 X105.409 Y113.891 E.01204
G1 X105.014 Y113.37 E.0236
G1 X104.834 Y113.086 E.01215
G1 X104.539 Y112.527 E.02284
G1 X104.406 Y112.216 E.01218
G1 X104.204 Y111.617 E.02284
G1 X104.124 Y111.296 E.01193
G1 X104.024 Y110.693 E.02208
G1 X103.994 Y110.35 E.01243
G1 X103.99 Y109.708 E.0232
G1 X104.016 Y109.372 E.01217
G1 X104.117 Y108.736 E.02324
G1 X104.197 Y108.409 E.01217
G1 X104.396 Y107.809 E.02282
G1 X104.528 Y107.498 E.01218
G1 X104.815 Y106.947 E.02245
G1 X105 Y106.652 E.01257
G1 X105.385 Y106.137 E.02322
G1 X105.602 Y105.893 E.01178
G1 X106.049 Y105.46 E.02246
G1 X106.309 Y105.246 E.01218
G1 X106.838 Y104.879 E.02322
G1 X107.129 Y104.71 E.01217
G1 X107.69 Y104.441 E.02245
G1 X107.995 Y104.324 E.01178
G1 X108.612 Y104.142 E.02322
G1 X108.941 Y104.074 E.01213
G1 X109.591 Y103.994 E.02367
G1 X109.943 Y103.98 E.01273
G1 X110.576 Y104.006 E.02285
G1 X110.889 Y104.044 E.01138
G1 X111.476 Y104.162 E.02164
G1 X111.808 Y104.256 E.01245
G1 X112.41 Y104.481 E.02319
G1 X112.725 Y104.629 E.01256
G1 X113.273 Y104.944 E.02285
G1 X113.551 Y105.135 E.01218
G1 X114.034 Y105.527 E.02245
G1 X114.278 Y105.759 E.01218
G1 X114.699 Y106.231 E.02282
G1 X114.909 Y106.508 E.01257
G1 X115.254 Y107.051 E.02322
G1 X115.406 Y107.34 E.01178
G1 X115.655 Y107.922 E.02285
G1 X115.757 Y108.225 E.01155
G1 X115.909 Y108.828 E.02245
M73 P8 R3
M73 P8 R3
G1 X115.969 Y109.178 E.01282
G1 X116.018 Y109.657 E.0174
G1 X116.019 Y110.323 E.02402
G1 X115.923 Y111.103 E.0284
G1 X115.773 Y111.723 E.023
G1 X115.664 Y112.053 E.01257
G1 X115.413 Y112.646 E.02322
G1 X115.262 Y112.935 E.01178
G1 X114.931 Y113.461 E.02246
G1 X114.74 Y113.718 E.01155
G1 X114.323 Y114.194 E.02284
G1 X114.077 Y114.434 E.01242
G1 X113.581 Y114.843 E.0232
G1 X113.305 Y115.036 E.01216
G1 X112.749 Y115.359 E.02324
G1 X112.444 Y115.504 E.01218
G1 X111.864 Y115.727 E.02245
G1 X111.54 Y115.822 E.01218
G1 X110.92 Y115.951 E.02285
G1 X110.586 Y115.993 E.01218
G1 X109.943 Y116.021 E.02322
G1 X109.606 Y116.008 E.01217
G1 X108.989 Y115.935 E.02245
G1 X108.669 Y115.871 E.01178
G1 X108.05 Y115.695 E.02322
G1 X107.724 Y115.573 E.01257
G1 X107.162 Y115.308 E.02244
G1 X106.86 Y115.135 E.01257
G1 X106.408 Y114.824 E.01979
G1 X106.668 Y114.447 F9000
G1 F1800
G1 X106.6 Y114.401 E.00296
G1 X106.381 Y114.222 E.01021
G1 X105.957 Y113.817 E.02119
G1 X105.759 Y113.595 E.01072
G1 X105.387 Y113.104 E.02224
G1 X105.227 Y112.851 E.0108
G1 X104.954 Y112.335 E.02111
G1 X104.831 Y112.048 E.01125
G1 X104.642 Y111.483 E.02151
G1 X104.571 Y111.198 E.01061
G1 X104.478 Y110.641 E.0204
G1 X104.451 Y110.323 E.0115
G1 X104.447 Y109.729 E.02145
G1 X104.471 Y109.419 E.01122
G1 X104.567 Y108.821 E.02188
G1 X104.639 Y108.53 E.01083
G1 X104.822 Y107.975 E.02109
G1 X104.944 Y107.688 E.01125
G1 X105.209 Y107.179 E.02073
G1 X105.38 Y106.906 E.01163
G1 X105.744 Y106.422 E.02187
G1 X105.936 Y106.205 E.01045
G1 X106.35 Y105.805 E.02077
G1 X106.59 Y105.607 E.01125
G1 X107.088 Y105.262 E.02187
G1 X107.348 Y105.112 E.01083
G1 X107.866 Y104.864 E.02076
G1 X108.136 Y104.759 E.01045
G1 X108.718 Y104.588 E.02188
G1 X109.01 Y104.526 E.01077
G1 X109.622 Y104.45 E.02229
G1 X109.948 Y104.437 E.01178
G1 X110.544 Y104.462 E.02152
G1 X110.821 Y104.497 E.01007
G1 X111.364 Y104.606 E.02
G1 X111.671 Y104.693 E.01153
G1 X112.227 Y104.9 E.02142
G1 X112.518 Y105.037 E.01161
G1 X113.034 Y105.334 E.02151
G1 X113.282 Y105.505 E.01085
G1 X113.728 Y105.867 E.02075
G1 X113.953 Y106.082 E.01125
G1 X114.342 Y106.517 E.02108
G1 X114.536 Y106.774 E.01163
G1 X114.861 Y107.286 E.02187
G1 X114.995 Y107.542 E.01045
G1 X115.226 Y108.08 E.02114
G1 X115.32 Y108.359 E.01064
G1 X115.46 Y108.917 E.02077
G1 X115.515 Y109.235 E.01167
M73 P8 R2
M73 P8 R2
G1 X115.561 Y109.688 E.01643
G1 X115.562 Y110.286 E.02159
G1 X115.473 Y111.014 E.02646
G1 X115.335 Y111.592 E.02146
G1 X115.234 Y111.897 E.01162
G1 X115.002 Y112.445 E.02147
G1 X114.862 Y112.711 E.01086
G1 X114.556 Y113.199 E.02078
G1 X114.387 Y113.426 E.01024
G1 X113.995 Y113.875 E.02152
G1 X113.776 Y114.089 E.01108
G1 X113.309 Y114.475 E.02186
G1 X113.064 Y114.647 E.01081
G1 X112.54 Y114.952 E.02189
G1 X112.259 Y115.086 E.01125
G1 X111.722 Y115.291 E.02075
G1 X111.434 Y115.377 E.01085
G1 X110.851 Y115.499 E.02152
G1 X110.542 Y115.537 E.01125
G1 X109.936 Y115.563 E.02187
G1 X109.637 Y115.551 E.01083
G1 X109.066 Y115.484 E.02076
G1 X108.782 Y115.428 E.01045
G1 X108.199 Y115.262 E.02187
G1 X107.897 Y115.149 E.01163
G1 X107.378 Y114.905 E.02071
G1 X107.099 Y114.744 E.01163
G1 X106.701 Y114.47 E.01746
G1 X106.96 Y114.094 F9000
G1 F1800
G1 X106.871 Y114.032 E.00394
G1 X106.68 Y113.876 E.00889
G1 X106.282 Y113.494 E.01991
G1 X106.109 Y113.3 E.0094
G1 X105.76 Y112.839 E.02088
G1 X105.62 Y112.617 E.00944
G1 X105.37 Y112.142 E.01939
G1 X105.257 Y111.88 E.01031
G1 X105.08 Y111.35 E.02017
G1 X105.018 Y111.1 E.00929
G1 X104.933 Y110.588 E.01874
G1 X104.907 Y110.297 E.01057
G1 X104.905 Y109.751 E.0197
G1 X104.926 Y109.467 E.01027
M73 P9 R2
M73 P9 R2
G1 X105.017 Y108.906 E.02052
G1 X105.08 Y108.651 E.00949
G1 X105.249 Y108.142 E.01938
G1 X105.36 Y107.878 E.01032
G1 X105.603 Y107.411 E.01901
G1 X105.761 Y107.161 E.01069
G1 X106.102 Y106.707 E.02051
G1 X106.27 Y106.518 E.00912
G1 X106.65 Y106.15 E.0191
G1 X106.871 Y105.969 E.01031
G1 X107.338 Y105.645 E.02051
G1 X107.566 Y105.514 E.0095
G1 X108.043 Y105.286 E.0191
G1 X108.279 Y105.194 E.00912
G1 X108.824 Y105.033 E.02055
G1 X109.079 Y104.979 E.00941
G1 X109.654 Y104.907 E.02091
G1 X109.954 Y104.895 E.01083
G1 X110.519 Y104.92 E.02043
G1 X111.248 Y105.049 E.02674
G1 X111.534 Y105.129 E.01073
G1 X112.044 Y105.32 E.01966
G1 X112.311 Y105.446 E.01066
G1 X112.795 Y105.724 E.02015
G1 X113.011 Y105.874 E.00952
G1 X113.421 Y106.207 E.01906
G1 X113.628 Y106.404 E.01032
G1 X113.985 Y106.803 E.01934
G1 X114.163 Y107.039 E.01068
G1 X114.467 Y107.519 E.0205
G1 X114.584 Y107.743 E.00912
G1 X114.796 Y108.238 E.01946
G1 X114.882 Y108.494 E.00972
G1 X115.012 Y109.007 E.0191
G1 X115.061 Y109.293 E.01049
G1 X115.104 Y109.719 E.01546
G1 X115.105 Y110.25 E.01919
G1 X115.024 Y110.925 E.02453
G1 X114.896 Y111.461 E.0199
G1 X114.803 Y111.741 E.01066
G1 X114.59 Y112.244 E.01971
G1 X114.463 Y112.488 E.00993
G1 X114.181 Y112.936 E.01912
G1 X114.034 Y113.135 E.00892
G1 X113.666 Y113.557 E.02021
G1 X113.474 Y113.745 E.00973
G1 X113.036 Y114.108 E.02051
G1 X112.822 Y114.258 E.00946
G1 X112.331 Y114.545 E.02052
G1 X112.073 Y114.668 E.01031
G1 X111.58 Y114.856 E.01906
G1 X111.328 Y114.931 E.00952
G1 X110.781 Y115.046 E.02018
G1 X110.498 Y115.082 E.0103
G1 X109.93 Y115.105 E.02051
G1 X109.667 Y115.095 E.0095
G1 X109.142 Y115.032 E.0191
G1 X108.894 Y114.984 E.00912
G1 X108.347 Y114.829 E.02051
G1 X108.07 Y114.725 E.01069
G1 X107.595 Y114.501 E.01897
G1 X107.338 Y114.354 E.01069
G1 X106.993 Y114.116 E.01511
G1 X107.27 Y113.741 F9000
G1 F1800
G1 X106.97 Y113.52 E.01346
G1 X106.375 Y112.9 E.03105
G1 X105.897 Y112.171 E.03143
G1 X105.556 Y111.34 E.03245
G1 X105.384 Y110.497 E.03108
G1 X105.36 Y109.768 E.02633
G1 X105.414 Y109.254 E.01866
G1 X105.523 Y108.761 E.01821
G1 X105.898 Y107.831 E.03622
G1 X106.44 Y107.014 E.03539
G1 X106.785 Y106.645 E.01826
G1 X107.192 Y106.297 E.01932
G1 X107.89 Y105.862 E.0297
G1 X108.724 Y105.536 E.03233
G1 X109.683 Y105.364 E.03517
G1 X110.408 Y105.368 E.02618
G1 X110.923 Y105.443 E.0188
G1 X111.445 Y105.58 E.01948
G1 X112.328 Y105.977 E.03495
G1 X113.041 Y106.485 E.03161
G1 X113.639 Y107.105 E.03111
G1 X114.057 Y107.721 E.02687
G1 X114.283 Y108.18 E.01846
G1 X114.46 Y108.673 E.01892
G1 X114.634 Y109.616 E.03462
G1 X114.631 Y110.42 E.02903
G1 X114.462 Y111.32 E.03305
G1 X114.292 Y111.799 E.01836
G1 X114.057 Y112.278 E.01926
G1 X113.576 Y112.969 E.03041
G1 X112.951 Y113.59 E.03184
G1 X112.14 Y114.13 E.03516
G1 X111.677 Y114.338 E.01833
G1 X111.167 Y114.502 E.01932
G1 X110.436 Y114.627 E.02679
G1 X109.433 Y114.609 E.0362
G1 X108.504 Y114.401 E.03438
G1 X108.034 Y114.212 E.0183
G1 X107.563 Y113.957 E.01932
G1 X107.302 Y113.765 E.0117
G1 X107.575 Y113.402 F9000
G1 F1800
M73 P10 R2
M73 P10 R2
G1 X107.236 Y113.148 E.01529
G1 X106.699 Y112.578 E.02826
G1 X106.276 Y111.916 E.02838
G1 X106.005 Y111.256 E.02577
G1 X105.841 Y110.489 E.02832
G1 X105.814 Y109.821 E.02413
G1 X105.859 Y109.359 E.01675
G1 X105.972 Y108.848 E.0189
G1 X106.274 Y108.091 E.02944
G1 X106.767 Y107.334 E.03259
G1 X107.125 Y106.951 E.01895
G1 X107.493 Y106.641 E.0174
G1 X108.052 Y106.29 E.02383
G1 X108.797 Y105.987 E.02904
G1 X109.672 Y105.821 E.03215
G1 X110.333 Y105.819 E.02387
G1 X110.866 Y105.896 E.01942
G1 X111.336 Y106.024 E.01758
G1 X112.057 Y106.346 E.02854
G1 X112.708 Y106.798 E.02858
G1 X113.257 Y107.356 E.02829
G1 X113.643 Y107.915 E.02451
G1 X113.876 Y108.389 E.01908
G1 X114.032 Y108.834 E.01703
G1 X114.186 Y109.707 E.032
G1 X114.174 Y110.423 E.02587
G1 X114.035 Y111.156 E.02693
G1 X113.858 Y111.653 E.01903
G1 X113.644 Y112.083 E.01735
G1 X113.197 Y112.715 E.02796
G1 X112.624 Y113.271 E.02883
G1 X111.962 Y113.708 E.02864
G1 X111.482 Y113.925 E.01902
G1 X111.023 Y114.068 E.01738
G1 X110.351 Y114.178 E.02459
G1 X109.542 Y114.165 E.02921
G1 X108.685 Y113.981 E.03164
G1 X108.197 Y113.785 E.01898
G1 X107.776 Y113.553 E.01738
G1 X107.607 Y113.426 E.00763
G1 X107.882 Y113.067 F9000
G1 F1800
G1 X107.505 Y112.779 E.01711
G1 X107.088 Y112.337 E.02194
G1 X106.701 Y111.746 E.0255
G1 X106.453 Y111.165 E.0228
G1 X106.298 Y110.476 E.0255
G1 X106.268 Y109.875 E.02173
G1 X106.315 Y109.396 E.01739
G1 X106.419 Y108.94 E.01688
