;TIME:379.23
;Filament used:0.17695m
;Layer height:0.200
; HEADER_BLOCK_START
; generated by Creality_Print V6.0.4.1793 on 2025-03-10 at 13:51:42
; total layer number: 156
; filament_density: 1.24
; filament_diameter: 1.75
; max_z_height: 15.60
; HEADER_BLOCK_END

; MINX = 60.01
; MINY = 107.50
; MINZ = 0.00
; MAXX = 160.00
; MAXY = 112.50
; MAXZ = 15.50

; THUMBNAIL_BLOCK_START

;
; THUMBNAIL_BLOCK_END

; THUMBNAIL_BLOCK_START

;
; THUMBNAIL_BLOCK_END

; external perimeters extrusion width = 0.42mm
; perimeters extrusion width = 0.45mm
; infill extrusion width = 0.45mm
; solid infill extrusion width = 0.42mm
; top infill extrusion width = 0.42mm
; first layer extrusion width = 0.50mm

; external perimeters extrusion width = 0.42mm
; perimeters extrusion width = 0.45mm
; infill extrusion width = 0.45mm
; solid infill extrusion width = 0.42mm
; top infill extrusion width = 0.42mm
; first layer extrusion width = 0.50mm

; EXECUTABLE_BLOCK_START
M73 P0 R6
M201 X5000 Y5000 Z500 E5000
M203 X500 Y500 Z30 E100
M204 P5000 R2500 T5000 ; sets acceleration (P, T) and retract acceleration (R), mm/sec^2
M205 X10.00 Y10.00 Z0.40 E5.00 ; sets the jerk limits, mm/sec
;TYPE:Custom
M220 S100 ;Reset Feedrate 
M221 S100 ;Reset Flowrate 
 
M140 S60 ;Set final bed temp 
G28 ;Home 
 
G92 E0 ;Reset Extruder 
G1 Z2.0 F3000 ;Move Z Axis up 
M104 S205 ;Set final nozzle temp 
G1 X-2.1 Y20 Z0.28 F5000.0 ;Move to start position 
M190 S60 ;Wait for bed temp to stabilize 
M109 S205 ;Wait for nozzle temp to stabilize 
G1 X-2.1 Y145.0 Z0.28 F1500.0 E15 ;Draw the first line 
G1 X-2.4 Y145.0 Z0.28 F5000.0 ;Move to side a little 
M73 P1 R6
M73 P1 R6
G1 X-2.4 Y20 Z0.28 F1500.0 E30 ;Draw the second line 
G92 E0  ;Reset Extruder 
G1 E-1.0000 F1800 ;Retract a bit 
M73 P2 R6
M73 P2 R6
G1 Z2.0 F3000 ;Move Z Axis up 
G1 E0.0000 F1800
G90
G21
M83 ; use relative distances for extrusion
" "
G1 E-1.2 F2400
M106 S0
;LAYER_CHANGE
;Z:0.2
;HEIGHT:0.2
;BEFORE_LAYER_CHANGE
;0.2
G92 E0

;_SET_FAN_SPEED_CHANGING_LAYER
M204 P500
M205 X10 Y10
; printing object Pivote inferior.STL id:8171063952611762432 copy 0
M204 T500
G1 Z.4 F9000
G1 X59.882 Y116.42
G1 Z.2
M73 P3 R6
M73 P3 R6
G1 E1.2 F1800
;TYPE:Brim
;WIDTH:0.5
G1 X59.233 Y116.115 E.02589
G1 X58.886 Y115.916 E.01444
G1 X58.295 Y115.51 E.02588
G1 X57.99 Y115.263 E.01418
G1 X57.479 Y114.777 E.02547
G1 X57.207 Y114.474 E.01469
G1 X56.767 Y113.893 E.02631
G1 X56.552 Y113.556 E.01445
G1 X56.216 Y112.921 E.02591
G1 X56.058 Y112.554 E.01444
G1 X55.829 Y111.874 E.02589
G1 X55.734 Y111.493 E.01418
G1 X55.618 Y110.798 E.02547
G1 X55.583 Y110.392 E.01469
G1 X55.579 Y109.663 E.02631
G1 X55.61 Y109.265 E.01445
G1 X55.723 Y108.556 E.02591
G1 X55.818 Y108.167 E.01444
G1 X56.043 Y107.486 E.02589
G1 X56.198 Y107.118 E.01444
G1 X56.53 Y106.482 E.02589
G1 X56.742 Y106.143 E.01444
G1 X57.171 Y105.568 E.02589
G1 X57.436 Y105.268 E.01444
G1 X57.951 Y104.77 E.02589
G1 X58.26 Y104.516 E.01444
G1 X58.849 Y104.107 E.0259
G1 X59.195 Y103.906 E.01444
G1 X59.842 Y103.596 E.02589
G1 X60.216 Y103.453 E.01444
G1 X60.904 Y103.252 E.02589
G1 X61.295 Y103.17 E.01443
G1 X62.021 Y103.081 E.02639
G1 X62.436 Y103.064 E.01501
G1 X63.153 Y103.093 E.02589
G1 X63.527 Y103.139 E.01361
G1 X64.205 Y103.275 E.02496
G1 X64.597 Y103.386 E.0147
G1 X65.279 Y103.641 E.02631
G1 X65.641 Y103.812 E.01445
G1 X66.264 Y104.169 E.02591
G1 X66.594 Y104.395 E.01444
G1 X67.15 Y104.847 E.02589
G1 X67.44 Y105.123 E.01444
G1 X67.917 Y105.658 E.02589
G1 X68.158 Y105.977 E.01444
G1 X68.543 Y106.582 E.02589
G1 X68.73 Y106.936 E.01444
G1 X69.013 Y107.594 E.02589
G1 X69.139 Y107.967 E.01418
G1 X69.311 Y108.651 E.02547
G1 X69.379 Y109.054 E.01477
G1 X69.436 Y109.594 E.01962
G1 X69.438 Y110.371 E.02804
G1 X69.386 Y110.901 E.01923
G1 X69.322 Y111.294 E.01438
G1 X69.154 Y111.985 E.02568
G1 X69.028 Y112.365 E.01444
G1 X68.749 Y113.026 E.0259
G1 X68.564 Y113.381 E.01444
G1 X68.183 Y113.988 E.02589
G1 X67.948 Y114.302 E.01418
G1 X67.483 Y114.832 E.02547
G1 X67.191 Y115.116 E.01469
G1 X66.629 Y115.579 E.02631
G1 X66.3 Y115.808 E.01445
G1 X65.68 Y116.169 E.02591
G1 X65.319 Y116.341 E.01444
G1 X64.649 Y116.598 E.02589
G1 X64.265 Y116.71 E.01444
G1 X63.563 Y116.856 E.02589
G1 X63.166 Y116.905 E.01444
G1 X62.45 Y116.936 E.0259
G1 X62.05 Y116.921 E.01444
G1 X61.338 Y116.837 E.02589
G1 X60.946 Y116.758 E.01444
G1 X60.256 Y116.561 E.02589
G1 X59.919 Y116.434 E.013
G1 X60.08 Y116.006 F9000
G1 F1800
G1 X60.055 Y115.996 E.00098
G1 X59.449 Y115.711 E.02416
G1 X59.125 Y115.525 E.01351
G1 X58.564 Y115.14 E.02455
G1 X58.288 Y114.916 E.01286
G1 X57.811 Y114.462 E.02377
G1 X57.564 Y114.187 E.01335
G1 X57.146 Y113.636 E.02496
G1 X56.945 Y113.321 E.01351
G1 X56.627 Y112.719 E.02458
G1 X56.484 Y112.385 E.01311
G1 X56.27 Y111.751 E.02416
G1 X56.181 Y111.395 E.01326
G1 X56.072 Y110.745 E.02377
G1 X56.04 Y110.377 E.01336
G1 X56.037 Y109.686 E.02496
G1 X56.064 Y109.324 E.01311
G1 X56.171 Y108.651 E.02458
G1 X56.259 Y108.288 E.01351
G1 X56.473 Y107.642 E.02456
G1 X56.615 Y107.308 E.01311
G1 X56.924 Y106.714 E.02416
G1 X57.123 Y106.397 E.01351
G1 X57.53 Y105.852 E.02456
G1 X57.771 Y105.58 E.01311
G1 X58.252 Y105.115 E.02416
G1 X58.532 Y104.884 E.01311
G1 X59.091 Y104.496 E.02456
G1 X59.414 Y104.308 E.01351
G1 X60.018 Y104.019 E.02416
G1 X60.357 Y103.889 E.01311
G1 X61.009 Y103.697 E.02456
G1 X61.375 Y103.621 E.01349
G1 X62.064 Y103.537 E.02503
G1 X62.442 Y103.522 E.01367
G1 X63.111 Y103.549 E.02416
G1 X63.46 Y103.591 E.01269
G1 X64.092 Y103.719 E.0233
G1 X64.449 Y103.819 E.01337
G1 X65.096 Y104.061 E.02496
G1 X65.435 Y104.22 E.01351
G1 X66.016 Y104.553 E.02418
G1 X66.324 Y104.765 E.01351
G1 X66.844 Y105.186 E.02416
G1 X67.107 Y105.437 E.01311
G1 X67.56 Y105.944 E.02456
G1 X67.786 Y106.243 E.01351
G1 X68.151 Y106.817 E.02456
G1 X68.32 Y107.138 E.01311
G1 X68.584 Y107.753 E.02416
G1 X68.698 Y108.09 E.01287
G1 X68.862 Y108.739 E.02416
G1 X68.926 Y109.12 E.01396
G1 X68.979 Y109.626 E.01836
G1 X68.98 Y110.36 E.02648
G1 X68.876 Y111.194 E.03035
G1 X68.715 Y111.854 E.02453
G1 X68.598 Y112.209 E.01351
G1 X68.333 Y112.836 E.02456
G1 X68.165 Y113.158 E.01311
G1 X67.809 Y113.724 E.02416
G1 X67.596 Y114.01 E.01287
G1 X67.155 Y114.513 E.02416
G1 X66.882 Y114.779 E.01376
G1 X66.357 Y115.211 E.02455
G1 X66.05 Y115.425 E.01351
G1 X65.461 Y115.767 E.02458
G1 X65.133 Y115.923 E.01311
G1 X64.508 Y116.162 E.02416
G1 X64.149 Y116.267 E.01351
G1 X63.494 Y116.403 E.02417
G1 X63.133 Y116.449 E.01311
G1 X62.454 Y116.478 E.02456
G1 X62.08 Y116.465 E.01351
G1 X61.415 Y116.386 E.02416
G1 X61.059 Y116.315 E.01311
G1 X60.405 Y116.128 E.02456
G1 X60.118 Y116.02 E.01109
G1 X60.279 Y115.592 F9000
G1 F1800
G1 X60.228 Y115.573 E.00196
G1 X59.666 Y115.308 E.02244
G1 X59.364 Y115.135 E.01257
G1 X58.834 Y114.771 E.02321
G1 X58.586 Y114.569 E.01154
G1 X58.135 Y114.139 E.02248
G1 X57.913 Y113.891 E.01204
G1 X57.518 Y113.37 E.0236
G1 X57.338 Y113.086 E.01215
G1 X57.042 Y112.527 E.02284
G1 X56.909 Y112.216 E.01218
G1 X56.708 Y111.617 E.02284
G1 X56.628 Y111.296 E.01193
G1 X56.527 Y110.693 E.02208
G1 X56.497 Y110.35 E.01243
G1 X56.494 Y109.708 E.0232
G1 X56.519 Y109.372 E.01217
G1 X56.621 Y108.736 E.02324
G1 X56.701 Y108.409 E.01217
G1 X56.899 Y107.809 E.02282
G1 X57.031 Y107.498 E.01218
G1 X57.318 Y106.947 E.02245
G1 X57.504 Y106.652 E.01257
G1 X57.889 Y106.137 E.02322
G1 X58.105 Y105.893 E.01178
M73 P4 R6
M73 P4 R6
G1 X58.553 Y105.46 E.02246
G1 X58.813 Y105.246 E.01218
G1 X59.341 Y104.879 E.02322
G1 X59.633 Y104.71 E.01217
G1 X60.194 Y104.441 E.02245
G1 X60.498 Y104.324 E.01178
G1 X61.115 Y104.142 E.02322
G1 X61.444 Y104.074 E.01213
G1 X62.095 Y103.994 E.02367
G1 X62.447 Y103.98 E.01273
G1 X63.079 Y104.006 E.02285
G1 X63.392 Y104.044 E.01138
G1 X63.98 Y104.162 E.02164
G1 X64.312 Y104.256 E.01245
G1 X64.913 Y104.481 E.02319
G1 X65.228 Y104.629 E.01256
G1 X65.777 Y104.944 E.02285
G1 X66.055 Y105.135 E.01218
G1 X66.538 Y105.527 E.02245
G1 X66.782 Y105.759 E.01218
G1 X67.203 Y106.231 E.02282
G1 X67.413 Y106.508 E.01257
G1 X67.757 Y107.051 E.02322
G1 X67.909 Y107.34 E.01178
G1 X68.159 Y107.922 E.02285
G1 X68.261 Y108.225 E.01155
G1 X68.413 Y108.828 E.02245
G1 X68.472 Y109.178 E.01282
G1 X68.522 Y109.657 E.0174
G1 X68.523 Y110.323 E.02402
G1 X68.426 Y111.103 E.0284
G1 X68.277 Y111.723 E.023
G1 X68.168 Y112.053 E.01257
G1 X67.917 Y112.646 E.02322
G1 X67.765 Y112.935 E.01178
G1 X67.434 Y113.461 E.02246
G1 X67.244 Y113.718 E.01155
G1 X66.827 Y114.194 E.02284
G1 X66.581 Y114.434 E.01242
G1 X66.085 Y114.843 E.0232
G1 X65.809 Y115.036 E.01216
G1 X65.252 Y115.359 E.02324
G1 X64.948 Y115.504 E.01218
G1 X64.367 Y115.727 E.02245
G1 X64.044 Y115.822 E.01218
G1 X63.424 Y115.951 E.02285
G1 X63.089 Y115.993 E.01218
G1 X62.447 Y116.021 E.02322
G1 X62.11 Y116.008 E.01217
G1 X61.492 Y115.935 E.02245
G1 X61.172 Y115.871 E.01178
G1 X60.554 Y115.695 E.02322
G1 X60.316 Y115.606 E.00917
G1 X60.477 Y115.177 F9000
G1 F1800
G1 X60.401 Y115.149 E.00293
G1 X59.882 Y114.905 E.02071
G1 X59.602 Y114.744 E.01163
G1 X59.104 Y114.401 E.02186
G1 X58.885 Y114.222 E.01021
G1 X58.46 Y113.817 E.02119
G1 X58.262 Y113.595 E.01072
G1 X57.891 Y113.104 E.02224
G1 X57.731 Y112.851 E.0108
G1 X57.458 Y112.335 E.02111
G1 X57.335 Y112.048 E.01125
G1 X57.145 Y111.483 E.02151
G1 X57.075 Y111.198 E.01061
G1 X56.982 Y110.641 E.0204
G1 X56.954 Y110.323 E.0115
G1 X56.951 Y109.729 E.02145
G1 X56.975 Y109.419 E.01122
G1 X57.07 Y108.821 E.02188
G1 X57.142 Y108.53 E.01083
G1 X57.326 Y107.975 E.02109
G1 X57.447 Y107.688 E.01125
G1 X57.713 Y107.179 E.02073
G1 X57.884 Y106.906 E.01163
G1 X58.247 Y106.422 E.02187
G1 X58.44 Y106.205 E.01045
G1 X58.853 Y105.805 E.02077
G1 X59.094 Y105.607 E.01125
G1 X59.591 Y105.262 E.02187
G1 X59.851 Y105.112 E.01083
G1 X60.37 Y104.864 E.02076
G1 X60.64 Y104.759 E.01045
G1 X61.221 Y104.588 E.02188
G1 X61.513 Y104.526 E.01077
G1 X62.126 Y104.45 E.02229
G1 X62.452 Y104.437 E.01178
G1 X63.048 Y104.462 E.02152
G1 X63.324 Y104.497 E.01007
G1 X63.867 Y104.606 E.02
G1 X64.175 Y104.693 E.01153
G1 X64.73 Y104.9 E.02142
G1 X65.021 Y105.037 E.01161
G1 X65.538 Y105.334 E.02151
G1 X65.785 Y105.505 E.01085
G1 X66.231 Y105.867 E.02075
G1 X66.457 Y106.082 E.01125
G1 X66.846 Y106.517 E.02108
G1 X67.04 Y106.774 E.01163
G1 X67.364 Y107.286 E.02187
G1 X67.498 Y107.542 E.01045
G1 X67.729 Y108.08 E.02114
G1 X67.823 Y108.359 E.01064
G1 X67.964 Y108.917 E.02077
G1 X68.019 Y109.235 E.01167
G1 X68.065 Y109.688 E.01643
G1 X68.066 Y110.286 E.02159
G1 X67.977 Y111.014 E.02646
G1 X67.838 Y111.592 E.02146
G1 X67.737 Y111.897 E.01162
G1 X67.505 Y112.445 E.02147
G1 X67.366 Y112.711 E.01086
G1 X67.06 Y113.199 E.02078
G1 X66.891 Y113.426 E.01024
G1 X66.499 Y113.875 E.02152
G1 X66.279 Y114.089 E.01108
G1 X65.813 Y114.475 E.02186
G1 X65.567 Y114.647 E.01081
G1 X65.043 Y114.952 E.02189
G1 X64.762 Y115.086 E.01125
G1 X64.226 Y115.291 E.02075
G1 X63.938 Y115.377 E.01085
G1 X63.354 Y115.499 E.02152
G1 X63.045 Y115.537 E.01125
G1 X62.44 Y115.563 E.02187
G1 X62.14 Y115.551 E.01083
G1 X61.569 Y115.484 E.02076
G1 X61.285 Y115.428 E.01045
G1 X60.702 Y115.262 E.02187
G1 X60.514 Y115.192 E.00726
G1 X60.675 Y114.763 F9000
G1 F1800
G1 X60.574 Y114.725 E.00391
G1 X60.098 Y114.501 E.01897
G1 X59.841 Y114.354 E.01069
G1 X59.374 Y114.032 E.0205
G1 X59.184 Y113.876 E.00889
G1 X58.785 Y113.494 E.01991
G1 X58.612 Y113.3 E.0094
G1 X58.263 Y112.839 E.02088
G1 X58.124 Y112.617 E.00944
G1 X57.873 Y112.142 E.01939
G1 X57.761 Y111.88 E.01031
G1 X57.583 Y111.35 E.02017
G1 X57.522 Y111.1 E.00929
G1 X57.436 Y110.588 E.01874
G1 X57.411 Y110.297 E.01057
G1 X57.408 Y109.751 E.0197
G1 X57.43 Y109.467 E.01027
G1 X57.52 Y108.906 E.02052
G1 X57.583 Y108.651 E.00949
G1 X57.752 Y108.142 E.01938
G1 X57.864 Y107.878 E.01032
G1 X58.107 Y107.411 E.01901
G1 X58.264 Y107.161 E.01069
G1 X58.606 Y106.707 E.02051
G1 X58.774 Y106.518 E.00912
G1 X59.154 Y106.15 E.0191
G1 X59.374 Y105.969 E.01031
G1 X59.841 Y105.645 E.02051
G1 X60.069 Y105.514 E.0095
G1 X60.547 Y105.286 E.0191
G1 X60.782 Y105.194 E.00912
G1 X61.328 Y105.033 E.02055
G1 X61.583 Y104.979 E.00941
G1 X62.157 Y104.907 E.02091
G1 X62.457 Y104.895 E.01083
G1 X63.022 Y104.92 E.02043
G1 X63.752 Y105.049 E.02674
G1 X64.037 Y105.129 E.01073
G1 X64.548 Y105.32 E.01966
G1 X64.815 Y105.446 E.01066
G1 X65.298 Y105.724 E.02015
G1 X65.515 Y105.874 E.00952
G1 X65.925 Y106.207 E.01906
G1 X66.132 Y106.404 E.01032
G1 X66.489 Y106.804 E.01934
G1 X66.667 Y107.039 E.01068
G1 X66.971 Y107.519 E.0205
G1 X67.087 Y107.743 E.00912
G1 X67.3 Y108.238 E.01946
G1 X67.386 Y108.494 E.00972
G1 X67.515 Y109.007 E.0191
G1 X67.565 Y109.293 E.01049
G1 X67.608 Y109.719 E.01546
G1 X67.609 Y110.25 E.01919
G1 X67.527 Y110.925 E.02453
G1 X67.4 Y111.461 E.0199
G1 X67.307 Y111.741 E.01066
G1 X67.094 Y112.244 E.01971
G1 X66.966 Y112.488 E.00993
G1 X66.685 Y112.936 E.01912
G1 X66.538 Y113.135 E.00892
G1 X66.17 Y113.557 E.02021
G1 X65.977 Y113.745 E.00973
G1 X65.54 Y114.108 E.02051
G1 X65.325 Y114.258 E.00946
G1 X64.835 Y114.545 E.02052
G1 X64.577 Y114.668 E.01031
G1 X64.084 Y114.856 E.01906
G1 X63.831 Y114.931 E.00952
G1 X63.284 Y115.046 E.02018
G1 X63.001 Y115.082 E.0103
G1 X62.434 Y115.105 E.02051
G1 X62.171 Y115.095 E.0095
G1 X61.645 Y115.032 E.0191
G1 X61.397 Y114.984 E.00912
G1 X60.851 Y114.829 E.02051
G1 X60.713 Y114.777 E.00533
G1 X60.884 Y114.351 F9000
G1 F1800
G1 X60.538 Y114.212 E.01348
G1 X60.067 Y113.957 E.01932
G1 X59.474 Y113.52 E.02661
G1 X58.878 Y112.9 E.03105
G1 X58.401 Y112.172 E.03143
G1 X58.06 Y111.34 E.03245
G1 X57.887 Y110.497 E.03108
G1 X57.863 Y109.768 E.02633
G1 X57.918 Y109.254 E.01866
G1 X58.026 Y108.761 E.01821
G1 X58.402 Y107.831 E.03622
G1 X58.944 Y107.014 E.03539
G1 X59.289 Y106.645 E.01826
G1 X59.696 Y106.297 E.01932
G1 X60.394 Y105.862 E.0297
G1 X61.228 Y105.536 E.03233
G1 X62.186 Y105.364 E.03517
G1 X62.912 Y105.368 E.02618
G1 X63.427 Y105.443 E.0188
G1 X63.949 Y105.58 E.01948
G1 X64.831 Y105.977 E.03495
G1 X65.545 Y106.485 E.03161
M73 P5 R6
M73 P5 R6
G1 X66.143 Y107.105 E.03111
G1 X66.561 Y107.721 E.02687
G1 X66.786 Y108.18 E.01846
G1 X66.964 Y108.673 E.01892
G1 X67.137 Y109.616 E.03462
G1 X67.135 Y110.42 E.02903
G1 X66.966 Y111.32 E.03305
G1 X66.795 Y111.799 E.01836
G1 X66.561 Y112.278 E.01926
G1 X66.08 Y112.969 E.03041
G1 X65.454 Y113.59 E.03184
G1 X64.643 Y114.13 E.03516
G1 X64.18 Y114.338 E.01833
G1 X63.671 Y114.502 E.01932
G1 X62.939 Y114.627 E.02679
G1 X61.937 Y114.609 E.0362
G1 X61.008 Y114.401 E.03438
G1 X60.921 Y114.366 E.00337
G1 X61.092 Y113.942 F9000
G1 F1800
G1 X60.701 Y113.785 E.0152
G1 X60.279 Y113.553 E.01738
G1 X59.739 Y113.148 E.02436
G1 X59.203 Y112.578 E.02826
G1 X58.78 Y111.916 E.02838
G1 X58.509 Y111.256 E.02577
G1 X58.344 Y110.489 E.02832
G1 X58.317 Y109.821 E.02413
G1 X58.363 Y109.359 E.01675
G1 X58.475 Y108.848 E.0189
G1 X58.778 Y108.091 E.02944
G1 X59.27 Y107.334 E.03259
M73 P5 R5
M73 P5 R5
G1 X59.628 Y106.951 E.01895
G1 X59.997 Y106.641 E.0174
G1 X60.556 Y106.29 E.02383
G1 X61.301 Y105.987 E.02904
G1 X62.176 Y105.821 E.03215
G1 X62.837 Y105.819 E.02387
G1 X63.369 Y105.896 E.01942
G1 X63.839 Y106.024 E.01758
G1 X64.561 Y106.346 E.02854
G1 X65.211 Y106.798 E.02858
G1 X65.761 Y107.356 E.02829
G1 X66.146 Y107.915 E.02451
G1 X66.38 Y108.389 E.01908
G1 X66.536 Y108.834 E.01703
G1 X66.689 Y109.707 E.032
G1 X66.678 Y110.423 E.02587
G1 X66.539 Y111.156 E.02693
G1 X66.362 Y111.653 E.01903
G1 X66.148 Y112.083 E.01735
G1 X65.7 Y112.715 E.02796
G1 X65.127 Y113.271 E.02883
G1 X64.466 Y113.708 E.02864
G1 X63.986 Y113.925 E.01902
G1 X63.526 Y114.068 E.01738
G1 X62.854 Y114.178 E.02459
G1 X62.045 Y114.165 E.02921
G1 X61.189 Y113.981 E.03164
G1 X61.129 Y113.957 E.00233
G1 X61.295 Y113.532 F9000
G1 F1800
G1 X60.928 Y113.388 E.01422
G1 X60.491 Y113.148 E.01803
G1 X60.009 Y112.779 E.02192
G1 X59.591 Y112.337 E.02194
G1 X59.204 Y111.746 E.0255
G1 X58.957 Y111.165 E.0228
G1 X58.801 Y110.476 E.0255
G1 X58.771 Y109.875 E.02173
G1 X58.818 Y109.396 E.01739
G1 X58.923 Y108.94 E.01688
G1 X59.205 Y108.253 E.02682
G1 X59.6 Y107.651 E.02599
G1 X59.916 Y107.306 E.01691
G1 X60.299 Y106.984 E.01804
G1 X60.804 Y106.673 E.02144
G1 X61.479 Y106.408 E.02619
G1 X62.17 Y106.278 E.02535
G1 X62.767 Y106.271 E.02157
