;TIME:1656.14
;Filament used:0.80048m
;Layer height:0.200
; HEADER_BLOCK_START
; generated by Creality_Print V6.0.4.1793 on 2025-03-05 at 22:43:12
; total layer number: 702
; filament_density: 1.24
; filament_diameter: 1.75
; max_z_height: 15.60
; HEADER_BLOCK_END

; MINX = 12.51
; MINY = 12.43
; MINZ = 0.00
; MAXX = 207.50
; MAXY = 207.57
; MAXZ = 15.50

; THUMBNAIL_BLOCK_START

;
; THUMBNAIL_BLOCK_END

; THUMBNAIL_BLOCK_START

;
; THUMBNAIL_BLOCK_END

; external perimeters extrusion width = 0.42mm
; perimeters extrusion width = 0.45mm
; infill extrusion width = 0.45mm
; solid infill extrusion width = 0.42mm
; top infill extrusion width = 0.42mm
; first layer extrusion width = 0.50mm

; external perimeters extrusion width = 0.42mm
; perimeters extrusion width = 0.45mm
; infill extrusion width = 0.45mm
; solid infill extrusion width = 0.42mm
; top infill extrusion width = 0.42mm
; first layer extrusion width = 0.50mm

; external perimeters extrusion width = 0.42mm
; perimeters extrusion width = 0.45mm
; infill extrusion width = 0.45mm
; solid infill extrusion width = 0.42mm
; top infill extrusion width = 0.42mm
; first layer extrusion width = 0.50mm

; external perimeters extrusion width = 0.42mm
; perimeters extrusion width = 0.45mm
; infill extrusion width = 0.45mm
; solid infill extrusion width = 0.42mm
; top infill extrusion width = 0.42mm
; first layer extrusion width = 0.50mm

; external perimeters extrusion width = 0.42mm
; perimeters extrusion width = 0.45mm
; infill extrusion width = 0.45mm
; solid infill extrusion width = 0.42mm
; top infill extrusion width = 0.42mm
; first layer extrusion width = 0.50mm

; external perimeters extrusion width = 0.42mm
; perimeters extrusion width = 0.45mm
; infill extrusion width = 0.45mm
; solid infill extrusion width = 0.42mm
; top infill extrusion width = 0.42mm
; first layer extrusion width = 0.50mm

; external perimeters extrusion width = 0.42mm
; perimeters extrusion width = 0.45mm
; infill extrusion width = 0.45mm
; solid infill extrusion width = 0.42mm
; top infill extrusion width = 0.42mm
; first layer extrusion width = 0.50mm

; external perimeters extrusion width = 0.42mm
; perimeters extrusion width = 0.45mm
; infill extrusion width = 0.45mm
; solid infill extrusion width = 0.42mm
; top infill extrusion width = 0.42mm
; first layer extrusion width = 0.50mm

; external perimeters extrusion width = 0.42mm
; perimeters extrusion width = 0.45mm
; infill extrusion width = 0.45mm
; solid infill extrusion width = 0.42mm
; top infill extrusion width = 0.42mm
; first layer extrusion width = 0.50mm

; EXECUTABLE_BLOCK_START
M73 P0 R27
M201 X5000 Y5000 Z500 E5000
M203 X500 Y500 Z30 E100
M204 P5000 R2500 T5000 ; sets acceleration (P, T) and retract acceleration (R), mm/sec^2
M205 X10.00 Y10.00 Z0.40 E5.00 ; sets the jerk limits, mm/sec
;TYPE:Custom
M220 S100 ;Reset Feedrate 
M221 S100 ;Reset Flowrate 
 
M140 S60 ;Set final bed temp 
G28 ;Home 
 
G92 E0 ;Reset Extruder 
G1 Z2.0 F3000 ;Move Z Axis up 
M104 S205 ;Set final nozzle temp 
G1 X-2.1 Y20 Z0.28 F5000.0 ;Move to start position 
M190 S60 ;Wait for bed temp to stabilize 
M109 S205 ;Wait for nozzle temp to stabilize 
G1 X-2.1 Y145.0 Z0.28 F1500.0 E15 ;Draw the first line 
G1 X-2.4 Y145.0 Z0.28 F5000.0 ;Move to side a little 
G1 X-2.4 Y20 Z0.28 F1500.0 E30 ;Draw the second line 
G92 E0  ;Reset Extruder 
G1 E-1.0000 F1800 ;Retract a bit 
G1 Z2.0 F3000 ;Move Z Axis up 
G1 E0.0000 F1800
G90
G21
M83 ; use relative distances for extrusion
" "
G1 E-1.2 F2400
M106 S0
;LAYER_CHANGE
;Z:0.2
;HEIGHT:0.2
;BEFORE_LAYER_CHANGE
;0.2
G92 E0

;_SET_FAN_SPEED_CHANGING_LAYER
M204 P500
M205 X10 Y10
; printing object Pivote inferior.STL id:8171063952611762432 copy 0
M204 T500
G1 Z.4 F9000
G1 X9.939 Y10.198
G1 Z.2
G1 E1.2 F1800
;TYPE:Brim
;WIDTH:0.5
G1 X10.455 Y9.7 E.02589
G1 X10.764 Y9.446 E.01444
G1 X11.353 Y9.037 E.0259
G1 X11.699 Y8.836 E.01444
G1 X12.346 Y8.526 E.02589
G1 X12.719 Y8.383 E.01444
G1 X13.407 Y8.182 E.02589
G1 X13.799 Y8.1 E.01443
G1 X14.524 Y8.011 E.02639
G1 X14.94 Y7.994 E.01501
G1 X15.656 Y8.023 E.02589
G1 X16.031 Y8.069 E.01361
G1 X16.708 Y8.205 E.02496
G1 X17.1 Y8.316 E.0147
G1 X17.783 Y8.571 E.02631
G1 X18.145 Y8.742 E.01445
G1 X18.767 Y9.099 E.02591
G1 X19.097 Y9.325 E.01444
G1 X19.654 Y9.777 E.02589
G1 X19.943 Y10.053 E.01444
G1 X20.421 Y10.588 E.02589
G1 X20.662 Y10.907 E.01444
G1 X21.047 Y11.512 E.02589
G1 X21.234 Y11.866 E.01444
G1 X21.517 Y12.524 E.02589
G1 X21.643 Y12.897 E.01418
G1 X21.814 Y13.581 E.02547
G1 X21.882 Y13.984 E.01477
G1 X21.94 Y14.524 E.01962
G1 X21.942 Y15.301 E.02804
G1 X21.889 Y15.831 E.01923
G1 X21.826 Y16.224 E.01438
G1 X21.657 Y16.915 E.02568
G1 X21.532 Y17.295 E.01444
G1 X21.253 Y17.956 E.0259
G1 X21.068 Y18.311 E.01444
G1 X20.687 Y18.918 E.02589
G1 X20.452 Y19.232 E.01418
G1 X19.986 Y19.762 E.02547
G1 X19.695 Y20.046 E.01469
G1 X19.132 Y20.509 E.02631
G1 X18.804 Y20.738 E.01445
G1 X18.183 Y21.099 E.02591
G1 X17.822 Y21.271 E.01444
G1 X17.153 Y21.528 E.02589
G1 X16.769 Y21.64 E.01444
G1 X16.067 Y21.786 E.02589
G1 X15.67 Y21.835 E.01444
G1 X14.953 Y21.866 E.0259
G1 X14.554 Y21.851 E.01444
G1 X13.841 Y21.767 E.02589
G1 X13.449 Y21.688 E.01444
G1 X12.76 Y21.491 E.02589
G1 X12.385 Y21.35 E.01444
G1 X11.737 Y21.045 E.02589
G1 X11.39 Y20.846 E.01444
G1 X10.798 Y20.44 E.02588
G1 X10.493 Y20.193 E.01418
G1 X9.982 Y19.707 E.02547
G1 X9.711 Y19.404 E.01469
G1 X9.27 Y18.823 E.02631
G1 X9.055 Y18.486 E.01445
G1 X8.72 Y17.851 E.02591
G1 X8.562 Y17.484 E.01444
G1 X8.333 Y16.804 E.02589
G1 X8.238 Y16.423 E.01418
G1 X8.121 Y15.728 E.02547
G1 X8.086 Y15.322 E.01469
G1 X8.083 Y14.593 E.02631
G1 X8.114 Y14.195 E.01445
G1 X8.227 Y13.486 E.02591
G1 X8.321 Y13.097 E.01444
G1 X8.546 Y12.416 E.02589
G1 X8.702 Y12.048 E.01444
G1 X9.033 Y11.412 E.02589
G1 X9.246 Y11.073 E.01444
G1 X9.675 Y10.498 E.02589
G1 X9.913 Y10.228 E.013
G1 X10.256 Y10.531 F9000
G1 F1800
G1 X10.274 Y10.51 E.001
G1 X10.755 Y10.045 E.02416
G1 X11.036 Y9.814 E.01311
G1 X11.594 Y9.426 E.02456
G1 X11.918 Y9.238 E.01351
G1 X12.521 Y8.949 E.02416
G1 X12.86 Y8.819 E.01311
G1 X13.513 Y8.627 E.02456
G1 X13.879 Y8.551 E.01349
G1 X14.567 Y8.467 E.02503
G1 X14.945 Y8.452 E.01367
G1 X15.614 Y8.479 E.02416
G1 X15.963 Y8.521 E.01269
G1 X16.596 Y8.649 E.0233
G1 X16.952 Y8.749 E.01337
G1 X17.6 Y8.991 E.02496
G1 X17.938 Y9.15 E.01351
G1 X18.519 Y9.483 E.02418
G1 X18.828 Y9.695 E.01351
G1 X19.347 Y10.116 E.02416
G1 X19.61 Y10.367 E.01311
G1 X20.063 Y10.874 E.02456
G1 X20.289 Y11.173 E.01351
G1 X20.654 Y11.747 E.02456
G1 X20.823 Y12.068 E.01311
G1 X21.088 Y12.683 E.02416
G1 X21.202 Y13.02 E.01287
G1 X21.365 Y13.669 E.02416
G1 X21.43 Y14.05 E.01396
G1 X21.483 Y14.556 E.01836
G1 X21.484 Y15.29 E.02648
G1 X21.379 Y16.124 E.03035
G1 X21.219 Y16.784 E.02453
G1 X21.102 Y17.139 E.01351
G1 X20.836 Y17.766 E.02456
G1 X20.668 Y18.088 E.01311
G1 X20.312 Y18.654 E.02416
G1 X20.1 Y18.94 E.01287
G1 X19.658 Y19.443 E.02416
G1 X19.385 Y19.709 E.01376
G1 X18.86 Y20.141 E.02455
G1 X18.553 Y20.355 E.01351
G1 X17.964 Y20.697 E.02458
G1 X17.637 Y20.853 E.01311
G1 X17.012 Y21.092 E.02416
G1 X16.653 Y21.197 E.01351
G1 X15.997 Y21.333 E.02417
G1 X15.637 Y21.379 E.01311
G1 X14.957 Y21.408 E.02456
G1 X14.583 Y21.395 E.01351
G1 X13.919 Y21.316 E.02416
G1 X13.563 Y21.245 E.01311
G1 X12.909 Y21.058 E.02456
G1 X12.558 Y20.926 E.01351
G1 X11.953 Y20.641 E.02416
G1 X11.628 Y20.455 E.01351
G1 X11.068 Y20.07 E.02455
G1 X10.791 Y19.846 E.01286
G1 X10.314 Y19.392 E.02377
G1 X10.067 Y19.117 E.01335
G1 X9.649 Y18.566 E.02496
G1 X9.448 Y18.251 E.01351
G1 X9.13 Y17.649 E.02458
G1 X8.987 Y17.315 E.01311
G1 X8.774 Y16.681 E.02416
G1 X8.685 Y16.325 E.01326
G1 X8.576 Y15.675 E.02377
G1 X8.544 Y15.307 E.01336
G1 X8.54 Y14.616 E.02496
G1 X8.568 Y14.254 E.01311
G1 X8.674 Y13.581 E.02458
G1 X8.763 Y13.218 E.01351
G1 X8.977 Y12.572 E.02456
G1 X9.118 Y12.238 E.01311
G1 X9.428 Y11.644 E.02416
G1 X9.627 Y11.327 E.01351
G1 X10.034 Y10.782 E.02456
G1 X10.229 Y10.561 E.01067
G1 X10.572 Y10.864 F9000
G1 F1800
G1 X10.609 Y10.823 E.00201
G1 X11.056 Y10.39 E.02246
G1 X11.317 Y10.176 E.01218
G1 X11.845 Y9.809 E.02322
G1 X12.136 Y9.64 E.01217
G1 X12.697 Y9.371 E.02245
G1 X13.002 Y9.254 E.01178
G1 X13.619 Y9.072 E.02322
G1 X13.948 Y9.004 E.01213
G1 X14.598 Y8.924 E.02367
G1 X14.951 Y8.91 E.01273
G1 X15.583 Y8.936 E.02285
G1 X15.896 Y8.974 E.01138
G1 X16.483 Y9.092 E.02164
G1 X16.815 Y9.186 E.01245
G1 X17.417 Y9.411 E.02319
G1 X17.732 Y9.559 E.01256
G1 X18.28 Y9.874 E.02285
G1 X18.558 Y10.065 E.01218
G1 X19.041 Y10.457 E.02245
G1 X19.285 Y10.689 E.01218
G1 X19.706 Y11.161 E.02282
G1 X19.916 Y11.438 E.01257
G1 X20.261 Y11.981 E.02322
G1 X20.413 Y12.27 E.01178
G1 X20.662 Y12.852 E.02285
G1 X20.765 Y13.155 E.01155
G1 X20.916 Y13.758 E.02245
G1 X20.976 Y14.108 E.01282
G1 X21.026 Y14.587 E.0174
G1 X21.026 Y15.253 E.02402
G1 X20.93 Y16.033 E.0284
G1 X20.78 Y16.653 E.023
G1 X20.671 Y16.983 E.01257
G1 X20.42 Y17.576 E.02322
G1 X20.269 Y17.865 E.01178
G1 X19.938 Y18.391 E.02246
G1 X19.747 Y18.648 E.01155
G1 X19.33 Y19.124 E.02284
G1 X19.084 Y19.364 E.01242
G1 X18.588 Y19.773 E.0232
G1 X18.312 Y19.966 E.01216
G1 X17.756 Y20.289 E.02324
G1 X17.451 Y20.434 E.01218
G1 X16.871 Y20.657 E.02245
G1 X16.547 Y20.752 E.01218
G1 X15.928 Y20.881 E.02285
G1 X15.593 Y20.923 E.01218
G1 X14.95 Y20.951 E.02322
G1 X14.613 Y20.938 E.01217
G1 X13.996 Y20.865 E.02245
G1 X13.676 Y20.801 E.01178
G1 X13.057 Y20.625 E.02322
G1 X12.731 Y20.503 E.01257
G1 X12.169 Y20.238 E.02244
G1 X11.867 Y20.065 E.01257
G1 X11.337 Y19.701 E.02321
G1 X11.09 Y19.499 E.01154
G1 X10.639 Y19.069 E.02248
G1 X10.416 Y18.821 E.01204
G1 X10.022 Y18.3 E.0236
G1 X9.841 Y18.016 E.01215
G1 X9.546 Y17.457 E.02284
G1 X9.413 Y17.147 E.01218
G1 X9.211 Y16.547 E.02284
G1 X9.132 Y16.226 E.01193
G1 X9.031 Y15.623 E.02208
G1 X9.001 Y15.28 E.01243
G1 X8.997 Y14.638 E.0232
G1 X9.023 Y14.302 E.01217
G1 X9.124 Y13.666 E.02324
G1 X9.204 Y13.339 E.01217
G1 X9.403 Y12.739 E.02282
G1 X9.535 Y12.428 E.01218
G1 X9.822 Y11.877 E.02245
G1 X10.007 Y11.582 E.01257
G1 X10.393 Y11.067 E.02322
G1 X10.545 Y10.894 E.00833
G1 X10.888 Y11.198 F9000
G1 F1800
G1 X10.943 Y11.135 E.00302
G1 X11.357 Y10.735 E.02077
G1 X11.597 Y10.537 E.01125
G1 X12.095 Y10.192 E.02187
G1 X12.355 Y10.042 E.01083
G1 X12.874 Y9.794 E.02076
G1 X13.143 Y9.689 E.01045
G1 X13.725 Y9.518 E.02188
G1 X14.017 Y9.456 E.01077
G1 X14.63 Y9.38 E.02229
G1 X14.956 Y9.367 E.01178
G1 X15.551 Y9.392 E.02152
G1 X15.828 Y9.427 E.01007
G1 X16.371 Y9.536 E.02
G1 X16.678 Y9.623 E.01153
G1 X17.234 Y9.83 E.02142
G1 X17.525 Y9.967 E.01161
G1 X18.041 Y10.264 E.02151
G1 X18.289 Y10.435 E.01085
G1 X18.735 Y10.797 E.02075
G1 X18.961 Y11.012 E.01125
G1 X19.349 Y11.447 E.02108
G1 X19.544 Y11.704 E.01163
G1 X19.868 Y12.216 E.02187
G1 X20.002 Y12.472 E.01045
G1 X20.233 Y13.01 E.02114
G1 X20.327 Y13.289 E.01064
G1 X20.468 Y13.847 E.02077
G1 X20.522 Y14.165 E.01167
G1 X20.569 Y14.618 E.01643
G1 X20.569 Y15.216 E.02159
G1 X20.48 Y15.944 E.02646
G1 X20.342 Y16.522 E.02146
G1 X20.241 Y16.827 E.01162
G1 X20.009 Y17.375 E.02147
G1 X19.869 Y17.641 E.01086
G1 X19.563 Y18.129 E.02078
G1 X19.394 Y18.356 E.01024
G1 X19.002 Y18.805 E.02152
G1 X18.783 Y19.02 E.01108
G1 X18.316 Y19.405 E.02186
G1 X18.071 Y19.577 E.01081
G1 X17.547 Y19.882 E.02189
G1 X17.266 Y20.016 E.01125
G1 X16.729 Y20.221 E.02075
G1 X16.441 Y20.307 E.01085
G1 X15.858 Y20.429 E.02152
G1 X15.549 Y20.467 E.01125
G1 X14.944 Y20.493 E.02187
G1 X14.644 Y20.481 E.01083
G1 X14.073 Y20.414 E.02076
G1 X13.789 Y20.358 E.01045
G1 X13.206 Y20.192 E.02187
G1 X12.904 Y20.079 E.01163
G1 X12.386 Y19.835 E.02071
G1 X12.106 Y19.674 E.01163
G1 X11.607 Y19.331 E.02186
G1 X11.388 Y19.152 E.01021
G1 X10.964 Y18.747 E.02119
G1 X10.766 Y18.525 E.01072
G1 X10.394 Y18.034 E.02224
G1 X10.234 Y17.781 E.0108
G1 X9.961 Y17.265 E.02111
G1 X9.839 Y16.978 E.01125
G1 X9.649 Y16.413 E.02151
G1 X9.579 Y16.128 E.01061
G1 X9.485 Y15.571 E.0204
G1 X9.458 Y15.253 E.0115
G1 X9.455 Y14.659 E.02145
G1 X9.478 Y14.349 E.01122
G1 X9.574 Y13.751 E.02188
G1 X9.646 Y13.46 E.01083
G1 X9.829 Y12.905 E.02109
G1 X9.951 Y12.618 E.01125
G1 X10.216 Y12.109 E.02073
G1 X10.388 Y11.836 E.01163
G1 X10.751 Y11.352 E.02187
G1 X10.861 Y11.228 E.00599
M73 P1 R27
M73 P1 R27
G1 X11.203 Y11.532 F9000
G1 F1800
G1 X11.277 Y11.448 E.00405
G1 X11.657 Y11.08 E.0191
G1 X11.878 Y10.899 E.01031
G1 X12.345 Y10.575 E.02051
G1 X12.573 Y10.444 E.0095
G1 X13.05 Y10.216 E.0191
G1 X13.286 Y10.124 E.00912
G1 X13.831 Y9.963 E.02055
G1 X14.086 Y9.909 E.00941
G1 X14.661 Y9.837 E.02091
G1 X14.961 Y9.825 E.01083
G1 X15.526 Y9.85 E.02043
G1 X16.255 Y9.979 E.02674
G1 X16.541 Y10.059 E.01073
G1 X17.051 Y10.25 E.01966
G1 X17.318 Y10.376 E.01066
G1 X17.802 Y10.654 E.02015
G1 X18.019 Y10.804 E.00952
G1 X18.429 Y11.137 E.01906
G1 X18.636 Y11.334 E.01032
G1 X18.992 Y11.734 E.01934
G1 X19.171 Y11.969 E.01068
G1 X19.474 Y12.449 E.0205
G1 X19.591 Y12.673 E.00912
G1 X19.803 Y13.168 E.01946
G1 X19.889 Y13.424 E.00972
G1 X20.019 Y13.937 E.0191
G1 X20.068 Y14.223 E.01049
G1 X20.111 Y14.649 E.01546
G1 X20.112 Y15.18 E.01919
G1 X20.031 Y15.855 E.02453
G1 X19.903 Y16.391 E.0199
G1 X19.811 Y16.671 E.01066
G1 X19.597 Y17.174 E.01971
G1 X19.47 Y17.418 E.00993
G1 X19.188 Y17.866 E.01912
G1 X19.041 Y18.065 E.00892
G1 X18.673 Y18.487 E.02021
G1 X18.481 Y18.675 E.00973
G1 X18.043 Y19.038 E.02051
G1 X17.829 Y19.188 E.00946
G1 X17.338 Y19.475 E.02052
G1 X17.08 Y19.598 E.01031
G1 X16.587 Y19.786 E.01906
G1 X16.335 Y19.861 E.00952
G1 X15.788 Y19.976 E.02018
G1 X15.505 Y20.012 E.0103
G1 X14.937 Y20.035 E.02051
G1 X14.674 Y20.025 E.0095
G1 X14.149 Y19.962 E.0191
G1 X13.901 Y19.914 E.00912
G1 X13.354 Y19.759 E.02051
G1 X13.077 Y19.655 E.01069
G1 X12.602 Y19.431 E.01897
G1 X12.345 Y19.284 E.01069
G1 X11.878 Y18.962 E.0205
G1 X11.687 Y18.806 E.00889
G1 X11.289 Y18.424 E.01991
G1 X11.116 Y18.23 E.0094
G1 X10.767 Y17.769 E.02088
G1 X10.628 Y17.547 E.00944
G1 X10.377 Y17.072 E.01939
G1 X10.264 Y16.81 E.01031
G1 X10.087 Y16.28 E.02017
G1 X10.026 Y16.03 E.00929
G1 X9.94 Y15.518 E.01874
G1 X9.915 Y15.227 E.01057
G1 X9.912 Y14.681 E.0197
G1 X9.933 Y14.397 E.01027
G1 X10.024 Y13.836 E.02052
G1 X10.087 Y13.581 E.00949
G1 X10.256 Y13.072 E.01938
G1 X10.367 Y12.808 E.01032
G1 X10.61 Y12.341 E.01901
G1 X10.768 Y12.091 E.01069
G1 X11.109 Y11.637 E.02051
G1 X11.176 Y11.562 E.00363
G1 X11.512 Y11.875 F9000
G1 F1800
G1 X11.792 Y11.575 E.01485
G1 X12.199 Y11.227 E.01932
G1 X12.897 Y10.792 E.0297
G1 X13.731 Y10.466 E.03233
G1 X14.69 Y10.294 E.03517
G1 X15.415 Y10.298 E.02618
G1 X15.93 Y10.373 E.0188
G1 X16.452 Y10.51 E.01948
G1 X17.335 Y10.907 E.03495
G1 X18.048 Y11.415 E.03161
G1 X18.646 Y12.035 E.03111
G1 X19.064 Y12.651 E.02687
G1 X19.29 Y13.11 E.01846
G1 X19.467 Y13.603 E.01892
G1 X19.641 Y14.546 E.03462
G1 X19.638 Y15.35 E.02903
G1 X19.469 Y16.25 E.03305
G1 X19.299 Y16.729 E.01836
G1 X19.064 Y17.208 E.01926
G1 X18.584 Y17.899 E.03041
G1 X17.958 Y18.52 E.03184
G1 X17.147 Y19.06 E.03516
G1 X16.684 Y19.268 E.01833
G1 X16.175 Y19.432 E.01932
G1 X15.443 Y19.557 E.02679
G1 X14.44 Y19.539 E.0362
G1 X13.511 Y19.331 E.03438
G1 X13.041 Y19.142 E.0183
G1 X12.57 Y18.887 E.01932
G1 X11.977 Y18.45 E.02661
G1 X11.382 Y17.83 E.03105
G1 X10.904 Y17.102 E.03143
G1 X10.563 Y16.27 E.03245
G1 X10.391 Y15.427 E.03108
G1 X10.367 Y14.698 E.02633
G1 X10.422 Y14.184 E.01866
G1 X10.53 Y13.691 E.01821
G1 X10.905 Y12.761 E.03622
G1 X11.447 Y11.944 E.03539
G1 X11.485 Y11.904 E.00197
G1 X11.819 Y12.216 F9000
G1 F1800
G1 X12.132 Y11.881 E.01657
G1 X12.501 Y11.571 E.0174
G1 X13.059 Y11.22 E.02383
G1 X13.805 Y10.917 E.02904
G1 X14.679 Y10.751 E.03215
G1 X15.34 Y10.749 E.02387
G1 X15.873 Y10.826 E.01942
G1 X16.343 Y10.954 E.01758
G1 X17.064 Y11.276 E.02854
G1 X17.715 Y11.728 E.02858
G1 X18.264 Y12.286 E.02829
G1 X18.65 Y12.845 E.02451
G1 X18.883 Y13.319 E.01908
G1 X19.039 Y13.764 E.01703
G1 X19.193 Y14.637 E.032
G1 X19.181 Y15.353 E.02587
G1 X19.042 Y16.086 E.02693
G1 X18.866 Y16.583 E.01903
G1 X18.651 Y17.013 E.01735
G1 X18.204 Y17.645 E.02796
G1 X17.631 Y18.201 E.02883
G1 X16.969 Y18.638 E.02864
G1 X16.489 Y18.855 E.01902
G1 X16.03 Y18.998 E.01738
