;TIME:1272.41
;Filament used:1.33562m
;Layer height:0.200
; HEADER_BLOCK_START
; generated by Creality_Print V6.0.5.1840 on 2025-03-26 at 23:19:54
; total layer number: 150
; filament_density: 1.24
; filament_diameter: 1.75
; max_z_height: 30.00
; HEADER_BLOCK_END

; MINX = 52.39
; MINY = 41.37
; MINZ = 0.00
; MAXX = 172.65
; MAXY = 179.18
; MAXZ = 30.00

; THUMBNAIL_BLOCK_START

;
; THUMBNAIL_BLOCK_END

; THUMBNAIL_BLOCK_START

;
; THUMBNAIL_BLOCK_END

; external perimeters extrusion width = 0.42mm
; perimeters extrusion width = 0.45mm
; infill extrusion width = 0.45mm
; solid infill extrusion width = 0.42mm
; top infill extrusion width = 0.42mm
; first layer extrusion width = 0.50mm

; EXECUTABLE_BLOCK_START
M73 P0 R21
M201 X5000 Y5000 Z500 E5000
M203 X500 Y500 Z30 E100
M204 P5000 R2500 T5000 ; sets acceleration (P, T) and retract acceleration (R), mm/sec^2
M205 X10.00 Y10.00 Z0.40 E5.00 ; sets the jerk limits, mm/sec
;TYPE:Custom
M220 S100 ;Reset Feedrate 
M221 S100 ;Reset Flowrate 
 
M140 S60 ;Set final bed temp 
G28 ;Home 
 
G92 E0 ;Reset Extruder 
G1 Z2.0 F3000 ;Move Z Axis up 
M104 S205 ;Set final nozzle temp 
G1 X-2.1 Y20 Z0.28 F5000.0 ;Move to start position 
M190 S60 ;Wait for bed temp to stabilize 
M109 S205 ;Wait for nozzle temp to stabilize 
G1 X-2.1 Y145.0 Z0.28 F1500.0 E15 ;Draw the first line 
G1 X-2.4 Y145.0 Z0.28 F5000.0 ;Move to side a little 
G1 X-2.4 Y20 Z0.28 F1500.0 E30 ;Draw the second line 
G92 E0  ;Reset Extruder 
G1 E-1.0000 F1800 ;Retract a bit 
G1 Z2.0 F3000 ;Move Z Axis up 
G1 E0.0000 F1800
G90
G21
M83 ; use relative distances for extrusion
" "
G1 E-1.2 F2400
M106 S0
;LAYER_CHANGE
;Z:0.2
;HEIGHT:0.2
;BEFORE_LAYER_CHANGE
;0.2
G92 E0

;_SET_FAN_SPEED_CHANGING_LAYER
M204 P500
M205 X10 Y10
M204 T500
G1 Z.4 F9000
G1 X109.441 Y38.928
G1 Z.2
G1 E1.2 F1800
;TYPE:Skirt
;WIDTH:0.5
G1 F3000
G1 X111.039 Y34.973 E.15404
G1 X112.773 Y31.968 E.12524
G1 X114.355 Y29.817 E.09641
G1 X116.47 Y27.489 E.11357
G1 X119.272 Y25.083 E.13334
G1 X122.327 Y23.074 E.13201
G1 X125.446 Y21.557 E.12524
G1 X128.73 Y20.441 E.12524
G1 X132.128 Y19.744 E.12524
G1 X134.407 Y19.513 E.08271
G1 X135.934 Y19.463 E.05517
G1 X173.628 Y19.412 E1.36095
G1 X177.862 Y19.934 E.15404
M73 P1 R20
M73 P1 R20
G1 X181.496 Y20.933 E.13607
G1 X184.828 Y22.336 E.13057
G1 X187.257 Y23.703 E.10062
G1 X190.365 Y25.992 E.13937
G1 X193.037 Y28.56 E.13379
G1 X195.662 Y31.923 E.15404
G1 X197.168 Y34.489 E.10744
G1 X197.607 Y35.374 E.03569
G1 X198.666 Y37.902 E.09894
G1 X199.64 Y41.231 E.12524
G1 X200.206 Y44.843 E.13201
G1 X200.273 Y45.753 E.03293
G1 X200.331 Y47.276 E.05502
G1 X200.3 Y51.611 E.15653
G1 X199.778 Y55.845 E.15404
G1 X198.779 Y59.479 E.13607
G1 X197.376 Y62.812 E.13057
G1 X196.009 Y65.24 E.10062
G1 X193.855 Y68.194 E.13201
G1 X191.402 Y70.786 E.12884
G1 X188.449 Y73.194 E.13755
G1 X185.328 Y75.098 E.13201
G1 X181.991 Y76.582 E.13187
G1 X178.481 Y77.623 E.13219
G1 X174.869 Y78.189 E.13201
G1 X172.607 Y78.313 E.08178
G1 X140.649 Y78.647 E1.15393
G1 X139.295 Y78.633 E.0489
G1 X135.994 Y78.324 E.11971
G1 X134.825 Y78.123 E.04281
G1 X131.732 Y77.348 E.11512
G1 X130.893 Y77.07 E.03191
G1 X127.582 Y75.669 E.12983
G1 X124.719 Y73.996 E.11971
G1 X122.17 Y72.116 E.11435
G1 X118.064 Y68.663 E.19372
G1 X116.491 Y67.22 E.07709
G1 X114.172 Y64.64 E.12524
G1 X112.193 Y61.791 E.12524
G1 X110.898 Y59.392 E.09843
G1 X109.614 Y56.229 E.12327
G1 X109.34 Y55.376 E.03236
G1 X108.658 Y52.645 E.10161
G1 X108.207 Y49.206 E.12524
G1 X108.245 Y44.94 E.15404
G1 X108.601 Y42.294 E.09641
G1 X109.431 Y38.967 E.12379
G1 X109.874 Y39.077 F9000
G1 F3000
G1 X109.875 Y39.073 E.00017
G1 X111.452 Y35.17 E.15198
G1 X113.157 Y32.216 E.12318
G1 X114.705 Y30.11 E.09435
G1 X116.786 Y27.819 E.11175
G1 X119.553 Y25.443 E.13168
G1 X122.558 Y23.469 E.1298
G1 X125.626 Y21.978 E.12318
G1 X128.856 Y20.881 E.12318
G1 X132.198 Y20.195 E.12318
G1 X134.429 Y19.97 E.08094
G1 X135.935 Y19.92 E.05443
G1 X173.6 Y19.868 E1.35992
G1 X177.778 Y20.383 E.15198
G1 X181.352 Y21.367 E.13386
G1 X184.631 Y22.749 E.12845
G1 X187.007 Y24.086 E.09847
G1 X190.064 Y26.335 E.13701
G1 X192.695 Y28.863 E.13174
G1 X195.285 Y32.181 E.15198
G1 X196.758 Y34.693 E.10514
G1 X197.198 Y35.578 E.03569
G1 X198.234 Y38.051 E.09683
G1 X199.193 Y41.325 E.12318
G1 X199.75 Y44.877 E.12981
G1 X199.817 Y45.787 E.03293
G1 X199.874 Y47.277 E.05384
G1 X199.843 Y51.583 E.1555
G1 X199.329 Y55.761 E.15198
G1 X198.345 Y59.336 E.13386
G1 X196.963 Y62.614 E.12845
G1 X195.626 Y64.991 E.09847
G1 X193.508 Y67.896 E.1298
G1 X191.095 Y70.447 E.12679
G1 X188.191 Y72.816 E.13534
G1 X185.123 Y74.69 E.12981
G1 X181.839 Y76.151 E.12975
G1 X178.387 Y77.176 E.13004
G1 X174.835 Y77.733 E.12981
G1 X172.602 Y77.856 E.08073
G1 X140.645 Y78.19 E1.15393
G1 X139.302 Y78.176 E.04847
G1 X136.071 Y77.874 E.11715
G1 X134.903 Y77.672 E.04281
G1 X131.876 Y76.914 E.11266
G1 X131.037 Y76.636 E.03191
G1 X127.781 Y75.257 E.12767
G1 X124.98 Y73.62 E.11715
G1 X122.464 Y71.766 E.11282
G1 X118.358 Y68.313 E.19372
G1 X116.806 Y66.889 E.07606
G1 X114.526 Y64.351 E.12318
G1 X112.581 Y61.549 E.12318
G1 X111.313 Y59.201 E.09633
G1 X110.049 Y56.089 E.12127
G1 X109.775 Y55.236 E.03236
G1 X109.108 Y52.564 E.09944
G1 X108.663 Y49.182 E.12318
G1 X108.701 Y44.973 E.15198
G1 X109.05 Y42.383 E.09435
G1 X109.864 Y39.116 E.12156
G1 X110.306 Y39.226 F9000
G1 F3000
G1 X110.308 Y39.217 E.00034
G1 X111.864 Y35.367 E.14991
G1 X113.542 Y32.463 E.12111
G1 X115.056 Y30.403 E.09229
G1 X117.103 Y28.149 E.10994
G1 X119.835 Y25.804 E.13001
G1 X122.788 Y23.863 E.12759
G1 X125.806 Y22.398 E.12111
G1 X128.982 Y21.32 E.12112
G1 X132.269 Y20.647 E.12111
G1 X134.45 Y20.426 E.07917
G1 X135.937 Y20.377 E.05369
G1 X173.573 Y20.325 E1.35889
G1 X177.694 Y20.832 E.14991
G1 X181.209 Y21.801 E.13166
G1 X184.433 Y23.161 E.12634
G1 X186.758 Y24.469 E.09631
G1 X189.762 Y26.678 E.13464
G1 X192.353 Y29.166 E.1297
G1 X194.908 Y32.439 E.14991
G1 X196.349 Y34.896 E.10285
G1 X196.789 Y35.781 E.03569
G1 X197.802 Y38.2 E.09471
G1 X198.746 Y41.42 E.12112
G1 X199.294 Y44.911 E.1276
G1 X199.361 Y45.82 E.03293
G1 X199.387 Y51.556 E.2071
G1 X198.879 Y55.677 E.14991
G1 X197.911 Y59.192 E.13166
G1 X196.551 Y62.416 E.12634
G1 X195.243 Y64.741 E.09631
G1 X193.162 Y67.597 E.1276
G1 X190.789 Y70.108 E.12473
G1 X187.933 Y72.439 E.13312
G1 X184.917 Y74.282 E.1276
G1 X181.688 Y75.72 E.12764
G1 X178.292 Y76.729 E.12789
G1 X174.801 Y77.277 E.1276
G1 X172.598 Y77.399 E.07969
G1 X140.64 Y77.733 E1.15393
G1 X139.309 Y77.719 E.04805
M73 P2 R20
M73 P2 R20
G1 X136.149 Y77.424 E.11459
G1 X134.981 Y77.222 E.04281
G1 X132.02 Y76.48 E.1102
G1 X131.181 Y76.202 E.03191
G1 X127.98 Y74.846 E.12551
G1 X125.24 Y73.245 E.11459
G1 X122.759 Y71.417 E.11129
G1 X118.652 Y67.963 E.19372
G1 X117.121 Y66.558 E.07503
G1 X114.88 Y64.062 E.12111
G1 X112.968 Y61.306 E.12112
G1 X111.728 Y59.01 E.09422
G1 X110.484 Y55.95 E.11928
G1 X110.21 Y55.096 E.03236
G1 X109.558 Y52.483 E.09727
G1 X109.12 Y49.157 E.12111
G1 X109.157 Y45.005 E.14991
G1 X109.498 Y42.472 E.09229
G1 X110.296 Y39.265 E.11933
; printing object Soport_regleta v1.stl_1 id:4562764976167616512 copy 0
G1 E-1.2 F2400
;WIPE_START
G1 F3000
G1 X110.308 Y39.217
G1 X111.039 Y37.408
;WIPE_END
G1 X118.023 Y40.487 Z.6 F9000
G1 X129.939 Y45.739 Z.6
G1 Z.2
G1 E1.2 F1800
;TYPE:Brim
G1 X130.183 Y45.008 E.02784
G1 X130.515 Y44.312 E.02784
G1 X130.932 Y43.664 E.02784
G1 X131.428 Y43.071 E.0279
G1 X131.848 Y42.669 E.021
G1 X132.56 Y42.112 E.03262
G1 X133.224 Y41.723 E.0278
G1 X133.933 Y41.42 E.02784
G1 X134.674 Y41.207 E.02784
G1 X135.438 Y41.088 E.02791
G1 X135.992 Y41.062 E.02003
G1 X172.338 Y40.973 E1.3123
G1 X173.115 Y41.02 E.02809
G1 X173.871 Y41.162 E.0278
G1 X174.709 Y41.438 E.03185
G1 X175.472 Y41.805 E.03056
G1 X176.115 Y42.224 E.02774
G1 X176.883 Y42.899 E.03692
G1 X177.395 Y43.476 E.02784
G1 X177.829 Y44.111 E.02778
G1 X178.255 Y44.969 E.03458
G1 X178.507 Y45.697 E.02782
G1 X178.666 Y46.45 E.0278
G1 X178.731 Y47.337 E.03208
G1 X178.738 Y50.321 E.10777
G1 X178.692 Y51.098 E.02809
G1 X178.55 Y51.855 E.0278
G1 X178.273 Y52.692 E.03185
G1 X177.907 Y53.455 E.03056
G1 X177.487 Y54.1 E.02778
G1 X176.911 Y54.768 E.03186
G1 X176.235 Y55.379 E.0329
G1 X175.6 Y55.813 E.02776
G1 X174.813 Y56.21 E.03185
G1 X174.014 Y56.491 E.03056
G1 X173.261 Y56.649 E.02778
G1 X172.375 Y56.715 E.03208
G1 X142.667 Y56.787 E1.07264
G1 X141.976 Y56.828 E.025
G1 X141.189 Y56.963 E.02884
G1 X140.415 Y57.048 E.02809
G1 X139.648 Y57.036 E.02771
G1 X138.514 Y56.84 E.04155
G1 X137.706 Y56.572 E.03075
G1 X137.015 Y56.238 E.02769
G1 X136.064 Y55.578 E.04179
G1 X131.972 Y52.136 E.19308
G1 X131.409 Y51.599 E.02809
G1 X130.922 Y51.002 E.02784
G1 X130.513 Y50.349 E.02782
G1 X130.177 Y49.618 E.02905
G1 X129.912 Y48.792 E.03131
G1 X129.775 Y48.034 E.02781
G1 X129.733 Y47.264 E.02784
G1 X129.788 Y46.495 E.02784
G1 X129.931 Y45.778 E.02639
G1 X130.379 Y45.867 F9000
G1 F1800
G1 X130.38 Y45.865 E.0001
G1 X130.611 Y45.171 E.02638
G1 X130.912 Y44.543 E.02515
G1 X131.297 Y43.942 E.02577
G1 X131.758 Y43.389 E.02599
G1 X132.143 Y43.019 E.01928
G1 X132.825 Y42.487 E.03126
G1 X133.438 Y42.129 E.02564
G1 X134.079 Y41.855 E.02515
G1 X134.781 Y41.653 E.02638
G1 X135.477 Y41.545 E.02541
G1 X136.007 Y41.519 E.01915
G1 X172.329 Y41.431 E1.31146
G1 X173.05 Y41.474 E.02608
G1 X173.748 Y41.604 E.02564
G1 X174.546 Y41.867 E.03032
G1 X175.239 Y42.2 E.02778
G1 X175.83 Y42.584 E.02544
G1 X176.554 Y43.218 E.03475
G1 X177.028 Y43.752 E.02577
G1 X177.429 Y44.335 E.02555
G1 X177.836 Y45.154 E.03302
G1 X178.063 Y45.811 E.0251
G1 X178.21 Y46.506 E.02564
G1 X178.274 Y47.349 E.03054
G1 X178.281 Y50.304 E.10668
G1 X178.236 Y51.05 E.02701
G1 X178.104 Y51.749 E.02568
G1 X177.851 Y52.513 E.02903
G1 X177.503 Y53.238 E.02906
G1 X177.115 Y53.831 E.0256
G1 X176.589 Y54.441 E.02909
G1 X175.944 Y55.024 E.03139
G1 X175.359 Y55.423 E.02554
G1 X174.641 Y55.784 E.02903
G1 X173.899 Y56.046 E.02841
G1 X173.206 Y56.194 E.02558
G1 X172.353 Y56.258 E.03089
G1 X142.67 Y56.33 E1.07174
G1 X141.957 Y56.371 E.0258
G1 X141.129 Y56.509 E.03031
G1 X140.385 Y56.59 E.027
G1 X139.68 Y56.578 E.02546
G1 X138.635 Y56.397 E.03828
G1 X137.886 Y56.151 E.02848
G1 X137.256 Y55.847 E.02526
G1 X136.348 Y55.218 E.03989
G1 X132.28 Y51.799 E.19187
G1 X131.751 Y51.294 E.02639
G1 X131.299 Y50.742 E.02577
G1 X130.921 Y50.138 E.02573
G1 X130.607 Y49.459 E.02701
G1 X130.359 Y48.69 E.0292
G1 X130.231 Y47.989 E.0257
G1 X130.192 Y47.26 E.02638
G1 X130.244 Y46.548 E.02577
G1 X130.372 Y45.907 E.0236
G1 X130.82 Y45.995 F9000
G1 F1800
G1 X130.821 Y45.99 E.00018
G1 X131.039 Y45.335 E.02493
G1 X131.316 Y44.759 E.02309
G1 X131.672 Y44.206 E.02371
G1 X132.088 Y43.707 E.02347
G1 X132.448 Y43.361 E.01804
G1 X133.075 Y42.872 E.0287
G1 X133.637 Y42.542 E.02353
G1 X134.241 Y42.284 E.02371
G1 X134.872 Y42.103 E.0237
G1 X135.516 Y42.001 E.02355
G1 X136.021 Y41.976 E.01827
G1 X172.32 Y41.888 E1.31061
G1 X172.986 Y41.928 E.02408
G1 X173.625 Y42.046 E.02347
G1 X174.382 Y42.296 E.02879
G1 X175.007 Y42.595 E.02501
G1 X175.545 Y42.944 E.02315
G1 X176.237 Y43.549 E.03319
G1 X176.662 Y44.027 E.0231
G1 X177.028 Y44.559 E.02332
G1 X177.416 Y45.339 E.03146
G1 X177.623 Y45.942 E.023
G1 X177.755 Y46.562 E.02287
G1 X177.816 Y47.362 E.02898
G1 X177.824 Y50.286 E.10558
G1 X177.78 Y51.002 E.02591
G1 X177.657 Y51.643 E.02356
G1 X177.429 Y52.333 E.02623
G1 X177.108 Y53.005 E.02689
G1 X176.743 Y53.563 E.02406
G1 X176.267 Y54.115 E.02633
G1 X175.653 Y54.669 E.02988
G1 X175.119 Y55.032 E.02331
G1 X174.469 Y55.359 E.02625
G1 X173.784 Y55.603 E.02627
G1 X173.15 Y55.738 E.02338
G1 X172.33 Y55.8 E.02969
G1 X142.673 Y55.873 E1.07082
G1 X141.874 Y55.921 E.02889
M73 P3 R20
M73 P3 R20
G1 X141.07 Y56.056 E.02943
G1 X140.356 Y56.133 E.02593
G1 X139.713 Y56.12 E.02322
G1 X138.756 Y55.954 E.03505
G1 X138.066 Y55.729 E.02621
G1 X137.497 Y55.455 E.02282
G1 X136.631 Y54.858 E.03797
G1 X132.589 Y51.461 E.19065
G1 X132.093 Y50.989 E.0247
G1 X131.677 Y50.481 E.0237
G1 X131.328 Y49.928 E.02363
G1 X131.037 Y49.3 E.02497
G1 X130.806 Y48.587 E.02708
G1 X130.688 Y47.944 E.02358
G1 X130.651 Y47.255 E.02491
G1 X130.697 Y46.618 E.02308
G1 X130.812 Y46.034 E.02147
G1 X131.261 Y46.122 F9000
G1 F1800
G1 X131.262 Y46.116 E.00023
G1 X131.467 Y45.499 E.02346
G1 X131.721 Y44.975 E.02101
G1 X132.046 Y44.471 E.02167
G1 X132.418 Y44.025 E.02097
G1 X132.754 Y43.702 E.01681
G1 X133.325 Y43.256 E.02617
G1 X133.836 Y42.955 E.02141
G1 X134.402 Y42.713 E.02225
G1 X134.979 Y42.549 E.02164
G1 X135.556 Y42.458 E.02108
G1 X136.036 Y42.433 E.01738
G1 X172.311 Y42.346 E1.30974
G1 X172.922 Y42.382 E.0221
G1 X173.502 Y42.488 E.02129
G1 X174.219 Y42.724 E.02725
G1 X174.775 Y42.991 E.02227
G1 X175.261 Y43.304 E.02085
G1 X175.92 Y43.881 E.03163
G1 X176.296 Y44.304 E.02043
G1 X176.628 Y44.784 E.02107
G1 X176.997 Y45.525 E.02988
G1 X177.179 Y46.056 E.02029
G1 X177.3 Y46.618 E.02074
G1 X177.359 Y47.375 E.02742
G1 X177.367 Y50.268 E.10445
G1 X177.326 Y50.936 E.02418
G1 X177.211 Y51.537 E.02207
G1 X177.007 Y52.154 E.02347
G1 X176.713 Y52.772 E.02472
G1 X176.371 Y53.294 E.02252
G1 X175.945 Y53.788 E.02357
G1 X175.362 Y54.314 E.02836
G1 X174.878 Y54.641 E.02108
G1 X174.281 Y54.941 E.02412
G1 X173.667 Y55.159 E.02353
G1 X173.076 Y55.285 E.02184
G1 X172.307 Y55.343 E.02782
G1 X142.676 Y55.416 E1.06989
G1 X141.853 Y55.465 E.02974
G1 X141.011 Y55.602 E.03081
G1 X140.327 Y55.675 E.02483
G1 X139.747 Y55.661 E.02097
G1 X138.877 Y55.511 E.03187
G1 X138.246 Y55.306 E.02395
G1 X137.736 Y55.063 E.02039
G1 X136.913 Y54.498 E.03604
G1 X132.897 Y51.123 E.18943
G1 X132.435 Y50.683 E.02302
G1 X132.054 Y50.22 E.02165
G1 X131.735 Y49.716 E.02153
G1 X131.467 Y49.141 E.02292
G1 X131.253 Y48.483 E.02497
G1 X131.144 Y47.899 E.02144
G1 X131.109 Y47.251 E.02343
G1 X131.15 Y46.687 E.02041
G1 X131.253 Y46.161 E.01935
G1 X131.702 Y46.249 F9000
G1 F1800
G1 X131.703 Y46.241 E.0003
G1 X131.896 Y45.664 E.02197
G1 X132.124 Y45.192 E.01892
G1 X132.42 Y44.736 E.01964
G1 X132.748 Y44.343 E.01849
G1 X133.059 Y44.043 E.01557
G1 X133.575 Y43.64 E.02365
G1 X134.035 Y43.369 E.01928
G1 X134.564 Y43.142 E.02078
G1 X135.069 Y42.998 E.01897
G1 X135.596 Y42.914 E.01925
G1 X136.052 Y42.89 E.01649
G1 X172.302 Y42.803 E1.30886
G1 X172.859 Y42.836 E.02014
G1 X173.38 Y42.93 E.01911
G1 X174.056 Y43.153 E.0257
G1 X174.544 Y43.387 E.01954
G1 X174.976 Y43.665 E.01855
G1 X175.603 Y44.212 E.03005
G1 X175.941 Y44.594 E.01839
G1 X176.228 Y45.009 E.01823
G1 X176.577 Y45.71 E.02829
G1 X176.74 Y46.187 E.01819
G1 X176.844 Y46.675 E.01803
G1 X176.902 Y47.388 E.02584
G1 X176.91 Y50.25 E.10332
G1 X176.872 Y50.87 E.02244
G1 X176.765 Y51.43 E.02058
G1 X176.585 Y51.975 E.02072
G1 X176.318 Y52.539 E.02254
G1 X176.011 Y53.011 E.02031
G1 X175.623 Y53.462 E.02146
G1 X175.072 Y53.959 E.02682
G1 X174.639 Y54.25 E.01883
G1 X174.094 Y54.522 E.022
G1 X173.551 Y54.715 E.0208
G1 X173.001 Y54.833 E.0203
G1 X172.285 Y54.886 E.02594
G1 X142.678 Y54.959 E1.06897
G1 X141.833 Y55.008 E.03057
G1 X140.954 Y55.148 E.03216
G1 X140.317 Y55.216 E.02311
G1 X139.781 Y55.204 E.01937
G1 X138.977 Y55.064 E.02945
G1 X138.424 Y54.884 E.021
G1 X137.957 Y54.66 E.01871
G1 X137.185 Y54.13 E.0338
G1 X133.199 Y50.779 E.18803
G1 X132.765 Y50.365 E.02166
G1 X132.42 Y49.944 E.01962
G1 X132.133 Y49.489 E.01945
G1 X131.89 Y48.965 E.02085
G1 X131.699 Y48.378 E.02227
G1 X131.601 Y47.854 E.01928
G1 X131.568 Y47.247 E.02194
G1 X131.606 Y46.74 E.01836
G1 X131.694 Y46.288 E.01661
G1 X132.144 Y46.377 F9000
G1 F1800
G1 X132.149 Y46.349 E.00104
G1 X132.324 Y45.828 E.01983
G1 X132.528 Y45.41 E.0168
G1 X132.794 Y45.001 E.01762
G1 X133.079 Y44.66 E.01603
G1 X133.365 Y44.385 E.01434
G1 X133.826 Y44.024 E.02115
G1 X134.234 Y43.782 E.01714
G1 X134.726 Y43.571 E.01929
G1 X135.176 Y43.444 E.01692
G1 X135.637 Y43.371 E.01683
G1 X136.068 Y43.347 E.01559
G1 X172.293 Y43.26 E1.30796
G1 X172.797 Y43.291 E.0182
G1 X173.258 Y43.373 E.01692
G1 X173.893 Y43.582 E.02414
G1 X174.313 Y43.783 E.01683
G1 X174.693 Y44.025 E.01625
G1 X175.286 Y44.544 E.02845
G1 X175.575 Y44.87 E.01573
G1 X175.828 Y45.234 E.01599
G1 X176.157 Y45.895 E.02668
G1 X176.296 Y46.301 E.0155
G1 X176.389 Y46.733 E.01594
G1 X176.444 Y47.402 E.02425
