;TIME:643.66
;Filament used:0.38574m
;Layer height:0.200
; HEADER_BLOCK_START
; generated by Creality_Print V6.0.5.1840 on 2025-03-26 at 23:56:18
; total layer number: 41
; filament_density: 1.24
; filament_diameter: 1.75
; max_z_height: 5.00
; HEADER_BLOCK_END

; MINX = 102.68
; MINY = 93.00
; MINZ = 0.00
; MAXX = 117.32
; MAXY = 127.00
; MAXZ = 5.00

; THUMBNAIL_BLOCK_START

;
; THUMBNAIL_BLOCK_END

; THUMBNAIL_BLOCK_START

;
; THUMBNAIL_BLOCK_END

; external perimeters extrusion width = 0.42mm
; perimeters extrusion width = 0.45mm
; infill extrusion width = 0.45mm
; solid infill extrusion width = 0.42mm
; top infill extrusion width = 0.42mm
; first layer extrusion width = 0.46mm

; EXECUTABLE_BLOCK_START
M73 P0 R10
M201 X5000 Y5000 Z500 E5000
M203 X500 Y500 Z30 E100
M204 P5000 R2500 T5000 ; sets acceleration (P, T) and retract acceleration (R), mm/sec^2
M205 X10.00 Y10.00 Z0.40 E5.00 ; sets the jerk limits, mm/sec
;TYPE:Custom
M220 S100 ;Reset Feedrate 
M221 S100 ;Reset Flowrate 
 
M140 S50 ;Set final bed temp 
G28 ;Home 
 
G92 E0 ;Reset Extruder 
G1 Z2.0 F3000 ;Move Z Axis up 
M104 S190 ;Set final nozzle temp 
G1 X-2.1 Y20 Z0.28 F5000.0 ;Move to start position 
M190 S50 ;Wait for bed temp to stabilize 
M109 S190 ;Wait for nozzle temp to stabilize 
G1 X-2.1 Y145.0 Z0.28 F1500.0 E15 ;Draw the first line 
G1 X-2.4 Y145.0 Z0.28 F5000.0 ;Move to side a little 
G1 X-2.4 Y20 Z0.28 F1500.0 E30 ;Draw the second line 
G92 E0  ;Reset Extruder 
G1 E-1.0000 F1800 ;Retract a bit 
M73 P1 R10
M73 P1 R10
G1 Z2.0 F3000 ;Move Z Axis up 
G1 E0.0000 F1800
G90
G21
M83 ; use relative distances for extrusion
" "
G1 E-1.2 F2400
M106 S0
;LAYER_CHANGE
;Z:0.2
;HEIGHT:0.2
;BEFORE_LAYER_CHANGE
;0.2
G92 E0

;_SET_FAN_SPEED_CHANGING_LAYER
M204 P500
M205 X8 Y8
M204 T500
G1 Z.2 F9000
G1 X89.92 Y78.609
G1 E1.2 F1800
;TYPE:Skirt
;WIDTH:0.46
G1 F3000
G1 X93.077 Y75.964 E.13569
G1 X95.067 Y74.755 E.07672
G1 X98.855 Y73.138 E.13569
G1 X102.884 Y72.283 E.13569
G1 X105.265 Y72.149 E.07857
G1 X114.782 Y72.149 E.31356
G1 X118.881 Y72.548 E.13569
G1 X122.826 Y73.73 E.13569
G1 X127.051 Y76.048 E.15879
G1 X130.309 Y78.841 E.14137
G1 X132.848 Y82.084 E.13569
G1 X134.713 Y85.756 E.13569
G1 X135.835 Y89.718 E.13569
M73 P2 R10
M73 P2 R10
G1 X136.174 Y93.5 E.1251
G1 X136.164 Y98.162 E.15359
G1 X135.278 Y126.606 E.93757
G1 X134.751 Y130.69 E.13569
G1 X133.447 Y134.597 E.13569
G1 X131.413 Y138.178 E.13569
G1 X128.727 Y141.3 E.13569
G1 X125.875 Y143.592 E.12057
G1 X124.3 Y144.649 E.06247
G1 X120.674 Y146.601 E.13569
G1 X116.739 Y147.816 E.13569
G1 X112.462 Y148.251 E.14163
G1 X107.186 Y148.251 E.17384
G1 X102.127 Y147.641 E.16786
G1 X100.553 Y147.255 E.05342
G1 X96.666 Y145.891 E.13569
G1 X93.116 Y143.804 E.13569
G1 X90.035 Y141.071 E.13569
G1 X87.539 Y137.796 E.13569
G1 X85.722 Y134.1 E.13569
G1 X84.651 Y130.123 E.13569
G1 X84.363 Y127 E.10333
G1 X83.831 Y97.5 E.97208
G1 X83.831 Y93.5 E.13179
G1 X84.23 Y89.401 E.13569
G1 X85.412 Y85.456 E.13569
G1 X87.333 Y81.813 E.13569
G1 X89.895 Y78.64 E.13437
G1 X90.228 Y78.913 F9000
G1 F3000
G1 X90.331 Y78.787 E.00537
G1 X95.268 Y75.121 E.20257
G1 X99.019 Y73.524 E.13434
G1 X103.011 Y72.688 E.13434
G1 X105.265 Y72.566 E.07437
G1 X114.782 Y72.566 E.31356
G1 X118.84 Y72.965 E.13434
G1 X122.743 Y74.147 E.13434
G1 X126.81 Y76.389 E.15304
G1 X130.035 Y79.158 E.14002
G1 X132.539 Y82.376 E.13434
G1 X134.368 Y86.02 E.13434
G1 X135.453 Y89.951 E.13434
G1 X135.757 Y93.5 E.11735
G1 X135.747 Y98.149 E.15316
G1 X134.861 Y126.593 E.93757
G1 X134.336 Y130.636 E.13434
G1 X133.033 Y134.5 E.13434
G1 X131.002 Y138.036 E.13434
G1 X128.322 Y141.109 E.13434
G1 X125.643 Y143.246 E.11291
G1 X124.068 Y144.302 E.06247
G1 X120.475 Y146.231 E.13434
G1 X116.576 Y147.424 E.13434
G1 X112.462 Y147.834 E.13621
G1 X107.186 Y147.834 E.17384
G1 X102.227 Y147.235 E.16456
G1 X100.652 Y146.85 E.05342
G1 X96.805 Y145.496 E.13434
G1 X93.296 Y143.419 E.13434
G1 X90.259 Y140.699 E.13434
G1 X87.809 Y137.439 E.13434
M73 P3 R10
M73 P3 R10
G1 X86.042 Y133.764 E.13434
G1 X85.024 Y129.816 E.13434
G1 X84.78 Y126.993 E.09335
G1 X84.248 Y97.5 E.97183
G1 X84.248 Y93.5 E.13179
G1 X84.647 Y89.442 E.13434
G1 X85.829 Y85.539 E.13434
G1 X87.748 Y81.942 E.13434
G1 X90.203 Y78.944 E.12766
G1 X90.533 Y79.218 F9000
G1 F3000
G1 X90.742 Y78.966 E.01078
G1 X95.468 Y75.487 E.19334
G1 X99.183 Y73.91 E.13299
G1 X103.137 Y73.094 E.13299
G1 X105.265 Y72.983 E.07021
G1 X114.782 Y72.983 E.31356
G1 X118.799 Y73.382 E.13299
G1 X122.658 Y74.563 E.13299
G1 X126.57 Y76.73 E.14731
G1 X129.76 Y79.474 E.13867
G1 X132.23 Y82.668 E.13299
G1 X134.023 Y86.284 E.13299
G1 X135.069 Y90.183 E.13299
G1 X135.34 Y93.5 E.10966
G1 X135.33 Y98.136 E.15274
G1 X134.444 Y126.58 E.93757
G1 X133.92 Y130.582 E.13299
G1 X132.619 Y134.403 E.13299
G1 X130.592 Y137.894 E.13299
G1 X127.917 Y140.917 E.13299
G1 X125.41 Y142.9 E.1053
G1 X123.835 Y143.956 E.06247
G1 X120.277 Y145.862 E.13299
G1 X116.414 Y147.031 E.13299
G1 X112.462 Y147.417 E.13081
G1 X107.186 Y147.417 E.17384
G1 X102.326 Y146.83 E.16127
G1 X100.751 Y146.444 E.05342
G1 X96.945 Y145.101 E.13299
G1 X93.477 Y143.035 E.13299
G1 X90.484 Y140.327 E.13299
G1 X88.082 Y137.083 E.13299
G1 X86.365 Y133.429 E.13299
G1 X85.4 Y129.51 E.13299
G1 X85.197 Y126.985 E.08345
G1 X84.665 Y97.5 E.97158
G1 X84.665 Y93.5 E.13179
G1 X85.064 Y89.483 E.13299
G1 X86.245 Y85.623 E.13299
G1 X88.163 Y82.072 E.13299
G1 X90.507 Y79.249 E.12089
; printing object Soport_regleta v1.stl_2 id:8171063952611762432 copy 0
G1 E-1.2 F2400
;WIPE_START
G1 F3000
G1 X90.742 Y78.966
G1 X92.057 Y77.998
;WIPE_END
G1 X94.359 Y81.042 Z.4 F9000
G1 X107.422 Y98.307 Z.4
G1 Z.2
G1 E1.2 F1800
M73 P4 R10
;TYPE:Inner wall
;WIDTH:0.459999
M73 P4 R10
G1 X107.325 Y98.256 E.00362
G1 X107.593 Y97.991 E.01241
G1 X107.646 Y97.853 E.00488
G1 X107.643 Y97.498 E.01171
G1 X107.511 Y97.187 E.01112
G1 X107.327 Y97.032 E.00793
G1 X107.023 Y96.953 E.01035
G1 X105.729 Y96.953 E.04263
G1 X105.729 Y94.047 E.09574
G1 X114.276 Y94.047 E.2816
G1 X114.276 Y96.953 E.09574
G1 X114.018 Y96.953 E.00851
G1 X113.574 Y97.138 E.01583
G1 X113.454 Y97.428 E.01035
G1 X112.281 Y97.736 E.03996
G1 X112.077 Y97.831 E.00741
G1 X111.866 Y98.092 E.01107
G1 X111.814 Y98.337 E.00827
G1 X111.819 Y99.239 E.02971
G1 X111.945 Y99.52 E.01014
G1 X112.276 Y99.736 E.01304
G1 X111.945 Y99.952 E.01304
G1 X111.863 Y100.088 E.00522
G1 X111.81 Y100.341 E.00852
G1 X111.819 Y101.239 E.02959
G1 X111.945 Y101.52 E.01013
G1 X112.276 Y101.736 E.01304
G1 X111.945 Y101.952 E.01304
G1 X111.863 Y102.088 E.00522
G1 X111.81 Y102.341 E.00852
G1 X111.819 Y103.239 E.02959
G1 X111.945 Y103.52 E.01013
G1 X112.276 Y103.736 E.01304
G1 X111.945 Y103.952 E.01304
G1 X111.863 Y104.088 E.00522
G1 X111.81 Y104.341 E.00852
G1 X111.819 Y105.239 E.02959
G1 X111.945 Y105.52 E.01013
G1 X112.276 Y105.736 E.01304
G1 X111.945 Y105.952 E.01304
G1 X111.863 Y106.088 E.00522
G1 X111.81 Y106.341 E.00852
G1 X111.819 Y107.239 E.02959
G1 X111.945 Y107.52 E.01013
G1 X112.276 Y107.736 E.01304
G1 X111.945 Y107.952 E.01304
G1 X111.863 Y108.088 E.00522
G1 X111.81 Y108.341 E.00852
G1 X111.819 Y109.239 E.02959
G1 X111.945 Y109.52 E.01013
G1 X112.276 Y109.736 E.01304
G1 X111.945 Y109.952 E.01304
G1 X111.863 Y110.088 E.00522
G1 X111.81 Y110.341 E.00852
G1 X111.819 Y111.239 E.02959
G1 X111.945 Y111.52 E.01013
G1 X112.276 Y111.736 E.01304
G1 X111.945 Y111.952 E.01304
G1 X111.863 Y112.088 E.00522
G1 X111.81 Y112.341 E.00852
G1 X111.819 Y113.239 E.02959
G1 X111.945 Y113.52 E.01013
G1 X112.276 Y113.736 E.01304
G1 X111.945 Y113.952 E.01304
G1 X111.863 Y114.088 E.00522
G1 X111.81 Y114.341 E.00852
G1 X111.819 Y115.239 E.02959
G1 X111.945 Y115.52 E.01013
G1 X112.276 Y115.736 E.01304
G1 X111.945 Y115.952 E.01304
G1 X111.863 Y116.088 E.00522
G1 X111.81 Y116.341 E.00852
G1 X111.819 Y117.239 E.02959
G1 X111.945 Y117.52 E.01013
G1 X112.276 Y117.736 E.01304
G1 X111.945 Y117.952 E.01304
G1 X111.863 Y118.088 E.00522
G1 X111.81 Y118.341 E.00852
G1 X111.819 Y119.239 E.02959
G1 X111.945 Y119.52 E.01013
G1 X112.276 Y119.736 E.01304
G1 X111.945 Y119.952 E.01304
G1 X111.863 Y120.088 E.00522
G1 X111.81 Y120.341 E.00852
G1 X111.819 Y121.239 E.02959
G1 X111.945 Y121.52 E.01013
G1 X112.276 Y121.736 E.01304
G1 X111.945 Y121.952 E.01304
G1 X111.863 Y122.088 E.00522
G1 X111.81 Y122.341 E.00852
G1 X111.819 Y123.239 E.02959
G1 X111.945 Y123.52 E.01013
G1 X112.276 Y123.736 E.01304
G1 X111.945 Y123.952 E.01304
G1 X111.863 Y124.088 E.00522
G1 X111.81 Y124.341 E.00852
G1 X111.81 Y125.131 E.02603
G1 X111.889 Y125.436 E.01037
G1 X111.987 Y125.567 E.00541
G1 X112.276 Y125.736 E.01104
G1 X111.987 Y125.905 E.01104
G1 X111.889 Y126.036 E.00541
G1 X111.81 Y126.353 E.01075
G1 X107.588 Y126.353 E.13908
G1 X107.371 Y126.264 E.00773
G1 X107.542 Y126.191 E.00613
G1 X107.838 Y125.659 E.02005
G1 X107.825 Y124.744 E.03016
G1 X107.703 Y124.48 E.00957
G1 X107.371 Y124.264 E.01304
G1 X107.703 Y124.048 E.01304
G1 X107.81 Y123.842 E.00764
G1 X107.838 Y123.586 E.00851
G1 X107.825 Y122.744 E.02774
G1 X107.703 Y122.48 E.00958
G1 X107.371 Y122.264 E.01304
G1 X107.703 Y122.048 E.01304
G1 X107.81 Y121.842 E.00764
G1 X107.838 Y121.586 E.00851
G1 X107.825 Y120.744 E.02774
G1 X107.703 Y120.48 E.00958
G1 X107.371 Y120.264 E.01304
G1 X107.703 Y120.048 E.01304
G1 X107.81 Y119.842 E.00764
G1 X107.838 Y119.586 E.00851
G1 X107.825 Y118.744 E.02774
G1 X107.703 Y118.48 E.00958
G1 X107.371 Y118.264 E.01304
G1 X107.703 Y118.048 E.01304
G1 X107.81 Y117.842 E.00764
G1 X107.838 Y117.586 E.00851
G1 X107.825 Y116.744 E.02774
G1 X107.703 Y116.48 E.00958
G1 X107.371 Y116.264 E.01304
G1 X107.703 Y116.048 E.01304
G1 X107.81 Y115.842 E.00764
G1 X107.838 Y115.586 E.00851
G1 X107.825 Y114.744 E.02774
G1 X107.703 Y114.48 E.00958
G1 X107.371 Y114.264 E.01304
G1 X107.703 Y114.048 E.01304
G1 X107.81 Y113.842 E.00764
G1 X107.838 Y113.586 E.00851
G1 X107.825 Y112.744 E.02774
G1 X107.703 Y112.48 E.00958
G1 X107.371 Y112.264 E.01304
G1 X107.703 Y112.048 E.01304
G1 X107.81 Y111.842 E.00764
G1 X107.838 Y111.586 E.00851
G1 X107.825 Y110.744 E.02774
G1 X107.703 Y110.48 E.00958
G1 X107.371 Y110.264 E.01304
G1 X107.703 Y110.048 E.01304
G1 X107.81 Y109.842 E.00764
G1 X107.838 Y109.586 E.00851
G1 X107.825 Y108.744 E.02774
G1 X107.703 Y108.48 E.00958
G1 X107.371 Y108.264 E.01304
G1 X107.703 Y108.048 E.01304
G1 X107.81 Y107.842 E.00764
G1 X107.838 Y107.586 E.00851
G1 X107.825 Y106.744 E.02774
G1 X107.703 Y106.48 E.00958
G1 X107.371 Y106.264 E.01304
G1 X107.703 Y106.048 E.01304
G1 X107.81 Y105.842 E.00764
G1 X107.838 Y105.586 E.00851
G1 X107.825 Y104.744 E.02774
G1 X107.703 Y104.48 E.00958
G1 X107.371 Y104.264 E.01304
G1 X107.703 Y104.048 E.01304
G1 X107.81 Y103.842 E.00764
G1 X107.838 Y103.586 E.00851
G1 X107.825 Y102.744 E.02774
G1 X107.703 Y102.48 E.00958
G1 X107.371 Y102.264 E.01304
G1 X107.703 Y102.048 E.01304
G1 X107.81 Y101.842 E.00764
G1 X107.838 Y101.586 E.00851
G1 X107.825 Y100.744 E.02774
G1 X107.703 Y100.48 E.00958
G1 X107.371 Y100.264 E.01304
G1 X107.703 Y100.048 E.01304
G1 X107.81 Y99.842 E.00764
G1 X107.838 Y99.586 E.00851
G1 X107.812 Y98.691 E.02947
G1 X107.658 Y98.43 E.00999
G1 X107.458 Y98.325 E.00747
G1 X107.248 Y98.663 F9000
;TYPE:Outer wall
G1 F1800
G1 X105.841 Y98.42 E.04705
G1 X105.841 Y98.233 E.00616
G1 X107.092 Y97.903 E.04264
G1 X107.224 Y97.798 E.00554
G1 X107.247 Y97.695 E.00349
G1 X107.186 Y97.448 E.00838
G1 X107.023 Y97.37 E.00594
G1 X105.312 Y97.37 E.05637
G1 X105.312 Y93.63 E.12322
G1 X114.693 Y93.63 E.30908
G1 X114.693 Y97.37 E.12322
G1 X114.018 Y97.37 E.02225
G1 X113.888 Y97.415 E.00451
G1 X113.809 Y97.579 E.00598
G1 X113.809 Y97.766 E.00618
G1 X112.387 Y98.139 E.04845
G1 X112.271 Y98.218 E.00462
M73 P5 R10
M73 P5 R10
G1 X112.231 Y98.34 E.00421
G1 X112.244 Y99.215 E.02886
G1 X112.4 Y99.336 E.00649
G1 X113.807 Y99.58 E.04705
G1 X113.807 Y99.766 E.00615
G1 X112.433 Y100.126 E.04678
G1 X112.272 Y100.211 E.00602
G1 X112.227 Y100.341 E.00452
G1 X112.245 Y101.215 E.02881
G1 X112.4 Y101.336 E.00649
G1 X113.807 Y101.58 E.04705
G1 X113.807 Y101.766 E.00615
G1 X112.433 Y102.126 E.04678
G1 X112.272 Y102.211 E.00602
G1 X112.227 Y102.341 E.00452
G1 X112.245 Y103.215 E.02881
G1 X112.4 Y103.336 E.00649
G1 X113.807 Y103.58 E.04705
G1 X113.807 Y103.766 E.00615
G1 X112.433 Y104.126 E.04678
G1 X112.272 Y104.211 E.00602
G1 X112.227 Y104.341 E.00452
G1 X112.245 Y105.215 E.02881
G1 X112.4 Y105.336 E.00649
G1 X113.807 Y105.58 E.04704
G1 X113.807 Y105.766 E.00615
G1 X112.433 Y106.126 E.04678
G1 X112.272 Y106.211 E.00602
G1 X112.227 Y106.341 E.00452
G1 X112.245 Y107.215 E.02881
G1 X112.4 Y107.336 E.00649
G1 X113.807 Y107.58 E.04705
G1 X113.807 Y107.766 E.00615
G1 X112.433 Y108.126 E.04678
G1 X112.272 Y108.211 E.00602
G1 X112.227 Y108.341 E.00452
G1 X112.245 Y109.215 E.02881
G1 X112.4 Y109.336 E.00649
G1 X113.807 Y109.58 E.04705
G1 X113.807 Y109.766 E.00615
G1 X112.433 Y110.126 E.04678
G1 X112.272 Y110.211 E.00602
G1 X112.227 Y110.341 E.00452
G1 X112.245 Y111.215 E.02881
G1 X112.4 Y111.336 E.00649
G1 X113.807 Y111.58 E.04705
G1 X113.807 Y111.766 E.00615
G1 X112.433 Y112.126 E.04678
G1 X112.272 Y112.211 E.00602
G1 X112.227 Y112.341 E.00452
G1 X112.245 Y113.215 E.02881
G1 X112.4 Y113.336 E.00649
G1 X113.807 Y113.58 E.04705
G1 X113.807 Y113.766 E.00615
G1 X112.433 Y114.126 E.04678
G1 X112.272 Y114.211 E.00602
G1 X112.227 Y114.341 E.00452
G1 X112.245 Y115.215 E.02881
G1 X112.4 Y115.336 E.00649
G1 X113.807 Y115.58 E.04705
G1 X113.807 Y115.766 E.00615
G1 X112.433 Y116.126 E.04678
G1 X112.272 Y116.211 E.00602
G1 X112.227 Y116.341 E.00452
G1 X112.245 Y117.215 E.02881
G1 X112.4 Y117.336 E.00649
G1 X113.807 Y117.58 E.04705
G1 X113.807 Y117.766 E.00615
G1 X112.433 Y118.126 E.04678
G1 X112.272 Y118.211 E.00602
G1 X112.227 Y118.341 E.00452
G1 X112.245 Y119.215 E.02881
G1 X112.4 Y119.337 E.00649
G1 X113.807 Y119.58 E.04705
G1 X113.807 Y119.766 E.00615
G1 X112.433 Y120.126 E.04678
G1 X112.272 Y120.211 E.00602
G1 X112.227 Y120.341 E.00452
G1 X112.245 Y121.215 E.02881
G1 X112.4 Y121.336 E.00649
G1 X113.807 Y121.58 E.04705
G1 X113.807 Y121.766 E.00615
G1 X112.433 Y122.126 E.04678
G1 X112.272 Y122.211 E.00602
G1 X112.227 Y122.341 E.00452
G1 X112.245 Y123.215 E.02881
G1 X112.4 Y123.336 E.00649
G1 X113.807 Y123.58 E.04705
G1 X113.807 Y123.766 E.00615
G1 X112.433 Y124.126 E.04678
G1 X112.272 Y124.211 E.00602
G1 X112.227 Y124.341 E.00452
G1 X112.253 Y125.233 E.02939
G1 X112.4 Y125.336 E.00592
G1 X113.807 Y125.58 E.04705
G1 X113.807 Y125.766 E.00615
G1 X112.382 Y126.139 E.04852
G1 X112.253 Y126.239 E.00539
G1 X112.23 Y126.77 E.0175
G1 X107.361 Y126.77 E.16041
G1 X107.318 Y126.692 E.00294
G1 X107.243 Y126.663 E.00268
G1 X105.841 Y126.42 E.04687
G1 X105.841 Y126.234 E.00615
G1 X107.316 Y125.847 E.05024
G1 X107.421 Y125.659 E.00711
G1 X107.403 Y124.785 E.02881
G1 X107.248 Y124.663 E.00649
G1 X105.841 Y124.42 E.04705
G1 X105.841 Y124.234 E.00615
G1 X107.265 Y123.861 E.04851
G1 X107.403 Y123.743 E.00597
G1 X107.421 Y123.586 E.00523
G1 X107.403 Y122.785 E.0264
G1 X107.248 Y122.663 E.00649
G1 X105.841 Y122.42 E.04705
G1 X105.841 Y122.234 E.00615
G1 X107.265 Y121.861 E.04851
G1 X107.403 Y121.743 E.00597
G1 X107.421 Y121.586 E.00523
G1 X107.403 Y120.785 E.0264
G1 X107.248 Y120.663 E.00649
G1 X105.841 Y120.42 E.04705
G1 X105.841 Y120.234 E.00615
G1 X107.265 Y119.861 E.04851
G1 X107.403 Y119.743 E.00597
G1 X107.421 Y119.586 E.00523
G1 X107.403 Y118.785 E.0264
G1 X107.248 Y118.663 E.00649
G1 X105.841 Y118.42 E.04705
G1 X105.841 Y118.234 E.00615
G1 X107.265 Y117.861 E.04851
G1 X107.403 Y117.743 E.00597
G1 X107.421 Y117.586 E.00523
G1 X107.403 Y116.785 E.0264
G1 X107.248 Y116.663 E.00649
G1 X105.841 Y116.42 E.04705
G1 X105.841 Y116.234 E.00615
G1 X107.265 Y115.861 E.04851
G1 X107.403 Y115.743 E.00597
G1 X107.421 Y115.586 E.00523
G1 X107.403 Y114.785 E.0264
G1 X107.248 Y114.663 E.00649
G1 X105.841 Y114.42 E.04705
G1 X105.841 Y114.234 E.00615
G1 X107.265 Y113.861 E.04851
G1 X107.403 Y113.743 E.00597
G1 X107.421 Y113.586 E.00523
G1 X107.403 Y112.785 E.0264
G1 X107.248 Y112.663 E.00649
G1 X105.841 Y112.42 E.04705
G1 X105.841 Y112.234 E.00615
G1 X107.265 Y111.861 E.04851
G1 X107.403 Y111.743 E.00597
G1 X107.421 Y111.586 E.00523
