;TIME:671.98
;Filament used:0.40160m
;Layer height:0.200
; HEADER_BLOCK_START
; generated by Creality_Print V6.0.5.1840 on 2025-03-27 at 00:13:06
; total layer number: 41
; filament_density: 1.24
; filament_diameter: 1.75
; max_z_height: 5.00
; HEADER_BLOCK_END

; MINX = 102.68
; MINY = 93.00
; MINZ = 0.00
; MAXX = 117.32
; MAXY = 127.00
; MAXZ = 5.00

; THUMBNAIL_BLOCK_START

;
; THUMBNAIL_BLOCK_END

; THUMBNAIL_BLOCK_START

;
; THUMBNAIL_BLOCK_END

; external perimeters extrusion width = 0.42mm
; perimeters extrusion width = 0.45mm
; infill extrusion width = 0.45mm
; solid infill extrusion width = 0.42mm
; top infill extrusion width = 0.42mm
; first layer extrusion width = 0.46mm

; EXECUTABLE_BLOCK_START
M73 P0 R11
M201 X5000 Y5000 Z500 E5000
M203 X500 Y500 Z30 E100
M204 P5000 R2500 T5000 ; sets acceleration (P, T) and retract acceleration (R), mm/sec^2
M205 X10.00 Y10.00 Z0.40 E5.00 ; sets the jerk limits, mm/sec
;TYPE:Custom
M220 S100 ;Reset Feedrate 
M221 S100 ;Reset Flowrate 
 
M140 S60 ;Set final bed temp 
G28 ;Home 
 
G92 E0 ;Reset Extruder 
G1 Z2.0 F3000 ;Move Z Axis up 
M104 S205 ;Set final nozzle temp 
G1 X-2.1 Y20 Z0.28 F5000.0 ;Move to start position 
M190 S60 ;Wait for bed temp to stabilize 
M109 S205 ;Wait for nozzle temp to stabilize 
G1 X-2.1 Y145.0 Z0.28 F1500.0 E15 ;Draw the first line 
G1 X-2.4 Y145.0 Z0.28 F5000.0 ;Move to side a little 
G1 X-2.4 Y20 Z0.28 F1500.0 E30 ;Draw the second line 
G92 E0  ;Reset Extruder 
G1 E-1.0000 F1800 ;Retract a bit 
M73 P1 R11
M73 P1 R11
G1 Z2.0 F3000 ;Move Z Axis up 
G1 E0.0000 F1800
G90
G21
M83 ; use relative distances for extrusion
" "
G1 E-1.2 F2400
M106 S0
;LAYER_CHANGE
;Z:0.2
;HEIGHT:0.2
;BEFORE_LAYER_CHANGE
;0.2
G92 E0

;_SET_FAN_SPEED_CHANGING_LAYER
M204 P500
M205 X8 Y8
M204 T500
G1 Z.4 F9000
G1 X89.92 Y78.609
G1 Z.2
G1 E1.2 F1800
;TYPE:Skirt
;WIDTH:0.46
G1 F3000
G1 X93.077 Y75.964 E.13569
G1 X95.067 Y74.755 E.07672
G1 X98.855 Y73.138 E.13569
G1 X102.884 Y72.283 E.13569
G1 X105.265 Y72.149 E.07857
G1 X114.782 Y72.149 E.31356
G1 X118.881 Y72.548 E.13569
G1 X122.826 Y73.73 E.13569
M73 P1 R10
M73 P1 R10
G1 X127.051 Y76.048 E.15879
G1 X130.309 Y78.841 E.14137
G1 X132.848 Y82.084 E.13569
G1 X134.713 Y85.756 E.13569
G1 X135.835 Y89.718 E.13569
G1 X136.174 Y93.5 E.1251
G1 X136.167 Y98.075 E.15072
G1 X135.395 Y126.592 E.93987
G1 X134.885 Y130.679 E.13569
M73 P2 R10
M73 P2 R10
G1 X133.597 Y134.59 E.13569
G1 X131.578 Y138.18 E.13569
G1 X128.905 Y141.313 E.13569
G1 X125.542 Y143.958 E.14094
G1 X123.994 Y144.941 E.06042
G1 X120.32 Y146.801 E.13569
G1 X116.356 Y147.917 E.13569
G1 X112.603 Y148.251 E.12412
G1 X107.044 Y148.251 E.18316
G1 X102.969 Y147.857 E.13486
G1 X101.09 Y147.484 E.06314
G1 X97.162 Y146.244 E.13569
G1 X93.548 Y144.27 E.13569
G1 X90.383 Y141.636 E.13569
G1 X87.785 Y138.44 E.13569
G1 X85.852 Y134.803 E.13569
G1 X84.656 Y130.862 E.13569
G1 X84.246 Y126.995 E.12811
G1 X83.833 Y97.801 E.96195
G1 X83.831 Y93.5 E.14169
G1 X84.23 Y89.401 E.13569
G1 X85.412 Y85.456 E.13569
G1 X87.333 Y81.813 E.13569
G1 X89.895 Y78.64 E.13437
G1 X90.228 Y78.913 F9000
G1 F3000
G1 X90.331 Y78.787 E.00537
G1 X95.268 Y75.121 E.20257
G1 X99.019 Y73.524 E.13434
G1 X103.011 Y72.688 E.13434
G1 X105.265 Y72.566 E.07437
G1 X114.782 Y72.566 E.31356
G1 X118.84 Y72.965 E.13434
G1 X122.743 Y74.147 E.13434
G1 X126.81 Y76.389 E.15304
G1 X130.035 Y79.158 E.14002
G1 X132.539 Y82.376 E.13434
G1 X134.368 Y86.02 E.13434
G1 X135.453 Y89.951 E.13434
G1 X135.757 Y93.5 E.11735
G1 X135.75 Y98.064 E.15035
G1 X134.978 Y126.581 E.93987
G1 X134.469 Y130.626 E.13434
G1 X133.182 Y134.496 E.13434
G1 X131.166 Y138.04 E.13434
G1 X128.499 Y141.124 E.13434
G1 X125.319 Y143.605 E.13289
G1 X123.771 Y144.588 E.06042
G1 X120.131 Y146.427 E.13434
G1 X116.203 Y147.521 E.13434
G1 X112.603 Y147.834 E.11904
G1 X107.044 Y147.834 E.18316
G1 X103.049 Y147.448 E.13222
G1 X101.176 Y147.076 E.06292
G1 X97.289 Y145.845 E.13434
G1 X93.716 Y143.88 E.13434
G1 X90.594 Y141.256 E.13434
G1 X88.043 Y138.075 E.13434
G1 X86.161 Y134.458 E.13434
G1 X85.019 Y130.543 E.13434
G1 X84.663 Y126.99 E.11766
G1 X84.25 Y97.795 E.96195
G1 X84.248 Y93.5 E.1415
M73 P3 R10
M73 P3 R10
G1 X84.647 Y89.442 E.13434
G1 X85.829 Y85.539 E.13434
G1 X87.748 Y81.942 E.13434
G1 X90.203 Y78.944 E.12766
G1 X90.533 Y79.218 F9000
G1 F3000
G1 X90.742 Y78.966 E.01078
G1 X95.468 Y75.487 E.19334
G1 X99.183 Y73.91 E.13299
G1 X103.137 Y73.094 E.13299
G1 X105.265 Y72.983 E.07021
G1 X114.782 Y72.983 E.31356
G1 X118.799 Y73.382 E.13299
G1 X122.658 Y74.563 E.13299
G1 X126.57 Y76.73 E.14731
G1 X129.76 Y79.474 E.13867
G1 X132.23 Y82.668 E.13299
G1 X134.023 Y86.284 E.13299
G1 X135.069 Y90.183 E.13299
G1 X135.34 Y93.5 E.10966
G1 X135.333 Y98.052 E.14998
G1 X134.561 Y126.569 E.93987
G1 X134.054 Y130.574 E.13299
G1 X132.768 Y134.4 E.13299
G1 X130.755 Y137.899 E.13299
G1 X128.093 Y140.933 E.13299
G1 X125.095 Y143.253 E.12489
G1 X123.547 Y144.236 E.06042
G1 X119.942 Y146.053 E.13299
G1 X116.05 Y147.124 E.13299
G1 X112.603 Y147.417 E.11398
G1 X107.044 Y147.417 E.18316
G1 X103.129 Y147.038 E.12957
G1 X101.263 Y146.668 E.0627
G1 X97.416 Y145.445 E.13299
G1 X93.885 Y143.489 E.13299
G1 X90.808 Y140.877 E.13299
G1 X88.304 Y137.71 E.13299
G1 X86.473 Y134.113 E.13299
G1 X85.386 Y130.226 E.13299
G1 X85.08 Y126.984 E.10729
G1 X84.665 Y97.5 E.97147
G1 X84.665 Y93.5 E.13179
G1 X85.064 Y89.483 E.13299
G1 X86.245 Y85.623 E.13299
G1 X88.163 Y82.072 E.13299
G1 X90.507 Y79.249 E.12089
; printing object Soport_regleta v3.stl_2 id:8171063952611762432 copy 0
G1 E-1.2 F2400
;WIPE_START
G1 F3000
G1 X90.742 Y78.966
G1 X92.057 Y77.998
;WIPE_END
G1 X96.624 Y84.114 Z.6 F9000
G1 X107.275 Y98.377 Z.6
G1 Z.2
G1 E1.2 F1800
;TYPE:Inner wall
;WIDTH:0.459999
G1 X107.187 Y98.338 E.00315
G1 X106.847 Y98.278 E.01139
G1 X107.109 Y98.115 E.01017
G1 X107.248 Y97.848 E.00993
G1 X107.245 Y97.499 E.01149
G1 X107.155 Y97.247 E.00883
G1 X107.014 Y97.089 E.00697
G1 X106.801 Y96.979 E.00789
G1 X106.624 Y96.953 E.0059
G1 X105.729 Y96.953 E.0295
G1 X105.729 Y94.047 E.09574
G1 X114.276 Y94.047 E.2816
G1 X114.276 Y96.953 E.09574
G1 X114.131 Y96.953 E.00477
G1 X113.707 Y97.119 E.01502
G1 X113.532 Y97.511 E.01414
G1 X112.411 Y97.805 E.03818
G1 X112.126 Y97.969 E.01083
G1 X112.015 Y98.121 E.00621
G1 X111.944 Y98.41 E.00979
G1 X111.953 Y99.154 E.02451
G1 X112.091 Y99.449 E.01071
M73 P4 R10
M73 P4 R10
G1 X112.411 Y99.651 E.01247
G1 X112.756 Y99.714 E.01157
G1 X112.465 Y99.791 E.0099
G1 X112.091 Y100.007 E.01425
G1 X112.004 Y100.143 E.0053
G1 X111.944 Y100.41 E.00903
G1 X111.953 Y101.154 E.02451
G1 X112.091 Y101.449 E.01071
G1 X112.411 Y101.651 E.01247
G1 X112.756 Y101.714 E.01157
G1 X112.465 Y101.791 E.0099
G1 X112.091 Y102.007 E.01425
G1 X112.004 Y102.143 E.0053
G1 X111.944 Y102.41 E.00903
G1 X111.953 Y103.154 E.02451
G1 X112.091 Y103.449 E.01071
G1 X112.411 Y103.651 E.01247
G1 X112.756 Y103.714 E.01157
G1 X112.465 Y103.791 E.0099
G1 X112.091 Y104.007 E.01425
G1 X112.004 Y104.143 E.0053
G1 X111.944 Y104.41 E.00903
G1 X111.953 Y105.154 E.02451
G1 X112.091 Y105.449 E.01071
G1 X112.411 Y105.651 E.01247
G1 X112.756 Y105.714 E.01157
G1 X112.465 Y105.791 E.0099
G1 X112.091 Y106.007 E.01425
G1 X112.004 Y106.143 E.0053
G1 X111.944 Y106.41 E.00903
G1 X111.953 Y107.154 E.02451
G1 X112.091 Y107.449 E.01071
G1 X112.411 Y107.651 E.01247
G1 X112.756 Y107.714 E.01157
G1 X112.465 Y107.791 E.0099
G1 X112.091 Y108.007 E.01425
G1 X112.004 Y108.143 E.0053
G1 X111.944 Y108.41 E.00903
G1 X111.953 Y109.154 E.02451
G1 X112.091 Y109.449 E.01071
G1 X112.411 Y109.651 E.01247
G1 X112.756 Y109.714 E.01156
G1 X112.465 Y109.791 E.0099
G1 X112.091 Y110.007 E.01425
G1 X112.004 Y110.143 E.0053
G1 X111.944 Y110.41 E.00903
G1 X111.953 Y111.154 E.02451
G1 X112.091 Y111.449 E.01071
G1 X112.411 Y111.651 E.01247
G1 X112.756 Y111.714 E.01156
G1 X112.465 Y111.791 E.0099
G1 X112.091 Y112.007 E.01425
G1 X112.004 Y112.143 E.0053
G1 X111.944 Y112.41 E.00903
G1 X111.953 Y113.154 E.02451
G1 X112.091 Y113.449 E.01071
G1 X112.411 Y113.651 E.01247
G1 X112.756 Y113.714 E.01156
G1 X112.465 Y113.791 E.0099
G1 X112.091 Y114.007 E.01425
G1 X112.004 Y114.143 E.0053
G1 X111.944 Y114.41 E.00903
G1 X111.953 Y115.154 E.02451
G1 X112.091 Y115.449 E.01071
G1 X112.411 Y115.651 E.01247
G1 X112.756 Y115.714 E.01157
G1 X112.465 Y115.791 E.0099
G1 X112.091 Y116.007 E.01425
G1 X112.004 Y116.143 E.0053
G1 X111.944 Y116.41 E.00903
G1 X111.953 Y117.154 E.02451
G1 X112.091 Y117.449 E.01071
G1 X112.411 Y117.651 E.01247
G1 X112.756 Y117.714 E.01157
G1 X112.465 Y117.791 E.0099
G1 X112.091 Y118.007 E.01425
G1 X112.004 Y118.143 E.0053
G1 X111.944 Y118.41 E.00903
G1 X111.953 Y119.154 E.02451
G1 X112.091 Y119.449 E.01071
G1 X112.411 Y119.651 E.01247
G1 X112.756 Y119.714 E.01157
G1 X112.465 Y119.791 E.0099
G1 X112.091 Y120.007 E.01425
G1 X112.004 Y120.143 E.0053
G1 X111.944 Y120.41 E.00903
G1 X111.953 Y121.154 E.02451
G1 X112.091 Y121.449 E.01071
G1 X112.411 Y121.651 E.01247
G1 X112.756 Y121.714 E.01157
G1 X112.465 Y121.791 E.0099
G1 X112.091 Y122.007 E.01425
G1 X112.004 Y122.143 E.0053
G1 X111.944 Y122.41 E.00903
G1 X111.953 Y123.154 E.02451
G1 X112.091 Y123.449 E.01071
G1 X112.411 Y123.651 E.01247
G1 X112.756 Y123.714 E.01157
G1 X112.465 Y123.791 E.0099
G1 X112.091 Y124.007 E.01425
G1 X112.004 Y124.143 E.0053
G1 X111.944 Y124.41 E.00903
G1 X111.944 Y125.046 E.02094
G1 X112.045 Y125.387 E.01172
G1 X112.151 Y125.511 E.00537
G1 X112.41 Y125.651 E.00971
G1 X112.756 Y125.714 E.01158
G1 X112.465 Y125.791 E.0099
G1 X112.151 Y125.945 E.01154
G1 X112.045 Y126.069 E.00537
G1 X111.964 Y126.353 E.00973
G1 X107.257 Y126.353 E.15508
G1 X106.889 Y126.286 E.01233
G1 X107.17 Y126.212 E.0096
G1 X107.613 Y125.913 E.01762
G1 X107.703 Y125.59 E.01105
G1 X107.683 Y124.796 E.02615
G1 X107.551 Y124.545 E.00936
G1 X107.237 Y124.349 E.01221
G1 X106.891 Y124.286 E.01157
G1 X107.182 Y124.209 E.0099
G1 X107.551 Y123.999 E.01399
G1 X107.67 Y123.791 E.0079
G1 X107.703 Y123.524 E.00886
G1 X107.691 Y122.831 E.02282
G1 X107.556 Y122.551 E.01024
G1 X107.237 Y122.349 E.01247
G1 X106.891 Y122.286 E.01157
G1 X107.182 Y122.209 E.0099
G1 X107.556 Y121.993 E.01425
G1 X107.672 Y121.785 E.00782
G1 X107.703 Y121.524 E.00867
G1 X107.691 Y120.831 E.02282
G1 X107.556 Y120.551 E.01024
G1 X107.237 Y120.349 E.01247
G1 X106.891 Y120.286 E.01157
G1 X107.182 Y120.209 E.0099
G1 X107.556 Y119.993 E.01425
G1 X107.672 Y119.785 E.00782
G1 X107.703 Y119.524 E.00867
G1 X107.691 Y118.831 E.02282
G1 X107.556 Y118.551 E.01024
G1 X107.237 Y118.349 E.01247
G1 X106.891 Y118.286 E.01157
G1 X107.182 Y118.209 E.0099
G1 X107.556 Y117.993 E.01425
G1 X107.672 Y117.785 E.00782
G1 X107.703 Y117.524 E.00867
G1 X107.691 Y116.831 E.02282
G1 X107.556 Y116.551 E.01024
G1 X107.237 Y116.349 E.01247
G1 X106.891 Y116.286 E.01157
G1 X107.182 Y116.209 E.0099
G1 X107.556 Y115.993 E.01425
G1 X107.672 Y115.785 E.00782
G1 X107.703 Y115.524 E.00867
G1 X107.691 Y114.831 E.02282
G1 X107.556 Y114.551 E.01024
G1 X107.237 Y114.349 E.01247
G1 X106.891 Y114.286 E.01157
G1 X107.182 Y114.209 E.0099
G1 X107.556 Y113.993 E.01425
G1 X107.672 Y113.785 E.00782
G1 X107.703 Y113.524 E.00867
G1 X107.691 Y112.831 E.02282
G1 X107.556 Y112.551 E.01024
G1 X107.237 Y112.349 E.01247
G1 X106.891 Y112.286 E.01157
G1 X107.182 Y112.209 E.0099
G1 X107.556 Y111.993 E.01425
G1 X107.672 Y111.785 E.00782
G1 X107.703 Y111.524 E.00867
G1 X107.691 Y110.831 E.02282
G1 X107.556 Y110.551 E.01024
G1 X107.237 Y110.349 E.01247
G1 X106.891 Y110.286 E.01157
G1 X107.182 Y110.209 E.0099
G1 X107.556 Y109.993 E.01425
G1 X107.672 Y109.785 E.00782
G1 X107.703 Y109.524 E.00867
G1 X107.691 Y108.831 E.02282
G1 X107.556 Y108.551 E.01024
G1 X107.237 Y108.349 E.01247
G1 X106.891 Y108.286 E.01157
G1 X107.182 Y108.209 E.0099
G1 X107.556 Y107.993 E.01425
G1 X107.672 Y107.785 E.00782
G1 X107.703 Y107.524 E.00867
G1 X107.691 Y106.831 E.02282
G1 X107.556 Y106.551 E.01024
G1 X107.237 Y106.349 E.01247
G1 X106.891 Y106.286 E.01157
G1 X107.182 Y106.209 E.0099
G1 X107.556 Y105.993 E.01425
G1 X107.672 Y105.785 E.00782
G1 X107.703 Y105.524 E.00867
G1 X107.691 Y104.831 E.02282
G1 X107.556 Y104.551 E.01024
G1 X107.237 Y104.349 E.01247
G1 X106.891 Y104.286 E.01157
G1 X107.182 Y104.209 E.0099
G1 X107.556 Y103.993 E.01425
G1 X107.672 Y103.785 E.00782
G1 X107.703 Y103.524 E.00867
G1 X107.691 Y102.831 E.02282
G1 X107.556 Y102.551 E.01024
G1 X107.237 Y102.349 E.01247
G1 X106.891 Y102.286 E.01157
G1 X107.182 Y102.209 E.0099
G1 X107.556 Y101.993 E.01425
G1 X107.672 Y101.785 E.00782
G1 X107.703 Y101.524 E.00867
G1 X107.691 Y100.831 E.02282
G1 X107.556 Y100.551 E.01024
G1 X107.237 Y100.349 E.01247
G1 X106.891 Y100.286 E.01157
G1 X107.182 Y100.209 E.0099
G1 X107.556 Y99.993 E.01425
G1 X107.672 Y99.785 E.00782
G1 X107.703 Y99.524 E.00867
G1 X107.691 Y98.831 E.02282
G1 X107.61 Y98.625 E.00731
G1 X107.462 Y98.461 E.00727
G1 X107.311 Y98.393 E.00546
G1 X107.114 Y98.749 F9000
;TYPE:Outer wall
G1 F1800
G1 X105.726 Y98.502 E.04646
G1 X105.726 Y98.16 E.01127
G1 X106.693 Y97.903 E.03299
G1 X106.796 Y97.839 E.00399
G1 X106.843 Y97.75 E.00331
G1 X106.831 Y97.552 E.00654
G1 X106.754 Y97.415 E.00517
G1 X106.624 Y97.37 E.00453
G1 X105.312 Y97.37 E.04324
G1 X105.312 Y93.63 E.12322
G1 X114.693 Y93.63 E.30908
G1 X114.693 Y97.37 E.12322
G1 X114.131 Y97.37 E.01851
G1 X113.99 Y97.425 E.00501
G1 X113.923 Y97.579 E.00551
G1 X113.923 Y97.84 E.0086
G1 X112.861 Y98.118 E.03617
G1 X112.422 Y98.263 E.01524
G1 X112.361 Y98.41 E.00524
G1 X112.381 Y99.135 E.02389
G1 X112.533 Y99.251 E.0063
G1 X113.922 Y99.498 E.04646
G1 X113.922 Y99.84 E.01125
G1 X112.571 Y100.194 E.046
G1 X112.41 Y100.276 E.00596
G1 X112.361 Y100.41 E.00471
G1 X112.381 Y101.135 E.02389
G1 X112.533 Y101.251 E.0063
G1 X113.922 Y101.498 E.04646
G1 X113.922 Y101.84 E.01125
G1 X112.571 Y102.194 E.046
G1 X112.41 Y102.276 E.00596
M73 P5 R10
M73 P5 R10
G1 X112.361 Y102.41 E.00471
G1 X112.381 Y103.135 E.02389
G1 X112.533 Y103.251 E.0063
G1 X113.922 Y103.498 E.04646
G1 X113.922 Y103.84 E.01125
G1 X112.571 Y104.194 E.046
G1 X112.41 Y104.276 E.00596
G1 X112.361 Y104.41 E.00471
G1 X112.381 Y105.135 E.02389
G1 X112.533 Y105.251 E.0063
G1 X113.922 Y105.498 E.04646
G1 X113.922 Y105.84 E.01125
G1 X112.571 Y106.194 E.046
G1 X112.41 Y106.276 E.00596
G1 X112.361 Y106.41 E.00471
G1 X112.381 Y107.135 E.02389
G1 X112.533 Y107.251 E.0063
G1 X113.922 Y107.498 E.04646
G1 X113.922 Y107.84 E.01125
G1 X112.571 Y108.194 E.046
G1 X112.41 Y108.276 E.00596
G1 X112.361 Y108.41 E.00471
G1 X112.381 Y109.135 E.02389
G1 X112.533 Y109.251 E.0063
G1 X113.922 Y109.498 E.04646
G1 X113.922 Y109.84 E.01125
G1 X112.571 Y110.194 E.046
G1 X112.41 Y110.276 E.00596
G1 X112.361 Y110.41 E.00471
G1 X112.381 Y111.135 E.02389
G1 X112.533 Y111.251 E.0063
G1 X113.922 Y111.498 E.04646
G1 X113.922 Y111.84 E.01125
G1 X112.571 Y112.194 E.046
G1 X112.41 Y112.276 E.00596
G1 X112.361 Y112.41 E.00471
G1 X112.381 Y113.135 E.02389
G1 X112.533 Y113.251 E.0063
G1 X113.922 Y113.498 E.04646
G1 X113.922 Y113.84 E.01125
G1 X112.571 Y114.194 E.046
G1 X112.41 Y114.276 E.00596
G1 X112.361 Y114.41 E.00471
G1 X112.381 Y115.135 E.02389
G1 X112.533 Y115.251 E.0063
G1 X113.922 Y115.498 E.04646
G1 X113.922 Y115.84 E.01125
G1 X112.571 Y116.194 E.046
G1 X112.41 Y116.276 E.00596
G1 X112.361 Y116.41 E.00471
G1 X112.381 Y117.135 E.02389
G1 X112.533 Y117.251 E.0063
G1 X113.922 Y117.498 E.04646
G1 X113.922 Y117.84 E.01125
G1 X112.571 Y118.194 E.046
G1 X112.41 Y118.276 E.00596
G1 X112.361 Y118.41 E.00471
G1 X112.381 Y119.135 E.02389
G1 X112.533 Y119.251 E.0063
G1 X113.922 Y119.498 E.04646
G1 X113.922 Y119.84 E.01125
G1 X112.571 Y120.194 E.046
G1 X112.41 Y120.276 E.00596
G1 X112.361 Y120.41 E.00471
G1 X112.381 Y121.135 E.02389
G1 X112.533 Y121.251 E.0063
G1 X113.922 Y121.498 E.04646
G1 X113.922 Y121.84 E.01125
G1 X112.571 Y122.194 E.046
G1 X112.41 Y122.276 E.00596
G1 X112.361 Y122.41 E.00471
G1 X112.381 Y123.135 E.02389
G1 X112.533 Y123.251 E.0063
G1 X113.922 Y123.498 E.04646
G1 X113.922 Y123.84 E.01125
G1 X112.571 Y124.194 E.046
G1 X112.41 Y124.276 E.00596
G1 X112.361 Y124.41 E.00471
G1 X112.361 Y125.046 E.02094
G1 X112.395 Y125.16 E.00391
G1 X112.533 Y125.251 E.00547
G1 X113.922 Y125.498 E.04646
