;TIME:8240.28
;Filament used:15.26868m
;Layer height:0.200
; HEADER_BLOCK_START
; generated by Creality_Print V6.0.5.1840 on 2025-03-27 at 14:05:25
; total layer number: 150
; filament_density: 1.24
; filament_diameter: 1.75
; max_z_height: 30.00
; HEADER_BLOCK_END

; MINX = 56.66
; MINY = 24.75
; MINZ = 0.00
; MAXX = 163.34
; MAXY = 195.25
; MAXZ = 30.01

; THUMBNAIL_BLOCK_START

;
; THUMBNAIL_BLOCK_END

; THUMBNAIL_BLOCK_START

;
; THUMBNAIL_BLOCK_END

; external perimeters extrusion width = 0.42mm
; perimeters extrusion width = 0.45mm
; infill extrusion width = 0.45mm
; solid infill extrusion width = 0.42mm
; top infill extrusion width = 0.42mm
; first layer extrusion width = 0.50mm

; EXECUTABLE_BLOCK_START
M73 P0 R137
M201 X5000 Y5000 Z500 E5000
M203 X500 Y500 Z30 E100
M204 P5000 R2500 T5000 ; sets acceleration (P, T) and retract acceleration (R), mm/sec^2
M205 X10.00 Y10.00 Z0.40 E5.00 ; sets the jerk limits, mm/sec
;TYPE:Custom
M220 S100 ;Reset Feedrate 
M221 S100 ;Reset Flowrate 
 
M140 S60 ;Set final bed temp 
G28 ;Home 
 
G92 E0 ;Reset Extruder 
G1 Z2.0 F3000 ;Move Z Axis up 
M104 S205 ;Set final nozzle temp 
G1 X-2.1 Y20 Z0.28 F5000.0 ;Move to start position 
M190 S60 ;Wait for bed temp to stabilize 
M109 S205 ;Wait for nozzle temp to stabilize 
G1 X-2.1 Y145.0 Z0.28 F1500.0 E15 ;Draw the first line 
G1 X-2.4 Y145.0 Z0.28 F5000.0 ;Move to side a little 
G1 X-2.4 Y20 Z0.28 F1500.0 E30 ;Draw the second line 
G92 E0  ;Reset Extruder 
G1 E-1.0000 F1800 ;Retract a bit 
G1 Z2.0 F3000 ;Move Z Axis up 
G1 E0.0000 F1800
G90
G21
M83 ; use relative distances for extrusion
" "
G1 E-1.2 F2400
M106 S0
;LAYER_CHANGE
;Z:0.2
;HEIGHT:0.2
;BEFORE_LAYER_CHANGE
;0.2
G92 E0

;_SET_FAN_SPEED_CHANGING_LAYER
M204 P500
M205 X10 Y10
M204 T500
G1 Z.4 F9000
G1 X38.283 Y18.177
G1 Z.2
G1 E1.2 F1800
;TYPE:Skirt
;WIDTH:0.5
G1 F3000
G1 X40.205 Y14.521 E.14912
G1 X42.962 Y11.133 E.15771
G1 X46.238 Y8.421 E.15359
G1 X49.873 Y6.459 E.14912
G1 X53.816 Y5.232 E.14912
G1 X58.161 Y4.786 E.15771
G1 X76.573 Y4.786 E.66479
G1 X78.175 Y4.846 E.05786
G1 X151.371 Y10.346 E2.6503
G1 X155.441 Y11.052 E.14912
G1 X159.298 Y12.527 E.14912
G1 X162.8 Y14.717 E.14912
G1 X164.97 Y16.633 E.10452
G1 X167.594 Y19.822 E.14912
G1 X169.557 Y23.456 E.14912
G1 X170.783 Y27.4 E.14912
G1 X171.137 Y29.759 E.08611
G1 X181.913 Y145.185 E4.18571
G1 X181.898 Y149.315 E.14912
G1 X181.089 Y153.365 E.14912
G1 X179.516 Y157.183 E.14912
G1 X177.237 Y160.628 E.14912
G1 X175.746 Y162.283 E.08043
G1 X129.015 Y209.015 E2.38617
G1 X125.826 Y211.639 E.14912
G1 X122.192 Y213.601 E.14912
G1 X118.248 Y214.828 E.14912
G1 X113.903 Y215.274 E.15771
G1 X109.668 Y214.875 E.15359
G1 X105.711 Y213.693 E.14912
G1 X102.055 Y211.771 E.14912
G1 X98.667 Y209.015 E.15771
G1 X44.927 Y155.274 E2.74406
G1 X42.303 Y152.086 E.14912
G1 X40.341 Y148.451 E.14912
G1 X39.114 Y144.508 E.14912
G1 X38.671 Y140.561 E.1434
M73 P0 R136
M73 P0 R136
G1 X36.706 Y35.055 E3.81004
G1 X36.702 Y26.245 E.3181
G1 X37.101 Y22.134 E.14912
G1 X38.272 Y18.216 E.14767
G1 X38.716 Y18.35 F9000
G1 F3000
G1 X38.74 Y18.268 E.00307
G1 X40.66 Y14.662 E.14751
G1 X43.285 Y11.457 E.14959
G1 X46.53 Y8.776 E.15198
G1 X50.131 Y6.846 E.14751
G1 X54.039 Y5.653 E.14751
G1 X58.161 Y5.243 E.14959
G1 X76.573 Y5.243 E.66479
G1 X78.14 Y5.302 E.05662
G1 X151.337 Y10.802 E2.6503
G1 X155.362 Y11.504 E.14751
G1 X159.173 Y12.976 E.14751
G1 X162.626 Y15.161 E.14751
G1 X164.647 Y16.957 E.09762
G1 X167.24 Y20.114 E.14751
G1 X169.169 Y23.715 E.14751
G1 X170.362 Y27.622 E.14751
G1 X170.682 Y29.801 E.0795
G1 X181.458 Y145.227 E4.18571
G1 X181.439 Y149.313 E.14751
G1 X180.626 Y153.317 E.14751
G1 X179.05 Y157.086 E.14751
G1 X175.423 Y161.96 E.21935
G1 X128.692 Y208.691 E2.38617
G1 X125.535 Y211.284 E.14751
G1 X121.934 Y213.214 E.14751
G1 X118.026 Y214.407 E.14751
G1 X113.903 Y214.817 E.14959
G1 X109.713 Y214.418 E.15198
G1 X105.802 Y213.236 E.14751
G1 X102.196 Y211.316 E.14751
G1 X98.991 Y208.691 E.14959
G1 X45.25 Y154.951 E2.74406
G1 X42.657 Y151.794 E.14751
G1 X40.728 Y148.193 E.14751
G1 X39.535 Y144.285 E.14751
G1 X39.128 Y140.552 E.13559
G1 X37.163 Y35.047 E3.81004
G1 X37.159 Y26.245 E.31779
G1 X37.558 Y22.179 E.14751
G1 X38.704 Y18.388 E.143
G1 X39.147 Y18.523 F9000
G1 F3000
G1 X39.197 Y18.361 E.00615
G1 X41.115 Y14.804 E.14589
G1 X43.608 Y11.78 E.14152
G1 X46.821 Y9.131 E.15036
G1 X50.389 Y7.234 E.14589
G1 X54.26 Y6.076 E.14589
G1 X58.161 Y5.7 E.14152
G1 X76.573 Y5.7 E.66479
G1 X78.106 Y5.758 E.05538
G1 X151.303 Y11.258 E2.6503
G1 X155.283 Y11.957 E.14589
G1 X159.047 Y13.425 E.14589
G1 X162.45 Y15.603 E.14589
G1 X164.323 Y17.28 E.09078
G1 X166.884 Y20.405 E.14589
G1 X168.781 Y23.973 E.14589
G1 X170.227 Y29.844 E.2183
G1 X181.003 Y145.27 E4.18571
G1 X180.98 Y149.31 E.14589
G1 X180.162 Y153.267 E.14589
G1 X178.583 Y156.987 E.14589
G1 X175.1 Y161.637 E.20979
G1 X128.369 Y208.368 E2.38617
G1 X125.244 Y210.929 E.14589
G1 X121.676 Y212.826 E.14589
G1 X117.805 Y213.984 E.14589
G1 X113.779 Y214.36 E.14599
G1 X109.758 Y213.961 E.14589
G1 X105.894 Y212.779 E.14589
G1 X102.338 Y210.861 E.14589
G1 X99.314 Y208.368 E.14152
G1 X45.574 Y154.628 E2.74406
G1 X43.013 Y151.503 E.14589
G1 X41.116 Y147.935 E.14589
G1 X39.957 Y144.064 E.14589
G1 X39.585 Y140.544 E.12782
G1 X37.62 Y35.038 E3.81004
G1 X37.616 Y26.245 E.31748
G1 X38.015 Y22.224 E.14589
G1 X39.135 Y18.562 E.13829
; printing object Soportregleta2 v1 id:0 copy 0
G1 E-1.2 F2400
;WIPE_START
G1 F9000
G1 X39.197 Y18.361
G1 X40.046 Y16.785
;WIPE_END
G1 X46.129 Y21.396 Z.6
G1 X144.539 Y96 Z.6
G1 Z.2
G1 E1.2 F1800
;TYPE:Inner wall
;WIDTH:0.499999
G1 X144.539 Y51.723 E1.59866
G1 X144.459 Y50.197 E.05515
G1 X144.227 Y48.733 E.05353
G1 X143.814 Y47.17 E.05836
G1 X143.257 Y45.723 E.056
G1 X142.583 Y44.4 E.0536
G1 X141.705 Y43.044 E.05832
G1 X140.724 Y41.839 E.05611
G2 X139.649 Y40.769 I-115.919 J115.396 E.05477
G1 X138.472 Y39.811 E.0548
G1 X137.173 Y38.965 E.05597
G1 X135.793 Y38.259 E.05597
G1 X134.346 Y37.702 E.05597
G1 X132.849 Y37.299 E.05597
G1 X131.318 Y37.056 E.05597
G1 X129.793 Y36.976 E.05516
G1 X94.539 Y36.976 E1.27285
G1 X94.539 Y32.514 E.16109
G1 X149.001 Y32.514 E1.96639
G1 X149.001 Y101.976 E2.50798
G2 X145.009 Y101.977 I-1.654 J1084.432 E.14414
G2 X143.507 Y102.071 I5.66 J102.709 E.05432
G1 X142.061 Y102.33 E.05305
G1 X140.617 Y102.771 E.05451
G1 X139.233 Y103.38 E.0546
G1 X137.989 Y104.109 E.05207
G1 X136.783 Y105.017 E.0545
G1 X135.69 Y106.063 E.05463
G1 X134.73 Y107.229 E.05451
G1 X133.915 Y108.5 E.05451
G1 X133.256 Y109.858 E.05451
G1 X132.762 Y111.285 E.05451
G1 X132.439 Y112.76 E.05451
G1 X132.293 Y114.262 E.05451
G1 X132.326 Y115.775 E.05463
G1 X132.537 Y117.27 E.0545
G1 X132.901 Y118.665 E.05207
G1 X133.449 Y120.075 E.0546
G1 X134.159 Y121.407 E.05451
G1 X135.022 Y122.646 E.05451
G1 X136.007 Y123.756 E.0536
G1 X159.423 Y147.172 E1.19562
G1 X113.841 Y192.753 E2.32745
G1 X110.686 Y189.598 E.16109
G1 X142.685 Y157.599 E1.63391
G1 X143.707 Y156.464 E.05515
G1 X144.579 Y155.264 E.05353
G1 X145.391 Y153.867 E.05836
G1 X146.021 Y152.45 E.056
G1 X146.48 Y151.038 E.0536
G1 X146.818 Y149.458 E.05832
G1 X146.977 Y147.913 E.05611
G2 X146.973 Y146.396 I-163.527 J-.37 E.05477
G1 X146.818 Y144.885 E.05484
G1 X146.48 Y143.305 E.05832
G1 X146.021 Y141.894 E.0536
G1 X145.391 Y140.476 E.056
G1 X144.579 Y139.079 E.05836
G1 X143.707 Y137.879 E.05353
G1 X142.685 Y136.744 E.05515
G1 X107.778 Y101.837 E1.78241
G1 X107.108 Y101.202 E.03335
G1 X106.913 Y101.128 E.0075
G1 X106.578 Y101.14 E.01211
G1 X106.285 Y101.314 E.01229
G1 X64.344 Y143.255 E2.1416
G1 X61.189 Y140.1 E.16109
G1 X94.63 Y106.659 E1.70756
G1 X96.099 Y105.132 E.07651
G1 X97.65 Y103.749 E.07503
G1 X99.302 Y102.488 E.07503
G1 X101.045 Y101.356 E.07503
G1 X102.871 Y100.361 E.0751
G1 X104.845 Y99.475 E.07813
G1 X106.801 Y98.775 E.07502
G1 X108.808 Y98.226 E.07511
G1 X110.762 Y97.847 E.07188
G1 X112.913 Y97.594 E.07819
G1 X115.005 Y97.514 E.07559
G1 X143.854 Y97.514 E1.04161
G1 X144.086 Y97.474 E.0085
G1 X144.338 Y97.313 E.01081
G1 X144.514 Y97.014 E.01251
G1 X144.539 Y96.829 E.00677
G1 X144.539 Y96.04 E.02849
G1 X144.082 Y96.829 F9000
;TYPE:Outer wall
G1 F1800
G1 X144.082 Y51.735 E1.62816
G1 X144.004 Y50.245 E.05386
G1 X143.779 Y48.827 E.05183
G1 X143.379 Y47.311 E.05662
G1 X142.839 Y45.909 E.05425
G1 X142.186 Y44.629 E.05189
G1 X141.335 Y43.313 E.05657
G1 X140.385 Y42.145 E.05436
G2 X139.361 Y41.123 I-311.276 J310.769 E.05223
G1 X138.202 Y40.181 E.05393
G1 X136.944 Y39.361 E.05423
G1 X135.606 Y38.677 E.05424
G1 X134.205 Y38.137 E.05424
G1 X132.754 Y37.747 E.05424
G1 X131.27 Y37.511 E.05424
G1 X129.781 Y37.433 E.05386
G1 X94.082 Y37.433 E1.28892
G1 X94.082 Y32.057 E.1941
G1 X149.458 Y32.057 E1.9994
G1 X149.458 Y102.433 E2.54098
G1 X145.66 Y102.433 E.13715
G2 X143.588 Y102.521 I.17 J28.498 E.07488
G1 X142.169 Y102.776 E.05207
G1 X140.776 Y103.2 E.05255
G1 X139.441 Y103.787 E.05266
G1 X138.242 Y104.49 E.05017
G1 X137.079 Y105.366 E.05257
G1 X136.025 Y106.374 E.05267
G1 X135.1 Y107.498 E.05255
G1 X134.315 Y108.724 E.05256
G1 X133.679 Y110.033 E.05256
G1 X133.202 Y111.409 E.05256
G1 X132.892 Y112.831 E.05256
G1 X132.751 Y114.28 E.05255
G1 X132.783 Y115.738 E.05267
G1 X132.986 Y117.18 E.05257
G1 X133.337 Y118.524 E.05017
G1 X133.866 Y119.884 E.05266
G1 X134.55 Y121.168 E.05255
G1 X135.381 Y122.363 E.05256
G1 X136.34 Y123.443 E.05213
G1 X160.069 Y147.172 E1.21163
G1 X113.841 Y193.399 E2.36046
M73 P0 R135
M73 P0 R135
G1 X110.04 Y189.598 E.1941
M73 P1 R135
M73 P1 R135
G1 X142.354 Y157.284 E1.64998
G1 X143.351 Y156.176 E.05386
G1 X144.195 Y155.014 E.05183
G1 X144.984 Y153.659 E.05662
G1 X145.593 Y152.286 E.05425
G1 X146.038 Y150.919 E.05189
G1 X146.366 Y149.387 E.05657
G1 X146.52 Y147.889 E.05437
G2 X146.519 Y146.442 I-439.906 J-.359 E.05223
G1 X146.366 Y144.956 E.05394
G1 X146.038 Y143.424 E.05657
G1 X145.593 Y142.057 E.05189
G1 X144.984 Y140.684 E.05425
G1 X144.195 Y139.329 E.05662
G1 X143.351 Y138.167 E.05183
G1 X142.354 Y137.059 E.05385
G1 X107.455 Y102.16 E1.78198
G1 X106.883 Y101.6 E.02892
G1 X106.731 Y101.573 E.00554
G1 X106.609 Y101.637 E.005
G1 X64.344 Y143.902 E2.15811
G1 X60.542 Y140.1 E.1941
G1 X94.304 Y106.339 E1.72391
G1 X95.782 Y104.803 E.07698
G1 X97.359 Y103.396 E.07629
G1 X99.038 Y102.114 E.07629
G1 X100.811 Y100.964 E.07629
G1 X102.667 Y99.951 E.07637
G1 X104.674 Y99.051 E.07941
G1 X106.664 Y98.339 E.0763
G1 X108.704 Y97.78 E.07637
G1 X110.692 Y97.395 E.07312
G1 X112.878 Y97.138 E.07945
G1 X114.996 Y97.057 E.07656
G1 X143.854 Y97.057 E1.04192
G1 X144.015 Y96.99 E.00632
G1 X144.067 Y96.866 E.00487
G1 E-1.2 F2400
;WIPE_START
G1 F9000
G1 X144.068 Y94.866
;WIPE_END
G1 Z.6
G1 X147.938 Y32.651
G1 Z.6
G1 Z.2
G1 E1.2 F1800
;TYPE:Bottom surface
;WIDTH:0.501031
G1 F4800
G1 X148.658 Y33.372 E.03687
G1 X148.658 Y34.02 E.02344
G1 X147.496 Y32.857 E.0595
G1 X146.848 Y32.857 E.02344
G1 X148.658 Y34.668 E.09266
G1 X148.658 Y35.316 E.02344
G1 X146.2 Y32.857 E.12581
G1 X145.552 Y32.857 E.02344
G1 X148.658 Y35.963 E.15897
G1 X148.658 Y36.611 E.02344
G1 X144.904 Y32.857 E.19212
G1 X144.256 Y32.857 E.02344
G1 X148.658 Y37.259 E.22528
G1 X148.658 Y37.907 E.02344
G1 X143.608 Y32.857 E.25844
G1 X142.961 Y32.857 E.02344
G1 X148.658 Y38.555 E.29159
G1 X148.658 Y39.203 E.02344
G1 X142.313 Y32.857 E.32475
G1 X141.665 Y32.857 E.02344
G1 X148.658 Y39.851 E.3579
G1 X148.658 Y40.498 E.02344
G1 X141.017 Y32.857 E.39106
G1 X140.369 Y32.857 E.02344
G1 X148.658 Y41.146 E.42421
G1 X148.658 Y41.794 E.02344
G1 X139.721 Y32.857 E.45737
G1 X139.073 Y32.857 E.02344
G1 X148.658 Y42.442 E.49053
G1 X148.658 Y43.09 E.02344
G1 X138.425 Y32.857 E.52368
G1 X137.778 Y32.857 E.02344
G1 X148.658 Y43.738 E.55684
G1 X148.658 Y44.386 E.02344
G1 X137.13 Y32.857 E.58999
G1 X136.482 Y32.857 E.02344
G1 X148.658 Y45.034 E.62315
G1 X148.658 Y45.681 E.02344
G1 X135.834 Y32.857 E.6563
G1 X135.186 Y32.857 E.02344
G1 X148.658 Y46.329 E.68946
G1 X148.658 Y46.977 E.02344
G1 X134.538 Y32.857 E.72262
G1 X133.89 Y32.857 E.02344
G1 X148.658 Y47.625 E.75577
G1 X148.658 Y48.273 E.02344
G1 X133.243 Y32.857 E.78893
G1 X132.595 Y32.857 E.02344
G1 X148.658 Y48.921 E.82208
G1 X148.658 Y49.569 E.02344
G1 X131.947 Y32.857 E.85524
G1 X131.299 Y32.857 E.02344
G1 X136.866 Y38.424 E.28489
G1 X135.888 Y37.928 E.03968
G1 X135.62 Y37.826 E.01039
G1 X130.651 Y32.857 E.25427
G1 X130.003 Y32.857 E.02344
G1 X134.572 Y37.426 E.23383
G1 X134.406 Y37.363 E.00644
G1 X133.664 Y37.166 E.02778
G1 X129.355 Y32.857 E.22051
G1 X128.707 Y32.857 E.02344
G1 X132.794 Y36.943 E.20912
G1 X132.024 Y36.821 E.02822
G1 X128.06 Y32.857 E.20286
G1 X127.412 Y32.857 E.02344
G1 X131.27 Y36.715 E.19744
G1 X130.584 Y36.677 E.02484
G1 X126.764 Y32.857 E.19551
G1 X126.116 Y32.857 E.02344
G1 X129.899 Y36.64 E.19359
G2 X129.244 Y36.633 I-.388 J5.957 E.0237
G1 X125.468 Y32.857 E.19325
G1 X124.82 Y32.857 E.02344
G1 X128.596 Y36.633 E.19325
G1 X127.948 Y36.633 E.02344
G1 X124.172 Y32.857 E.19325
G1 X123.525 Y32.857 E.02344
G1 X127.301 Y36.633 E.19325
G1 X126.653 Y36.633 E.02344
G1 X122.877 Y32.857 E.19325
G1 X122.229 Y32.857 E.02344
G1 X126.005 Y36.633 E.19325
G1 X125.357 Y36.633 E.02344
G1 X121.581 Y32.857 E.19325
G1 X120.933 Y32.857 E.02344
G1 X124.709 Y36.633 E.19325
G1 X124.061 Y36.633 E.02344
G1 X120.285 Y32.857 E.19325
G1 X119.637 Y32.857 E.02344
G1 X123.413 Y36.633 E.19325
G1 X122.765 Y36.633 E.02344
G1 X118.989 Y32.857 E.19325
G1 X118.342 Y32.857 E.02344
G1 X122.118 Y36.633 E.19325
G1 X121.47 Y36.633 E.02344
G1 X117.694 Y32.857 E.19325
G1 X117.046 Y32.857 E.02344
G1 X120.822 Y36.633 E.19325
G1 X120.174 Y36.633 E.02344
G1 X116.398 Y32.857 E.19325
G1 X115.75 Y32.857 E.02344
G1 X119.526 Y36.633 E.19325
G1 X118.878 Y36.633 E.02344
G1 X115.102 Y32.857 E.19325
G1 X114.454 Y32.857 E.02344
G1 X118.23 Y36.633 E.19325
G1 X117.583 Y36.633 E.02344
G1 X113.806 Y32.857 E.19325
G1 X113.159 Y32.857 E.02344
G1 X116.935 Y36.633 E.19325
G1 X116.287 Y36.633 E.02344
G1 X112.511 Y32.857 E.19325
G1 X111.863 Y32.857 E.02344
G1 X115.639 Y36.633 E.19325
G1 X114.991 Y36.633 E.02344
G1 X111.215 Y32.857 E.19325
G1 X110.567 Y32.857 E.02344
G1 X114.343 Y36.633 E.19325
G1 X113.695 Y36.633 E.02344
G1 X109.919 Y32.857 E.19325
G1 X109.271 Y32.857 E.02344
G1 X113.047 Y36.633 E.19325
G1 X112.4 Y36.633 E.02344
G1 X108.624 Y32.857 E.19325
G1 X107.976 Y32.857 E.02344
G1 X111.752 Y36.633 E.19325
G1 X111.104 Y36.633 E.02344
G1 X107.328 Y32.857 E.19325
G1 X106.68 Y32.857 E.02344
G1 X110.456 Y36.633 E.19325
G1 X109.808 Y36.633 E.02344
G1 X106.032 Y32.857 E.19325
G1 X105.384 Y32.857 E.02344
G1 X109.16 Y36.633 E.19325
G1 X108.512 Y36.633 E.02344
G1 X104.736 Y32.857 E.19325
G1 X104.088 Y32.857 E.02344
G1 X107.865 Y36.633 E.19325
G1 X107.217 Y36.633 E.02344
G1 X103.441 Y32.857 E.19325
G1 X102.793 Y32.857 E.02344
G1 X106.569 Y36.633 E.19325
G1 X105.921 Y36.633 E.02344
G1 X102.145 Y32.857 E.19325
G1 X101.497 Y32.857 E.02344
G1 X105.273 Y36.633 E.19325
G1 X104.625 Y36.633 E.02344
G1 X100.849 Y32.857 E.19325
G1 X100.201 Y32.857 E.02344
G1 X103.977 Y36.633 E.19325
G1 X103.329 Y36.633 E.02344
G1 X99.553 Y32.857 E.19325
G1 X98.906 Y32.857 E.02344
G1 X102.682 Y36.633 E.19325
G1 X102.034 Y36.633 E.02344
G1 X98.258 Y32.857 E.19325
G1 X97.61 Y32.857 E.02344
G1 X101.386 Y36.633 E.19325
G1 X100.738 Y36.633 E.02344
G1 X96.962 Y32.857 E.19325
G1 X96.314 Y32.857 E.02344
G1 X100.09 Y36.633 E.19325
G1 X99.442 Y36.633 E.02344
G1 X95.666 Y32.857 E.19325
G1 X95.018 Y32.857 E.02344
G1 X98.794 Y36.633 E.19325
G1 X98.147 Y36.633 E.02344
G1 X94.882 Y33.369 E.16706
G1 X94.882 Y34.017 E.02344
G1 X97.499 Y36.633 E.13391
G1 X96.851 Y36.633 E.02344
G1 X94.882 Y34.665 E.10075
G1 X94.882 Y35.312 E.02344
G1 X96.203 Y36.633 E.06759
G1 X95.555 Y36.633 E.02344
G1 X94.882 Y35.96 E.03444
G1 X94.882 Y36.608 E.02344
G1 X95.113 Y36.839 E.01181
G1 E-1.2 F2400
;WIPE_START
G1 F9000
G1 X94.882 Y36.608
G1 X94.882 Y35.96
G1 X95.555 Y36.633
G1 X95.629 Y36.633
;WIPE_END
G1 X103.167 Y37.835 Z.6
G1 X142.557 Y44.115 Z.6
G1 Z.2
G1 E1.2 F1800
G1 F4800
G1 X148.658 Y50.216 E.31224
G1 X148.658 Y50.864 E.02344
G1 X143.69 Y45.896 E.25428
G1 X144.089 Y46.943 E.04054
G1 X148.658 Y51.512 E.23386
G1 X148.658 Y52.16 E.02344
G1 X144.345 Y47.847 E.22072
