;TIME:7425.98
;Filament used:13.45362m
;Layer height:0.200
; HEADER_BLOCK_START
; generated by Creality_Print V6.0.5.1840 on 2025-03-28 at 18:20:11
; total layer number: 300
; filament_density: 1.24
; filament_diameter: 1.75
; max_z_height: 30.00
; HEADER_BLOCK_END

; MINX = 21.96
; MINY = 30.33
; MINZ = 0.00
; MAXX = 198.18
; MAXY = 189.50
; MAXZ = 30.00

; THUMBNAIL_BLOCK_START

;
; THUMBNAIL_BLOCK_END

; THUMBNAIL_BLOCK_START

;
; THUMBNAIL_BLOCK_END

; external perimeters extrusion width = 0.42mm
; perimeters extrusion width = 0.45mm
; infill extrusion width = 0.45mm
; solid infill extrusion width = 0.42mm
; top infill extrusion width = 0.42mm
; first layer extrusion width = 0.50mm

; external perimeters extrusion width = 0.42mm
; perimeters extrusion width = 0.45mm
; infill extrusion width = 0.45mm
; solid infill extrusion width = 0.42mm
; top infill extrusion width = 0.42mm
; first layer extrusion width = 0.50mm

; EXECUTABLE_BLOCK_START
M73 P0 R123
M201 X5000 Y5000 Z500 E5000
M203 X500 Y500 Z30 E100
M204 P5000 R2500 T5000 ; sets acceleration (P, T) and retract acceleration (R), mm/sec^2
M205 X10.00 Y10.00 Z0.40 E5.00 ; sets the jerk limits, mm/sec
;TYPE:Custom
M220 S100 ;Reset Feedrate 
M221 S100 ;Reset Flowrate 
 
M140 S60 ;Set final bed temp 
G28 ;Home 
 
G92 E0 ;Reset Extruder 
G1 Z2.0 F3000 ;Move Z Axis up 
M104 S205 ;Set final nozzle temp 
G1 X-2.1 Y20 Z0.28 F5000.0 ;Move to start position 
M190 S60 ;Wait for bed temp to stabilize 
M109 S205 ;Wait for nozzle temp to stabilize 
G1 X-2.1 Y145.0 Z0.28 F1500.0 E15 ;Draw the first line 
G1 X-2.4 Y145.0 Z0.28 F5000.0 ;Move to side a little 
G1 X-2.4 Y20 Z0.28 F1500.0 E30 ;Draw the second line 
G92 E0  ;Reset Extruder 
G1 E-1.0000 F1800 ;Retract a bit 
G1 Z2.0 F3000 ;Move Z Axis up 
G1 E0.0000 F1800
G90
G21
M83 ; use relative distances for extrusion
" "
G1 E-1.2 F2400
M106 S0
;LAYER_CHANGE
;Z:0.2
;HEIGHT:0.2
;BEFORE_LAYER_CHANGE
;0.2
G92 E0

;_SET_FAN_SPEED_CHANGING_LAYER
M204 P500
M205 X10 Y10
M204 T500
G1 Z.4 F9000
G1 X15.723 Y73.17
G1 Z.2
G1 E1.2 F1800
;TYPE:Skirt
;WIDTH:0.5
G1 F3000
G1 X27.761 Y27.152 E1.71746
G1 X29.181 Y23.297 E.14832
G1 X31.321 Y19.791 E.14832
G1 X33.671 Y17.156 E.12748
G1 X36.896 Y14.612 E.14832
G1 X40.552 Y12.739 E.14832
G1 X44.502 Y11.609 E.14832
G1 X48.743 Y11.266 E.15364
G1 X97.733 Y12.253 E1.76919
G1 X101.813 Y12.734 E.14832
G1 X105.722 Y13.995 E.14832
G1 X109.314 Y15.988 E.14832
G1 X112.556 Y18.745 E.15364
G1 X115.198 Y22.072 E.1534
G1 X117.07 Y25.728 E.14832
G1 X118.201 Y29.678 E.14832
G1 X118.497 Y32.032 E.0857
G1 X126.851 Y152.652 E4.36551
G1 X126.736 Y156.758 E.14832
G1 X125.828 Y160.764 E.14832
G1 X124.163 Y164.519 E.14832
G1 X120.405 Y169.361 E.22128
G1 X84.994 Y203.373 E1.77281
G1 X81.769 Y205.918 E.14832
G1 X78.113 Y207.79 E.14832
G1 X74.164 Y208.921 E.14832
G1 X69.922 Y209.263 E.15365
G1 X65.701 Y208.779 E.1534
G1 X61.792 Y207.518 E.14832
G1 X58.2 Y205.525 E.14832
G1 X54.958 Y202.768 E.15364
G1 X50.802 Y198.441 E.21664
G1 X49.238 Y196.615 E.08682
G1 X6.517 Y140.589 E2.54387
G1 X4.355 Y137.096 E.14832
G1 X2.91 Y133.251 E.14832
G1 X2.191 Y127.343 E.21488
G1 X2.878 Y122.277 E.18459
G1 X15.713 Y73.209 E1.83125
G1 X16.155 Y73.325 F9000
G1 F3000
G1 X28.203 Y27.267 E1.7189
G1 X29.612 Y23.457 E.1467
G1 X31.739 Y19.995 E.1467
G1 X33.988 Y17.486 E.12165
G1 X37.18 Y14.973 E.1467
G1 X40.803 Y13.132 E.1467
G1 X44.715 Y12.035 E.1467
G1 X48.734 Y11.723 E.14555
G1 X97.724 Y12.71 E1.76919
G1 X101.759 Y13.19 E.1467
G1 X105.621 Y14.45 E.1467
G1 X109.163 Y16.44 E.1467
G1 X112.226 Y19.062 E.14555
G1 X114.837 Y22.356 E.15178
G1 X116.678 Y25.979 E.1467
G1 X117.775 Y29.891 E.1467
G1 X118.041 Y32.064 E.07906
G1 X126.395 Y152.683 E4.36551
G1 X126.277 Y156.744 E.1467
G1 X125.366 Y160.704 E.1467
G1 X123.7 Y164.41 E.1467
G1 X120.089 Y169.031 E.21175
G1 X84.677 Y203.044 E1.77281
G1 X81.485 Y205.557 E.1467
G1 X77.863 Y207.397 E.1467
G1 X73.951 Y208.495 E.1467
G1 X69.79 Y208.804 E.15064
G1 X65.755 Y208.323 E.1467
G1 X61.893 Y207.063 E.1467
G1 X58.35 Y205.073 E.1467
G1 X55.288 Y202.452 E.14555
G1 X51.132 Y198.124 E.21664
G1 X49.601 Y196.338 E.08494
G1 X6.88 Y140.312 E2.54387
G1 X4.746 Y136.854 E.1467
G1 X3.328 Y133.047 E.1467
G1 X2.648 Y127.352 E.20706
G1 X3.32 Y122.393 E.1807
G1 X16.145 Y73.364 E1.82981
G1 X16.587 Y73.479 F9000
G1 F3000
G1 X28.645 Y27.383 E1.72034
G1 X30.043 Y23.616 E.14507
G1 X32.158 Y20.2 E.14507
G1 X34.305 Y17.815 E.11585
G1 X37.464 Y15.334 E.14507
G1 X41.052 Y13.525 E.14507
G1 X44.927 Y12.462 E.14507
G1 X48.725 Y12.18 E.13751
G1 X97.715 Y13.167 E1.76919
G1 X101.704 Y13.646 E.14507
G1 X105.519 Y14.905 E.14507
G1 X109.011 Y16.892 E.14507
G1 X111.896 Y19.378 E.13751
G1 X114.476 Y22.64 E.15015
G1 X116.284 Y26.228 E.14507
G1 X117.585 Y32.096 E.217
G1 X125.939 Y152.715 E4.36551
G1 X125.818 Y156.731 E.14507
G1 X124.904 Y160.643 E.14507
G1 X123.236 Y164.298 E.14507
G1 X119.772 Y168.701 E.20228
G1 X84.361 Y202.714 E1.77281
G1 X81.201 Y205.196 E.14507
G1 X77.613 Y207.004 E.14507
G1 X73.739 Y208.067 E.14507
G1 X69.941 Y208.349 E.13751
G1 X65.81 Y207.867 E.15015
G1 X61.994 Y206.609 E.14507
G1 X58.503 Y204.621 E.14507
G1 X55.618 Y202.135 E.13751
G1 X51.461 Y197.808 E.21664
G1 X49.965 Y196.061 E.08307
G1 X7.244 Y140.034 E2.54387
G1 X5.137 Y136.613 E.14507
G1 X3.748 Y132.843 E.14507
G1 X3.105 Y127.361 E.19929
G1 X3.762 Y122.508 E.17682
G1 X16.577 Y73.518 E1.82836
; printing object Soport (1) id:26275412580391704 copy 0
G1 E-1.2 F2400
;WIPE_START
G1 F9000
G1 X17.083 Y71.583
;WIPE_END
G1 X22.367 Y77.091 Z.6
G1 X51.761 Y107.73 Z.6
G1 Z.2
G1 E1.2 F1800
;TYPE:Inner wall
;WIDTH:0.499999
G1 X27.58 Y130.955 E1.21056
G1 X24.48 Y127.714 E.16197
G1 X40.559 Y112.269 E.80501
G1 X41.937 Y110.885 E.07051
G1 X43.379 Y109.627 E.06908
G1 X44.905 Y108.474 E.06908
G1 X46.509 Y107.43 E.06908
M73 P0 R122
M73 P0 R122
G1 X48.095 Y106.55 E.06551
G1 X49.917 Y105.692 E.07268
G1 X51.702 Y105.008 E.06903
G1 X53.532 Y104.45 E.06908
G1 X55.396 Y104.022 E.06908
G1 X57.287 Y103.725 E.06908
G1 X59.193 Y103.563 E.06908
G1 X61.121 Y103.534 E.06962
G1 X89.953 Y104.115 E1.04122
G1 X90.189 Y104.078 E.00863
G1 X90.442 Y103.923 E.0107
G1 X90.623 Y103.628 E.0125
G1 X90.652 Y103.443 E.00677
G1 X91.601 Y56.361 E1.70028
G1 X91.558 Y54.737 E.05867
G1 X91.363 Y53.103 E.05941
G1 X91.018 Y51.495 E.05936
G1 X90.525 Y49.927 E.05937
G1 X89.922 Y48.483 E.0565
G1 X89.116 Y46.959 E.06224
G1 X88.21 Y45.582 E.05953
G1 X87.182 Y44.298 E.05937
G2 X86.076 Y43.151 I-169.333 J162.11 E.05754
G1 X84.858 Y42.093 E.05825
G1 X83.52 Y41.132 E.05948
G1 X82.101 Y40.3 E.05938
G1 X80.611 Y39.604 E.05939
G1 X79.063 Y39.049 E.05939
G1 X77.47 Y38.639 E.05939
G1 X75.846 Y38.378 E.05939
G1 X74.224 Y38.27 E.05867
G1 X48.977 Y37.762 E.91175
G1 X49.058 Y33.277 E.16196
G1 X96.533 Y34.245 E1.71447
G1 X95.033 Y108.693 E2.68858
G2 X91.032 Y108.624 I-24.758 J1315.554 E.1445
G2 X88.218 Y108.888 I0 J15.139 E.10219
G1 X86.83 Y109.26 E.05189
G1 X85.492 Y109.785 E.05188
G1 X84.22 Y110.46 E.05198
G1 X83.091 Y111.227 E.0493
G1 X81.996 Y112.162 E.05197
G1 X81.017 Y113.211 E.05182
G1 X80.16 Y114.366 E.05195
G1 X79.438 Y115.609 E.05189
G2 X78.85 Y116.963 I117.367 J51.801 E.05328
G1 X78.437 Y118.299 E.05049
G1 X78.169 Y119.711 E.05189
G1 X78.062 Y121.143 E.05185
G1 X78.112 Y122.51 E.04939
G1 X78.319 Y123.931 E.05186
G1 X78.686 Y125.325 E.05203
G1 X79.206 Y126.664 E.05188
G1 X79.874 Y127.936 E.05189
G1 X80.681 Y129.126 E.05189
G1 X81.601 Y130.198 E.05101
G1 X104.547 Y154.088 E1.19601
G1 X70.309 Y186.974 E1.71408
G1 X67.202 Y183.739 E.16197
G1 X85.413 Y166.247 E.9117
G1 X86.531 Y165.068 E.05867
G1 X87.548 Y163.776 E.05939
G1 X88.441 Y162.394 E.05939
G1 X89.202 Y160.936 E.05939
G1 X89.825 Y159.414 E.05939
G1 X90.305 Y157.842 E.05936
G1 X90.623 Y156.308 E.05654
G1 X90.818 Y154.594 E.06229
G2 X90.847 Y153 I-232.441 J-5.074 E.05758
G1 X90.734 Y151.39 E.05825
G1 X90.467 Y149.764 E.05948
G1 X90.051 Y148.172 E.05943
G1 X89.457 Y146.553 E.06225
G1 X88.788 Y145.139 E.05649
G1 X87.952 Y143.723 E.05937
G1 X86.988 Y142.391 E.05939
G1 X85.918 Y141.168 E.05867
G1 X53.204 Y107.109 E1.70513
G1 X52.857 Y106.997 E.01315
G1 X52.602 Y107.025 E.00925
G1 X52.327 Y107.186 E.01151
G1 X51.79 Y107.702 E.0269
G1 X52.644 Y107.516 F9000
;TYPE:Outer wall
G1 F1800
G1 X27.567 Y131.602 E1.25544
G1 X23.834 Y127.7 E.19497
G1 X40.239 Y111.943 E.82129
G1 X41.625 Y110.551 E.0709
G1 X43.09 Y109.272 E.07024
G1 X44.642 Y108.099 E.07024
G1 X46.273 Y107.038 E.07024
G1 X47.887 Y106.142 E.06664
G1 X49.737 Y105.272 E.07384
G1 X51.553 Y104.575 E.07022
G1 X53.414 Y104.008 E.07024
G1 X55.31 Y103.573 E.07024
G1 X57.232 Y103.271 E.07024
G1 X59.17 Y103.106 E.07024
G1 X61.122 Y103.077 E.07049
G1 X89.962 Y103.658 E1.04151
G1 X90.125 Y103.594 E.00632
G1 X90.195 Y103.434 E.00631
G1 X91.143 Y56.362 E1.6999
G1 X91.102 Y54.77 E.05752
G1 X90.912 Y53.178 E.05788
G1 X90.575 Y51.612 E.05783
G1 X90.095 Y50.083 E.05785
G1 X89.508 Y48.678 E.055
G1 X88.723 Y47.192 E.0607
G1 X87.84 Y45.851 E.05797
G1 X86.838 Y44.6 E.05786
G2 X85.776 Y43.496 I-462.751 J443.955 E.05531
G1 X84.575 Y42.451 E.05748
G1 X83.271 Y41.515 E.05795
G1 X81.888 Y40.706 E.05785
G1 X80.436 Y40.027 E.05786
G1 X78.928 Y39.486 E.05786
G1 X77.376 Y39.087 E.05786
G1 X75.794 Y38.833 E.05786
G1 X74.204 Y38.727 E.05752
G1 X48.512 Y38.209 E.92784
G1 X48.61 Y32.816 E.19478
G1 X96.999 Y33.797 E1.74751
G1 X95.481 Y109.158 E2.72154
G1 X91.674 Y109.092 E.13746
M73 P1 R122
M73 P1 R122
G2 X89.669 Y109.132 I-.383 J30.515 E.07245
G1 X88.311 Y109.336 E.04956
G1 X86.973 Y109.695 E.05002
G1 X85.684 Y110.201 E.05002
G1 X84.457 Y110.852 E.05014
G1 X83.369 Y111.591 E.04748
G1 X82.313 Y112.493 E.05013
G1 X81.369 Y113.504 E.04996
G1 X80.542 Y114.618 E.05009
G1 X79.847 Y115.816 E.05002
G2 X79.287 Y117.098 I311.09 J136.64 E.05049
G1 X78.881 Y118.409 E.04956
G1 X78.623 Y119.77 E.05003
G1 X78.52 Y121.152 E.05001
G1 X78.567 Y122.468 E.04758
G1 X78.767 Y123.84 E.05003
G1 X79.121 Y125.183 E.05016
G1 X79.623 Y126.474 E.05002
G1 X80.267 Y127.701 E.05002
G1 X81.045 Y128.848 E.05002
G1 X81.94 Y129.891 E.04962
G1 X105.194 Y154.101 E1.21205
G1 X70.296 Y187.62 E1.74709
G1 X66.555 Y183.726 E.19497
G1 X85.088 Y165.925 E.92782
G1 X86.185 Y164.769 E.05752
G1 X87.176 Y163.51 E.05786
G1 X88.046 Y162.164 E.05786
G1 X88.787 Y160.744 E.05786
G1 X89.394 Y159.261 E.05786
G1 X89.861 Y157.728 E.05784
G1 X90.171 Y156.236 E.05503
G1 X90.361 Y154.563 E.06077
G2 X90.391 Y153.032 I-636.081 J-13.194 E.05532
G1 X90.28 Y151.443 E.05748
G1 X90.02 Y149.859 E.05795
G1 X89.615 Y148.309 E.05787
G1 X89.035 Y146.73 E.06071
G1 X88.384 Y145.354 E.05499
G1 X87.569 Y143.974 E.05785
G1 X86.63 Y142.676 E.05786
G1 X85.581 Y141.477 E.05752
G1 X52.967 Y107.522 E1.69989
G1 X52.82 Y107.453 E.00586
G1 X52.681 Y107.502 E.00532
G1 E-1.2 F2400
;WIPE_START
G1 F9000
G1 X51.238 Y108.887
;WIPE_END
G1 X55.228 Y102.381 Z.6
G1 X96.375 Y35.286 Z.6
G1 Z.2
G1 E1.2 F1800
;TYPE:Bottom surface
;WIDTH:0.500386
G1 F4800
G1 X95.659 Y34.57 E.03658
G1 X94.999 Y34.556 E.02387
G1 X96.16 Y35.718 E.05937
G1 X96.148 Y36.352 E.02292
G1 X94.338 Y34.543 E.09247
G1 X93.678 Y34.529 E.02387
G1 X96.135 Y36.987 E.12557
G1 X96.122 Y37.621 E.02292
G1 X93.017 Y34.516 E.15867
G1 X92.357 Y34.503 E.02387
G1 X96.109 Y38.255 E.19176
G1 X96.096 Y38.889 E.02292
G1 X91.696 Y34.489 E.22486
G1 X91.036 Y34.476 E.02387
G1 X96.084 Y39.523 E.25796
G1 X96.071 Y40.157 E.02292
G1 X90.376 Y34.462 E.29106
G1 X89.715 Y34.449 E.02387
G1 X96.058 Y40.792 E.32416
G1 X96.045 Y41.426 E.02292
G1 X89.055 Y34.435 E.35725
G1 X88.394 Y34.422 E.02387
G1 X96.033 Y42.06 E.39035
G1 X96.02 Y42.694 E.02292
G1 X87.734 Y34.408 E.42345
G1 X87.073 Y34.395 E.02387
G1 X96.007 Y43.328 E.45655
G1 X95.994 Y43.963 E.02292
G1 X86.413 Y34.381 E.48965
G1 X85.753 Y34.368 E.02387
G1 X95.981 Y44.597 E.52274
G1 X95.969 Y45.231 E.02292
G1 X85.092 Y34.354 E.55584
G1 X84.432 Y34.341 E.02387
G1 X95.956 Y45.865 E.58894
G1 X95.943 Y46.499 E.02292
G1 X83.771 Y34.327 E.62204
G1 X83.111 Y34.314 E.02387
G1 X95.93 Y47.133 E.65514
G1 X95.918 Y47.768 E.02292
G1 X82.451 Y34.301 E.68823
G1 X81.79 Y34.287 E.02387
G1 X95.905 Y48.402 E.72133
G1 X95.892 Y49.036 E.02292
G1 X81.13 Y34.274 E.75443
G1 X80.469 Y34.26 E.02387
G1 X95.879 Y49.67 E.78753
G1 X95.867 Y50.304 E.02292
G1 X79.809 Y34.247 E.82062
G1 X79.148 Y34.233 E.02387
G1 X95.854 Y50.938 E.85372
G1 X95.841 Y51.573 E.02292
G1 X78.488 Y34.22 E.88682
G1 X77.828 Y34.206 E.02387
G1 X95.828 Y52.207 E.91992
G1 X95.815 Y52.841 E.02292
G1 X88.74 Y45.766 E.36158
G1 X88.511 Y45.416 E.01513
G1 X87.466 Y44.104 E.06059
G1 X86.305 Y42.895 E.06058
G1 X85.036 Y41.798 E.06059
G1 X84.113 Y41.139 E.041
G1 X77.167 Y34.193 E.35499
G1 X76.507 Y34.179 E.02387
G1 X82.424 Y40.096 E.30239
G1 X82.222 Y39.979 E.00845
G1 X81.171 Y39.491 E.04186
G1 X75.846 Y34.166 E.27212
G1 X75.186 Y34.152 E.02387
G1 X80.085 Y39.051 E.25036
G1 X79.093 Y38.706 E.03795
G1 X74.525 Y34.139 E.23342
G1 X73.865 Y34.125 E.02387
G1 X78.219 Y38.479 E.2225
G2 X77.372 Y38.279 I-1.498 J4.456 E.03148
G1 X73.205 Y34.112 E.21298
G1 X72.544 Y34.098 E.02387
G1 X76.599 Y38.154 E.20723
G1 X75.837 Y38.038 E.02788
G1 X71.884 Y34.085 E.20201
G1 X71.223 Y34.072 E.02387
G1 X75.142 Y37.99 E.20027
G1 X74.448 Y37.943 E.02515
G1 X70.563 Y34.058 E.19853
G1 X69.902 Y34.045 E.02387
G1 X73.776 Y37.918 E.19797
G1 X73.116 Y37.905 E.02386
G1 X69.242 Y34.031 E.19798
G1 X68.582 Y34.018 E.02387
G1 X72.456 Y37.892 E.19798
G1 X71.795 Y37.878 E.02386
G1 X67.921 Y34.004 E.19799
G1 X67.261 Y33.991 E.02387
G1 X71.135 Y37.865 E.198
G1 X70.475 Y37.852 E.02386
G1 X66.6 Y33.977 E.19801
G1 X65.94 Y33.964 E.02387
G1 X69.815 Y37.839 E.19802
G1 X69.154 Y37.825 E.02386
G1 X65.279 Y33.95 E.19803
G1 X64.619 Y33.937 E.02387
G1 X68.494 Y37.812 E.19804
G1 X67.834 Y37.799 E.02386
G1 X63.959 Y33.923 E.19804
G1 X63.298 Y33.91 E.02387
G1 X67.174 Y37.785 E.19805
G1 X66.513 Y37.772 E.02386
G1 X62.638 Y33.896 E.19806
G1 X61.977 Y33.883 E.02387
G1 X65.853 Y37.759 E.19807
G1 X65.193 Y37.745 E.02386
G1 X61.317 Y33.869 E.19808
G1 X60.657 Y33.856 E.02387
G1 X64.533 Y37.732 E.19809
G1 X63.872 Y37.719 E.02386
G1 X59.996 Y33.843 E.1981
G1 X59.336 Y33.829 E.02387
G1 X63.212 Y37.706 E.1981
G1 X62.552 Y37.692 E.02386
G1 X58.675 Y33.816 E.19811
G1 X58.015 Y33.802 E.02387
G1 X61.892 Y37.679 E.19812
G1 X61.231 Y37.666 E.02386
G1 X57.354 Y33.789 E.19813
G1 X56.694 Y33.775 E.02387
G1 X60.571 Y37.652 E.19814
G1 X59.911 Y37.639 E.02386
G1 X56.034 Y33.762 E.19815
G1 X55.373 Y33.748 E.02387
G1 X59.251 Y37.626 E.19816
G1 X58.59 Y37.612 E.02386
G1 X54.713 Y33.735 E.19816
G1 X54.052 Y33.721 E.02387
G1 X57.93 Y37.599 E.19817
G1 X57.27 Y37.586 E.02386
G1 X53.392 Y33.708 E.19818
G1 X52.731 Y33.694 E.02387
G1 X56.61 Y37.573 E.19819
G1 X55.949 Y37.559 E.02386
G1 X52.071 Y33.681 E.1982
G1 X51.411 Y33.667 E.02387
G1 X55.289 Y37.546 E.19821
G1 X54.629 Y37.533 E.02386
G1 X50.75 Y33.654 E.19822
G1 X50.09 Y33.641 E.02387
G1 X53.969 Y37.519 E.19823
G1 X53.308 Y37.506 E.02386
G1 X49.429 Y33.627 E.19823
G1 X49.395 Y33.626 E.00124
G1 X49.384 Y34.229 E.02177
G1 X52.648 Y37.493 E.16681
G1 X51.988 Y37.479 E.02386
G1 X49.373 Y34.864 E.13365
G1 X49.361 Y35.5 E.02297
G1 X51.328 Y37.466 E.1005
G1 X50.667 Y37.453 E.02386
G1 X49.35 Y36.135 E.06734
G1 X49.338 Y36.771 E.02297
G1 X50.007 Y37.44 E.03419
G1 X49.347 Y37.426 E.02386
G1 X49.124 Y37.204 E.01136
G1 E-1.2 F2400
;WIPE_START
G1 F9000
G1 X49.347 Y37.426
G1 X50.007 Y37.44
G1 X49.338 Y36.771
G1 X49.339 Y36.691
;WIPE_END
G1 X56.733 Y38.587 Z.6
G1 X89.255 Y46.928 Z.6
G1 Z.2
G1 E1.2 F1800
G1 F4800
G1 X95.803 Y53.475 E.3346
G1 X95.79 Y54.109 E.02292
G1 X90.386 Y48.705 E.27619
G1 X90.844 Y49.811 E.04326
G1 X95.777 Y54.744 E.25209
G1 X95.764 Y55.378 E.02292
G1 X91.146 Y50.759 E.23602
G3 X91.4 Y51.66 I-4.719 J1.816 E.03386
G1 X95.752 Y56.012 E.2224
G1 X95.739 Y56.646 E.02292
G1 X91.577 Y52.484 E.21271
G3 X91.729 Y53.284 I-4.12 J1.201 E.02946
G1 X95.726 Y57.28 E.20425
G1 X95.713 Y57.914 E.02292
G1 X91.815 Y54.016 E.19921
G1 X91.901 Y54.749 E.02666
G1 X95.7 Y58.549 E.19418
G1 X95.688 Y59.183 E.02292
G1 X91.918 Y55.414 E.19263
G1 X91.935 Y56.077 E.024
G1 X95.675 Y59.817 E.19111
G1 X95.662 Y60.451 E.02292
G1 X91.936 Y56.725 E.19041
G1 X91.923 Y57.359 E.02292
