;TIME:5793.69
;Filament used:9.83563m
;Layer height:0.200
; HEADER_BLOCK_START
; generated by Creality_Print V6.0.5.1840 on 2025-03-27 at 08:49:51
; total layer number: 150
; filament_density: 1.24
; filament_diameter: 1.75
; max_z_height: 30.00
; HEADER_BLOCK_END

; MINX = 67.78
; MINY = 29.98
; MINZ = 0.00
; MAXX = 152.50
; MAXY = 189.98
; MAXZ = 30.00

; THUMBNAIL_BLOCK_START

;
; THUMBNAIL_BLOCK_END

; THUMBNAIL_BLOCK_START

;
; THUMBNAIL_BLOCK_END

; external perimeters extrusion width = 0.42mm
; perimeters extrusion width = 0.45mm
; infill extrusion width = 0.45mm
; solid infill extrusion width = 0.42mm
; top infill extrusion width = 0.42mm
; first layer extrusion width = 0.50mm

; EXECUTABLE_BLOCK_START
M73 P0 R96
M201 X5000 Y5000 Z500 E5000
M203 X500 Y500 Z30 E100
M204 P5000 R2500 T5000 ; sets acceleration (P, T) and retract acceleration (R), mm/sec^2
M205 X10.00 Y10.00 Z0.40 E5.00 ; sets the jerk limits, mm/sec
;TYPE:Custom
M220 S100 ;Reset Feedrate 
M221 S100 ;Reset Flowrate 
 
M140 S60 ;Set final bed temp 
G28 ;Home 
 
G92 E0 ;Reset Extruder 
G1 Z2.0 F3000 ;Move Z Axis up 
M104 S205 ;Set final nozzle temp 
G1 X-2.1 Y20 Z0.28 F5000.0 ;Move to start position 
M190 S60 ;Wait for bed temp to stabilize 
M109 S205 ;Wait for nozzle temp to stabilize 
G1 X-2.1 Y145.0 Z0.28 F1500.0 E15 ;Draw the first line 
G1 X-2.4 Y145.0 Z0.28 F5000.0 ;Move to side a little 
G1 X-2.4 Y20 Z0.28 F1500.0 E30 ;Draw the second line 
G92 E0  ;Reset Extruder 
G1 E-1.0000 F1800 ;Retract a bit 
G1 Z2.0 F3000 ;Move Z Axis up 
G1 E0.0000 F1800
G90
G21
M83 ; use relative distances for extrusion
" "
G1 E-1.2 F2400
M106 S0
;LAYER_CHANGE
;Z:0.2
;HEIGHT:0.2
;BEFORE_LAYER_CHANGE
;0.2
G92 E0

;_SET_FAN_SPEED_CHANGING_LAYER
M204 P500
M205 X10 Y10
M204 T500
G1 Z.4 F9000
G1 X77.665 Y28.051
G1 Z.2
G1 E1.2 F1800
;TYPE:Skirt
;WIDTH:0.5
G1 F3000
G1 X79.285 Y24.252 E.14912
G1 X81.606 Y20.836 E.14912
G1 X84.355 Y18.082 E.14048
G1 X87.752 Y15.733 E.14912
G1 X91.537 Y14.082 E.14912
G1 X95.57 Y13.19 E.14912
G1 X99.937 Y13.108 E.15771
G1 X148.765 Y17.205 E1.76919
G1 X152.828 Y17.947 E.14912
G1 X156.673 Y19.456 E.14912
G1 X160.155 Y21.676 E.14912
G1 X163.145 Y24.525 E.14912
G1 X165.532 Y27.895 E.14912
G1 X167.226 Y31.662 E.14912
G1 X168.333 Y37.652 E.21992
G1 X173.227 Y160.625 E4.44358
G1 X172.992 Y164.748 E.14912
G1 X171.968 Y168.749 E.14912
G1 X170.193 Y172.479 E.14912
G1 X167.735 Y175.797 E.14912
G1 X165.668 Y177.797 E.10385
G1 X132.063 Y206.199 E1.58866
G1 X128.666 Y208.548 E.14912
G1 X124.88 Y210.199 E.14912
G1 X120.848 Y211.092 E.14912
G1 X116.339 Y211.161 E.1628
G1 X112.276 Y210.42 E.14912
G1 X108.432 Y208.911 E.14912
G1 X104.95 Y206.69 E.14912
G1 X101.804 Y203.66 E.1577
G1 X51.455 Y144.087 E2.81627
G1 X49.106 Y140.69 E.14912
G1 X47.455 Y136.904 E.14912
G1 X46.562 Y132.872 E.14912
G1 X46.493 Y128.364 E.16278
G1 X47.413 Y123.707 E.17141
G1 X77.653 Y28.089 E3.6209
G1 X78.089 Y28.227 F9000
G1 F3000
G1 X78.101 Y28.189 E.00144
G1 X79.708 Y24.433 E.14751
G1 X82.014 Y21.06 E.14751
G1 X84.65 Y18.431 E.13442
G1 X88.013 Y16.111 E.14751
G1 X91.762 Y14.49 E.14751
G1 X95.756 Y13.628 E.14751
G1 X99.899 Y13.564 E.14959
G1 X148.727 Y17.661 E1.76919
G1 X152.745 Y18.398 E.14751
G1 X156.544 Y19.903 E.14751
G1 X159.977 Y22.118 E.14751
G1 X162.914 Y24.957 E.14751
G1 X165.243 Y28.314 E.14751
G1 X166.875 Y32.059 E.14751
G1 X167.876 Y37.67 E.20577
G1 X172.77 Y160.643 E4.44358
G1 X172.533 Y164.722 E.14751
G1 X171.508 Y168.676 E.14751
G1 X169.733 Y172.356 E.14751
G1 X167.277 Y175.621 E.14751
G1 X165.373 Y177.448 E.09528
G1 X131.768 Y205.85 E1.58866
G1 X128.405 Y208.17 E.14751
G1 X124.655 Y209.792 E.14751
G1 X120.661 Y210.654 E.14751
G1 X116.378 Y210.706 E.15468
G1 X112.359 Y209.968 E.14751
G1 X108.561 Y208.463 E.14751
G1 X105.128 Y206.249 E.14751
G1 X102.153 Y203.365 E.14958
G1 X51.804 Y143.792 E2.81627
G1 X49.484 Y140.429 E.14751
G1 X47.862 Y136.679 E.14751
G1 X47.001 Y132.686 E.14751
G1 X46.948 Y128.402 E.15467
G1 X47.849 Y123.844 E.16774
G1 X78.077 Y28.265 E3.61946
G1 X78.513 Y28.403 F9000
G1 F3000
G1 X78.537 Y28.327 E.00289
G1 X80.13 Y24.614 E.14589
G1 X82.422 Y21.286 E.14589
G1 X84.945 Y18.78 E.12839
G1 X88.273 Y16.49 E.14589
G1 X91.987 Y14.898 E.14589
G1 X95.941 Y14.067 E.14589
G1 X99.86 Y14.019 E.14153
G1 X148.689 Y18.116 E1.76919
G1 X152.662 Y18.85 E.14589
M73 P0 R95
M73 P0 R95
G1 X156.414 Y20.351 E.14589
G1 X159.797 Y22.559 E.14589
G1 X162.681 Y25.39 E.14589
G1 X164.952 Y28.732 E.14589
G1 X166.521 Y32.455 E.14589
G1 X167.419 Y37.688 E.19172
G1 X172.314 Y160.661 E4.44358
G1 X172.075 Y164.695 E.14589
G1 X171.048 Y168.602 E.14589
G1 X169.273 Y172.232 E.14589
G1 X166.819 Y175.442 E.14589
G1 X165.078 Y177.099 E.08678
G1 X131.473 Y205.501 E1.58866
G1 X128.144 Y207.792 E.14589
G1 X124.43 Y209.384 E.14589
G1 X120.476 Y210.214 E.14589
G1 X116.416 Y210.25 E.14661
G1 X112.442 Y209.517 E.14589
G1 X108.691 Y208.016 E.14589
G1 X105.307 Y205.807 E.14589
G1 X102.502 Y203.07 E.14151
G1 X52.153 Y143.497 E2.81627
G1 X49.862 Y140.169 E.14589
G1 X48.271 Y136.455 E.14589
G1 X47.44 Y132.501 E.14589
G1 X47.404 Y128.44 E.1466
G1 X48.284 Y123.982 E.16408
G1 X78.501 Y28.441 E3.61801
; printing object Soport_regleta v3.stl_1 id:8171063952611762432 copy 0
G1 E-1.2 F2400
;WIPE_START
G1 F9000
G1 X78.537 Y28.327
G1 X79.278 Y26.599
;WIPE_END
G1 X83.979 Y32.613 Z.6
G1 X139.184 Y103.241 Z.6
G1 Z.2
G1 E1.2 F1800
;TYPE:Inner wall
;WIDTH:0.499999
G1 X143.467 Y52.332 E1.84458
G1 X143.502 Y51.029 E.04707
G1 X143.388 Y49.706 E.04795
G1 X143.126 Y48.404 E.04794
G1 X142.717 Y47.139 E.04802
G1 X142.169 Y45.929 E.04796
G1 X141.488 Y44.788 E.04796
G1 X140.685 Y43.734 E.04787
G1 X139.863 Y42.866 E.04314
G1 X138.852 Y42.004 E.04799
G1 X137.636 Y41.199 E.05265
G1 X136.571 Y40.65 E.04325
G1 X135.332 Y40.174 E.0479
G1 X134.047 Y39.842 E.04795
G1 X132.756 Y39.659 E.04707
G1 X98.718 Y36.803 E1.23331
G1 X98.836 Y35.322 E.05365
G1 X146.053 Y39.284 E1.71081
G1 X140.493 Y105.537 E2.40054
G1 X128.908 Y104.565 E.41977
G1 X127.542 Y104.532 E.04931
G1 X126.158 Y104.662 E.05021
G1 X124.93 Y104.925 E.04535
G1 X123.485 Y105.405 E.05498
G1 X122.227 Y106.012 E.05042
G1 X121.055 Y106.759 E.05019
G1 X120.08 Y107.551 E.04535
G1 X119.014 Y108.642 E.05507
G1 X118.174 Y109.752 E.05026
G1 X117.534 Y110.831 E.04529
G1 X116.963 Y112.097 E.05015
G1 X116.545 Y113.424 E.05024
G1 X116.287 Y114.794 E.05034
G1 X116.195 Y116.317 E.05506
G1 X116.263 Y117.571 E.04535
G1 X116.496 Y118.943 E.05025
G1 X116.891 Y120.28 E.05035
G1 X117.507 Y121.673 E.05499
G1 X118.136 Y122.76 E.04533
G1 X118.954 Y123.853 E.0493
G1 X150.665 Y161.373 E1.77375
G1 X118.302 Y188.726 E1.52994
G1 X117.343 Y187.591 E.05365
G1 X139.61 Y168.771 E1.05267
G1 X140.557 Y167.875 E.04707
G1 X141.412 Y166.859 E.04795
G1 X142.146 Y165.753 E.04794
G1 X142.753 Y164.569 E.04802
G1 X143.221 Y163.326 E.04796
G1 X143.545 Y162.04 E.04789
G1 X143.712 Y160.857 E.04314
G1 X143.756 Y159.532 E.04787
G1 X143.65 Y158.207 E.04796
M73 P1 R95
M73 P1 R95
G1 X143.396 Y156.904 E.04796
G1 X142.995 Y155.635 E.04802
G1 X142.455 Y154.423 E.04794
G1 X141.781 Y153.278 E.04795
G1 X140.997 Y152.237 E.04707
G1 X102.149 Y106.271 E2.17299
G1 X101.426 Y105.453 E.03941
G1 X101.172 Y105.345 E.00997
G1 X100.85 Y105.357 E.01163
G1 X100.594 Y105.493 E.01048
G1 X69.887 Y131.446 E1.45165
G1 X68.931 Y130.324 E.05322
G1 X98.83 Y105.038 E1.41385
G1 X100.296 Y104.074 E.06334
G1 X101.581 Y103.376 E.05281
G1 X103.06 Y102.733 E.05821
G1 X104.734 Y102.181 E.06365
G1 X106.305 Y101.82 E.0582
G1 X107.902 Y101.598 E.05823
G1 X109.515 Y101.519 E.05828
G1 X111.145 Y101.583 E.05891
G1 X138.552 Y103.883 E.99304
G1 X138.953 Y103.715 E.01572
G1 X139.174 Y103.366 E.01491
G1 X139.181 Y103.28 E.00311
G1 X138.492 Y103.419 F9000
;TYPE:Outer wall
G1 F1800
G1 X138.658 Y103.366 E.00632
G1 X138.739 Y103.211 E.00632
G1 X143.01 Y52.307 E1.84439
G1 X143.044 Y51.043 E.04567
G1 X142.935 Y49.771 E.04608
G1 X142.683 Y48.52 E.04607
G1 X142.29 Y47.304 E.04615
G1 X141.764 Y46.141 E.04609
G1 X141.109 Y45.045 E.04609
G1 X140.336 Y44.03 E.04606
G1 X139.548 Y43.198 E.04138
G1 X138.576 Y42.37 E.0461
G1 X137.404 Y41.594 E.05076
G1 X136.384 Y41.067 E.04145
G1 X135.193 Y40.61 E.04606
G1 X133.957 Y40.291 E.04608
G1 X132.705 Y40.114 E.04567
G1 X98.226 Y37.221 E1.24927
G1 X98.416 Y34.834 E.08646
G1 X146.546 Y38.867 E1.74388
G1 X140.91 Y106.031 E2.43354
G1 X128.883 Y105.022 E.43579
G1 X127.558 Y104.989 E.04784
G1 X126.227 Y105.114 E.04826
G1 X125.05 Y105.366 E.04347
G1 X123.657 Y105.83 E.05301
G1 X122.45 Y106.412 E.04838
G1 X121.323 Y107.13 E.04827
G1 X120.388 Y107.889 E.04346
G1 X119.361 Y108.941 E.05308
G1 X118.554 Y110.007 E.04829
G1 X117.94 Y111.042 E.04344
G1 X117.391 Y112.26 E.04825
G1 X116.99 Y113.536 E.04828
G1 X116.741 Y114.851 E.04832
G1 X116.653 Y116.318 E.05308
G1 X116.718 Y117.52 E.04346
G1 X116.942 Y118.839 E.04832
G1 X117.321 Y120.122 E.04831
G1 X117.915 Y121.466 E.05302
G1 X118.518 Y122.507 E.04346
G1 X119.312 Y123.568 E.04784
G1 X151.309 Y161.427 E1.78976
G1 X118.248 Y189.37 E1.56295
G1 X116.698 Y187.537 E.08665
G1 X139.305 Y168.43 E1.06871
G1 X140.223 Y167.561 E.04567
G1 X141.045 Y166.584 E.04608
G1 X141.751 Y165.521 E.04607
G1 X142.334 Y164.384 E.04615
G1 X142.784 Y163.189 E.04609
G1 X143.096 Y161.952 E.04607
G1 X143.256 Y160.817 E.04138
G1 X143.298 Y159.542 E.04606
G1 X143.197 Y158.27 E.04609
G1 X142.952 Y157.017 E.04609
G1 X142.567 Y155.798 E.04615
G1 X142.048 Y154.632 E.04607
G1 X141.401 Y153.532 E.04608
G1 X140.64 Y152.522 E.04567
G1 X101.211 Y105.869 E2.20545
G1 X101.081 Y105.793 E.00543
G1 X100.889 Y105.842 E.00718
G1 X69.834 Y132.089 E1.46808
G1 X68.285 Y130.271 E.08622
G1 X98.556 Y104.671 E1.43142
G1 X100.061 Y103.682 E.06503
G1 X101.381 Y102.965 E.05422
G1 X102.896 Y102.305 E.05969
G1 X104.611 Y101.74 E.06517
G1 X106.222 Y101.37 E.05969
G1 X107.86 Y101.143 E.0597
G1 X109.512 Y101.062 E.05974
G1 X111.173 Y101.127 E.06
G1 X138.452 Y103.416 E.9884
G1 E-1.2 F2400
;WIPE_START
G1 F9000
G1 X138.658 Y103.366
G1 X138.739 Y103.211
G1 X138.873 Y101.604
;WIPE_END
G1 Z.6
G1 X144.894 Y39.325
G1 Z.6
G1 Z.2
G1 E1.2 F1800
;TYPE:Bottom surface
;WIDTH:0.50083
G1 F4800
G1 X145.642 Y40.073 E.03829
G1 X145.592 Y40.671 E.02169
G1 X144.412 Y39.491 E.06036
G1 X143.705 Y39.431 E.02566
G1 X145.542 Y41.268 E.09396
G1 X145.492 Y41.865 E.02169
G1 X142.998 Y39.372 E.12756
G1 X142.291 Y39.313 E.02566
G1 X145.442 Y42.463 E.16115
G1 X145.392 Y43.06 E.02169
G1 X141.585 Y39.253 E.19475
G1 X140.878 Y39.194 E.02566
G1 X145.342 Y43.658 E.22835
G1 X145.291 Y44.255 E.02169
G1 X140.171 Y39.135 E.26194
G1 X139.464 Y39.075 E.02566
G1 X145.241 Y44.853 E.29554
G1 X145.191 Y45.45 E.02169
G1 X138.757 Y39.016 E.32914
G1 X138.05 Y38.957 E.02566
G1 X145.141 Y46.048 E.36273
G1 X145.091 Y46.645 E.02169
G1 X137.343 Y38.897 E.39633
G1 X136.636 Y38.838 E.02566
G1 X145.041 Y47.243 E.42993
G1 X144.991 Y47.84 E.02169
G1 X141.812 Y44.661 E.1626
G1 X140.957 Y43.527 E.05137
G1 X140.062 Y42.585 E.04702
G1 X139.012 Y41.698 E.04971
G1 X138.539 Y41.388 E.02046
G1 X135.929 Y38.779 E.13348
G1 X135.222 Y38.719 E.02566
G1 X136.985 Y40.482 E.09017
G1 X136.664 Y40.318 E.01303
G1 X135.868 Y40.013 E.03083
G1 X134.516 Y38.66 E.06921
G1 X133.809 Y38.601 E.02566
G1 X134.927 Y39.719 E.0572
G1 X134.064 Y39.503 E.03217
G1 X133.102 Y38.541 E.04921
G1 X132.395 Y38.482 E.02566
G1 X133.307 Y39.394 E.04666
G2 X132.565 Y39.299 I-1.165 J6.168 E.02709
G1 X131.688 Y38.423 E.04484
G1 X130.981 Y38.363 E.02566
G1 X131.858 Y39.24 E.04484
G1 X131.151 Y39.181 E.02566
G1 X130.274 Y38.304 E.04484
G1 X129.567 Y38.245 E.02566
G1 X130.444 Y39.121 E.04484
G1 X129.737 Y39.062 E.02566
G1 X128.86 Y38.186 E.04484
G1 X128.153 Y38.126 E.02566
G1 X129.03 Y39.003 E.04484
G1 X128.323 Y38.943 E.02566
G1 X127.447 Y38.067 E.04484
G1 X126.74 Y38.008 E.02566
G1 X127.616 Y38.884 E.04484
G1 X126.909 Y38.825 E.02566
G1 X126.033 Y37.948 E.04484
G1 X125.326 Y37.889 E.02566
G1 X126.202 Y38.766 E.04484
G1 X125.496 Y38.706 E.02566
G1 X124.619 Y37.83 E.04484
G1 X123.912 Y37.77 E.02566
G1 X124.789 Y38.647 E.04484
G1 X124.082 Y38.588 E.02566
G1 X123.205 Y37.711 E.04484
G1 X122.498 Y37.652 E.02566
G1 X123.375 Y38.528 E.04484
G1 X122.668 Y38.469 E.02566
G1 X121.791 Y37.592 E.04484
G1 X121.084 Y37.533 E.02566
G1 X121.961 Y38.41 E.04484
G1 X121.254 Y38.35 E.02566
G1 X120.378 Y37.474 E.04484
G1 X119.671 Y37.414 E.02566
G1 X120.547 Y38.291 E.04484
G1 X119.84 Y38.232 E.02566
G1 X118.964 Y37.355 E.04484
G1 X118.257 Y37.296 E.02566
G1 X119.133 Y38.172 E.04484
G1 X118.427 Y38.113 E.02566
G1 X117.55 Y37.236 E.04484
G1 X116.843 Y37.177 E.02566
G1 X117.72 Y38.054 E.04484
G1 X117.013 Y37.994 E.02566
G1 X116.136 Y37.118 E.04484
G1 X115.429 Y37.058 E.02566
G1 X116.306 Y37.935 E.04484
G1 X115.599 Y37.876 E.02566
G1 X114.722 Y36.999 E.04484
G1 X114.015 Y36.94 E.02566
G1 X114.892 Y37.816 E.04484
G1 X114.185 Y37.757 E.02566
G1 X113.309 Y36.881 E.04484
G1 X112.602 Y36.821 E.02566
G1 X113.478 Y37.698 E.04484
G1 X112.771 Y37.638 E.02566
G1 X111.895 Y36.762 E.04484
G1 X111.188 Y36.703 E.02566
G1 X112.064 Y37.579 E.04484
G1 X111.358 Y37.52 E.02566
G1 X110.481 Y36.643 E.04484
G1 X109.774 Y36.584 E.02566
G1 X110.651 Y37.461 E.04484
G1 X109.944 Y37.401 E.02566
G1 X109.067 Y36.525 E.04484
G1 X108.36 Y36.465 E.02566
G1 X109.237 Y37.342 E.04484
G1 X108.53 Y37.283 E.02566
G1 X107.653 Y36.406 E.04484
G1 X106.946 Y36.347 E.02566
G1 X107.823 Y37.223 E.04484
G1 X107.116 Y37.164 E.02566
G1 X106.24 Y36.287 E.04484
G1 X105.533 Y36.228 E.02566
G1 X106.409 Y37.105 E.04484
G1 X105.702 Y37.045 E.02566
G1 X104.826 Y36.169 E.04484
G1 X104.119 Y36.109 E.02566
G1 X104.995 Y36.986 E.04484
G1 X104.289 Y36.927 E.02566
G1 X103.412 Y36.05 E.04484
G1 X102.705 Y35.991 E.02566
G1 X103.582 Y36.867 E.04484
G1 X102.875 Y36.808 E.02566
G1 X101.998 Y35.931 E.04484
G1 X101.291 Y35.872 E.02566
G1 X102.168 Y36.749 E.04484
G1 X101.461 Y36.689 E.02566
G1 X100.584 Y35.813 E.04484
G1 X99.877 Y35.754 E.02566
G1 X100.754 Y36.63 E.04484
G1 X100.047 Y36.571 E.02566
G1 X99.171 Y35.694 E.04484
G1 X99.15 Y35.692 E.00075
G1 X99.104 Y36.275 E.02113
G1 X99.566 Y36.737 E.02363
G1 E-1.2 F2400
;WIPE_START
G1 F9000
G1 X99.104 Y36.275
G1 X99.15 Y35.692
G1 X99.171 Y35.694
G1 X99.695 Y36.219
;WIPE_END
G1 X107.145 Y37.877 Z.6
G1 X142.177 Y45.674 Z.6
M73 P1 R94
M73 P1 R94
G1 Z.2
G1 E1.2 F1800
G1 F4800
G1 X144.94 Y48.437 E.14136
G1 X144.89 Y49.035 E.02169
G1 X143.11 Y47.255 E.09106
G1 X143.426 Y48.218 E.03665
G1 X144.84 Y49.632 E.07237
G1 X144.79 Y50.23 E.02169
G1 X143.597 Y49.037 E.06102
G1 X143.732 Y49.705 E.02467
G1 X143.742 Y49.83 E.00451
G1 X144.74 Y50.827 E.05103
G1 X144.69 Y51.425 E.02169
G1 X143.8 Y50.535 E.04552
G3 X143.84 Y51.222 I-3.094 J.523 E.02495
G1 X144.64 Y52.022 E.04093
G1 X144.59 Y52.62 E.02169
G1 X143.822 Y51.852 E.03928
G3 X143.799 Y52.476 I-5.642 J.103 E.02261
G1 X144.539 Y53.217 E.0379
G1 X144.489 Y53.814 E.02169
G1 X143.748 Y53.074 E.0379
G1 X143.698 Y53.671 E.02169
G1 X144.439 Y54.412 E.0379
G1 X144.389 Y55.009 E.02169
G1 X143.648 Y54.268 E.0379
G1 X143.598 Y54.866 E.02169
G1 X144.339 Y55.607 E.0379
G1 X144.289 Y56.204 E.02169
G1 X143.548 Y55.463 E.0379
G1 X143.498 Y56.061 E.02169
G1 X144.239 Y56.802 E.0379
G1 X144.188 Y57.399 E.02169
G1 X143.448 Y56.658 E.0379
G1 X143.397 Y57.256 E.02169
G1 X144.138 Y57.997 E.0379
G1 X144.088 Y58.594 E.02169
G1 X143.347 Y57.853 E.0379
G1 X143.297 Y58.451 E.02169
G1 X144.038 Y59.191 E.0379
G1 X143.988 Y59.789 E.02169
G1 X143.247 Y59.048 E.0379
G1 X143.197 Y59.646 E.02169
G1 X143.938 Y60.386 E.0379
G1 X143.888 Y60.984 E.02169
G1 X143.147 Y60.243 E.0379
G1 X143.097 Y60.84 E.02169
G1 X143.838 Y61.581 E.0379
G1 X143.787 Y62.179 E.02169
G1 X143.047 Y61.438 E.0379
G1 X142.996 Y62.035 E.02169
G1 X143.737 Y62.776 E.0379
G1 X143.687 Y63.374 E.02169
G1 X142.946 Y62.633 E.0379
G1 X142.896 Y63.23 E.02169
G1 X143.637 Y63.971 E.0379
G1 X143.587 Y64.569 E.02169
G1 X142.846 Y63.828 E.0379
G1 X142.796 Y64.425 E.02169
G1 X143.537 Y65.166 E.0379
G1 X143.487 Y65.763 E.02169
G1 X142.746 Y65.023 E.0379
G1 X142.696 Y65.62 E.02169
G1 X143.436 Y66.361 E.0379
G1 X143.386 Y66.958 E.02169
G1 X142.645 Y66.217 E.0379
G1 X142.595 Y66.815 E.02169
G1 X143.336 Y67.556 E.0379
G1 X143.286 Y68.153 E.02169
