;TIME:8650.50
;Filament used:28.08803m
;Layer height:0.200
; HEADER_BLOCK_START
; generated by Creality_Print V6.1.0.2041 on 2025-04-12 at 16:45:35
; total layer number: 12
; filament_density: 1.24
; filament_diameter: 1.75
; max_z_height: 3.92
; HEADER_BLOCK_END

; MINX = 6.50
; MINY = 0.00
; MINZ = 0.00
; MAXX = 213.50
; MAXY = 220.00
; MAXZ = 4.00

; THUMBNAIL_BLOCK_START

;
; THUMBNAIL_BLOCK_END

; THUMBNAIL_BLOCK_START

;
; THUMBNAIL_BLOCK_END

; external perimeters extrusion width = 0.42mm
; perimeters extrusion width = 0.45mm
; infill extrusion width = 0.45mm
; solid infill extrusion width = 0.42mm
; top infill extrusion width = 0.42mm
; first layer extrusion width = 0.50mm

; EXECUTABLE_BLOCK_START
M73 P0 R144
M201 X5000 Y5000 Z500 E5000
M203 X500 Y500 Z30 E100
M204 P5000 R2500 T5000 ; sets acceleration (P, T) and retract acceleration (R), mm/sec^2
M205 X10.00 Y10.00 Z0.40 E5.00 ; sets the jerk limits, mm/sec
;TYPE:Custom
M220 S100 ;Reset Feedrate 
M221 S100 ;Reset Flowrate 
 
M140 S60 ;Set final bed temp 
G28 ;Home 
 
G92 E0 ;Reset Extruder 
G1 Z2.0 F3000 ;Move Z Axis up 
M104 S205 ;Set final nozzle temp 
G1 X-2.1 Y20 Z0.28 F5000.0 ;Move to start position 
M190 S60 ;Wait for bed temp to stabilize 
M109 S205 ;Wait for nozzle temp to stabilize 
G1 X-2.1 Y145.0 Z0.28 F1500.0 E15 ;Draw the first line 
G1 X-2.4 Y145.0 Z0.28 F5000.0 ;Move to side a little 
G1 X-2.4 Y20 Z0.28 F1500.0 E30 ;Draw the second line 
G92 E0  ;Reset Extruder 
G1 E-1.0000 F1800 ;Retract a bit 
G1 Z2.0 F3000 ;Move Z Axis up 
G1 E0.0000 F1800
G90
G21
M83 ; use relative distances for extrusion
" "
G1 E-1.2 F2400
M106 S0
;LAYER_CHANGE
;Z:0.2
;HEIGHT:0.2
;BEFORE_LAYER_CHANGE
;0.2
G92 E0

;_SET_FAN_SPEED_CHANGING_LAYER
M204 P500
M205 X10 Y10
; printing object Tapa_Estanteria_Modular_ESUN id:15 copy 0
M204 T500
G1 Z.4 F9000
G1 X214.729 Y.229
G1 Z.2
M73 P0 R143
M73 P0 R143
G1 E1.2 F1800
;TYPE:Brim
;WIDTH:0.5
G1 X216.1 Y.229 E.04951
G1 X216.1 Y219.771 E7.92682
G1 X214.729 Y219.771 E.04951
G1 X214.729 Y.269 E7.92537
G1 X215.233 Y.719 F9000
G1 F1800
G1 X215.323 Y.686 E.00344
G1 X215.506 Y.686 E.0066
G1 X215.61 Y.733 E.00413
G1 X215.643 Y.823 E.00344
G1 X215.643 Y219.177 E7.88391
G1 X215.595 Y219.281 E.00413
G1 X215.506 Y219.314 E.00344
G1 X215.323 Y219.314 E.0066
G1 X215.219 Y219.267 E.00413
G1 X215.186 Y219.177 E.00344
G1 X215.186 Y.823 E7.88391
G1 X215.217 Y.755 E.00269
G1 E-1.2 F2400
;WIPE_START
G1 F1800
G1 X215.323 Y.686
G1 X215.506 Y.686
G1 X215.61 Y.733
G1 X215.643 Y.823
G1 X215.643 Y2.303
;WIPE_END
G1 X208.01 Y2.247 Z.6 F9000
G1 X5.271 Y.755 Z.6
G1 Z.2
G1 E1.2 F1800
G1 X5.271 Y219.771 E7.90781
G1 X3.9 Y219.771 E.04951
G1 X3.9 Y.229 E7.92682
G1 X5.271 Y.229 E.04951
G1 X5.271 Y.715 E.01757
G1 X4.814 Y.823 F9000
G1 F1800
G1 X4.814 Y219.177 E7.88391
G1 X4.767 Y219.281 E.00413
G1 X4.677 Y219.314 E.00344
G1 X4.494 Y219.314 E.0066
G1 X4.39 Y219.267 E.00413
G1 X4.357 Y219.177 E.00344
G1 X4.357 Y.823 E7.88391
G1 X4.405 Y.719 E.00413
M73 P0 R142
M73 P0 R142
G1 X4.494 Y.686 E.00344
G1 X4.677 Y.686 E.0066
G1 X4.781 Y.733 E.00413
G1 X4.8 Y.785 E.002
G1 E-1.2 F2400
;WIPE_START
G1 F9000
G1 X4.801 Y2.785
;WIPE_END
G1 X7.857 Y.857 Z.6
G1 Z.2
G1 E1.2 F1800
;TYPE:Inner wall
;WIDTH:0.499999
G1 X212.643 Y.857 E7.39399
G1 X212.643 Y219.143 E7.88142
G1 X7.357 Y219.143 E7.41204
M73 P1 R142
M73 P1 R142
G1 X7.357 Y.857 E7.88142
G1 X7.817 Y.857 E.01661
G1 E-1.2 F2400
;WIPE_START
G1 F9000
G1 X9.817 Y.857
;WIPE_END
G1 X6.9 Y.4 Z.6
G1 Z.2
G1 E1.2 F1800
;TYPE:Outer wall
G1 X213.1 Y.4 E7.44505
G1 X213.1 Y219.6 E7.91443
G1 X6.9 Y219.6 E7.44505
G1 X6.9 Y.44 E7.91298
G1 E-1.2 F2400
M73 P1 R141
;WIPE_START
M73 P1 R141
G1 F9000
G1 X8.9 Y.44
;WIPE_END
G1 Z.6
G1 X212.508 Y2.379
G1 Z.6
G1 Z.2
G1 E1.2 F1800
;TYPE:Sparse infill
;WIDTH:0.5
G1 X211.304 Y1.175 E.06147
G1 X208.426 Y1.175 E.10393
G1 X212.325 Y5.074 E.1991
G1 X212.325 Y7.953 E.10393
G1 X205.547 Y1.175 E.34608
G1 X202.669 Y1.175 E.10393
G1 X212.325 Y10.831 E.49306
G1 X212.325 Y13.709 E.10393
G1 X199.791 Y1.175 E.64004
G1 X196.912 Y1.175 E.10393
G1 X212.325 Y16.588 E.78702
G1 X212.325 Y19.466 E.10393
G1 X194.034 Y1.175 E.934
G1 X191.155 Y1.175 E.10393
G1 X212.325 Y22.345 E1.08098
G1 X212.325 Y25.223 E.10393
G1 X188.277 Y1.175 E1.22796
G1 X185.398 Y1.175 E.10393
G1 X212.325 Y28.102 E1.37494
G1 X212.325 Y30.98 E.10393
G1 X182.52 Y1.175 E1.52192
G1 X179.641 Y1.175 E.10393
G1 X212.325 Y33.859 E1.6689
G1 X212.325 Y36.737 E.10393
G1 X176.763 Y1.175 E1.81588
G1 X173.884 Y1.175 E.10393
G1 X212.325 Y39.616 E1.96286
G1 X212.325 Y42.494 E.10393
G1 X171.006 Y1.175 E2.10984
G1 X168.127 Y1.175 E.10393
G1 X212.325 Y45.373 E2.25682
G1 X212.325 Y48.251 E.10393
G1 X165.249 Y1.175 E2.4038
G1 X162.37 Y1.175 E.10393
G1 X212.325 Y51.13 E2.55078
G1 X212.325 Y54.008 E.10393
G1 X159.492 Y1.175 E2.69776
G1 X156.613 Y1.175 E.10393
G1 X212.325 Y56.887 E2.84474
G1 X212.325 Y59.765 E.10393
G1 X153.735 Y1.175 E2.99172
G1 X150.856 Y1.175 E.10393
G1 X212.325 Y62.644 E3.1387
G1 X212.325 Y65.522 E.10393
G1 X147.978 Y1.175 E3.28568
G1 X145.099 Y1.175 E.10393
G1 X212.325 Y68.401 E3.43266
G1 X212.325 Y71.279 E.10393
M73 P2 R141
M73 P2 R141
G1 X142.221 Y1.175 E3.57964
G1 X139.342 Y1.175 E.10393
G1 X212.325 Y74.158 E3.72662
G1 X212.325 Y77.036 E.10393
G1 X136.464 Y1.175 E3.8736
G1 X133.585 Y1.175 E.10393
G1 X212.325 Y79.915 E4.02058
G1 X212.325 Y82.793 E.10393
G1 X130.707 Y1.175 E4.16756
G1 X127.828 Y1.175 E.10393
M73 P2 R140
M73 P2 R140
G1 X212.325 Y85.672 E4.31454
G1 X212.325 Y88.55 E.10393
G1 X124.95 Y1.175 E4.46152
G1 X122.071 Y1.175 E.10393
G1 X212.325 Y91.429 E4.6085
G1 X212.325 Y94.307 E.10393
G1 X119.193 Y1.175 E4.75548
G1 X116.314 Y1.175 E.10393
G1 X212.325 Y97.186 E4.90246
G1 X212.325 Y100.064 E.10393
G1 X113.436 Y1.175 E5.04944
G1 X110.557 Y1.175 E.10393
G1 X212.325 Y102.943 E5.19642
G1 X212.325 Y105.821 E.10393
G1 X107.679 Y1.175 E5.3434
G1 X104.8 Y1.175 E.10393
G1 X212.325 Y108.7 E5.49038
G1 X212.325 Y111.578 E.10393
G1 X101.922 Y1.175 E5.63736
G1 X99.043 Y1.175 E.10393
G1 X212.325 Y114.457 E5.78434
G1 X212.325 Y117.335 E.10393
G1 X96.165 Y1.175 E5.93132
G1 X93.286 Y1.175 E.10393
M73 P2 R139
M73 P2 R139
G1 X212.325 Y120.214 E6.0783
G1 X212.325 Y123.092 E.10393
G1 X90.408 Y1.175 E6.22528
G1 X87.53 Y1.175 E.10393
M73 P3 R139
M73 P3 R139
G1 X212.325 Y125.97 E6.37226
G1 X212.325 Y128.849 E.10393
G1 X84.651 Y1.175 E6.51924
G1 X81.773 Y1.175 E.10393
G1 X212.325 Y131.727 E6.66622
G1 X212.325 Y134.606 E.10393
G1 X78.894 Y1.175 E6.8132
G1 X76.016 Y1.175 E.10393
G1 X212.325 Y137.484 E6.96019
G1 X212.325 Y140.363 E.10393
G1 X73.137 Y1.175 E7.10717
G1 X70.259 Y1.175 E.10393
G1 X212.325 Y143.241 E7.25415
G1 X212.325 Y146.12 E.10393
G1 X67.38 Y1.175 E7.40113
G1 X64.502 Y1.175 E.10393
M73 P3 R138
M73 P3 R138
G1 X212.325 Y148.998 E7.54811
G1 X212.325 Y151.877 E.10393
G1 X61.623 Y1.175 E7.69509
G1 X58.745 Y1.175 E.10393
G1 X212.325 Y154.755 E7.84207
G1 X212.325 Y157.634 E.10393
G1 X55.866 Y1.175 E7.98905
G1 X52.988 Y1.175 E.10393
G1 X212.325 Y160.512 E8.13603
G1 X212.325 Y163.391 E.10393
M73 P4 R138
M73 P4 R138
G1 X50.109 Y1.175 E8.28301
G1 X47.231 Y1.175 E.10393
G1 X212.325 Y166.269 E8.42999
G1 X212.325 Y169.148 E.10393
G1 X44.352 Y1.175 E8.57697
G1 X41.474 Y1.175 E.10393
M73 P4 R137
M73 P4 R137
G1 X212.325 Y172.026 E8.72395
G1 X212.325 Y174.905 E.10393
G1 X38.595 Y1.175 E8.87093
G1 X35.717 Y1.175 E.10393
G1 X212.325 Y177.783 E9.01791
G1 X212.325 Y180.662 E.10393
G1 X32.838 Y1.175 E9.16489
G1 X29.96 Y1.175 E.10393
G1 X212.325 Y183.54 E9.31187
G1 X212.325 Y186.419 E.10393
G1 X27.081 Y1.175 E9.45885
G1 X24.203 Y1.175 E.10393
G1 X212.325 Y189.297 E9.60583
G1 X212.325 Y192.176 E.10393
M73 P5 R136
M73 P5 R136
G1 X21.324 Y1.175 E9.75281
G1 X18.446 Y1.175 E.10393
G1 X212.325 Y195.054 E9.89979
G1 X212.325 Y197.933 E.10393
G1 X15.567 Y1.175 E10.04677
G1 X12.689 Y1.175 E.10393
G1 X212.325 Y200.811 E10.19375
G1 X212.325 Y203.69 E.10393
G1 X9.81 Y1.175 E10.34073
G1 X7.675 Y1.175 E.0771
G1 X7.675 Y1.918 E.02683
G1 X212.325 Y206.568 E10.44977
G1 X212.325 Y209.447 E.10393
M73 P5 R135
M73 P5 R135
G1 X7.675 Y4.796 E10.44977
G1 X7.675 Y7.675 E.10393
G1 X212.325 Y212.325 E10.44977
G1 X212.325 Y215.204 E.10393
G1 X7.675 Y10.553 E10.44977
G1 X7.675 Y13.432 E.10393
M73 P6 R135
M73 P6 R135
G1 X212.325 Y218.082 E10.44977
G1 X212.325 Y218.825 E.02683
G1 X210.19 Y218.825 E.0771
G1 X7.675 Y16.31 E10.34073
G1 X7.675 Y19.189 E.10393
G1 X207.311 Y218.825 E10.19375
G1 X204.433 Y218.825 E.10393
M73 P6 R134
M73 P6 R134
G1 X7.675 Y22.067 E10.04677
G1 X7.675 Y24.946 E.10393
G1 X201.554 Y218.825 E9.89979
G1 X198.676 Y218.825 E.10393
G1 X7.675 Y27.824 E9.75281
G1 X7.675 Y30.703 E.10393
G1 X195.797 Y218.825 E9.60583
G1 X192.919 Y218.825 E.10393
G1 X7.675 Y33.581 E9.45885
G1 X7.675 Y36.46 E.10393
G1 X190.04 Y218.825 E9.31187
G1 X187.162 Y218.825 E.10393
M73 P7 R134
M73 P7 R134
G1 X7.675 Y39.338 E9.16489
G1 X7.675 Y42.217 E.10393
M73 P7 R133
M73 P7 R133
G1 X184.283 Y218.825 E9.01791
G1 X181.405 Y218.825 E.10393
G1 X7.675 Y45.095 E8.87093
G1 X7.675 Y47.974 E.10393
G1 X178.526 Y218.825 E8.72395
G1 X175.648 Y218.825 E.10393
G1 X7.675 Y50.852 E8.57697
G1 X7.675 Y53.731 E.10393
G1 X172.769 Y218.825 E8.42999
G1 X169.891 Y218.825 E.10393
G1 X7.675 Y56.609 E8.28301
G1 X7.675 Y59.488 E.10393
G1 X167.012 Y218.825 E8.13603
G1 X164.134 Y218.825 E.10393
M73 P7 R132
M73 P7 R132
G1 X7.675 Y62.366 E7.98905
G1 X7.675 Y65.245 E.10393
G1 X161.255 Y218.825 E7.84207
G1 X158.377 Y218.825 E.10393
G1 X7.675 Y68.123 E7.69509
G1 X7.675 Y71.002 E.10393
M73 P8 R132
M73 P8 R132
G1 X155.498 Y218.825 E7.54811
G1 X152.62 Y218.825 E.10393
G1 X7.675 Y73.88 E7.40113
G1 X7.675 Y76.759 E.10393
G1 X149.741 Y218.825 E7.25415
G1 X146.863 Y218.825 E.10393
G1 X7.675 Y79.637 E7.10717
G1 X7.675 Y82.516 E.10393
G1 X143.984 Y218.825 E6.96019
G1 X141.106 Y218.825 E.10393
G1 X7.675 Y85.394 E6.8132
G1 X7.675 Y88.273 E.10393
M73 P8 R131
M73 P8 R131
G1 X138.227 Y218.825 E6.66622
G1 X135.349 Y218.825 E.10393
G1 X7.675 Y91.151 E6.51924
G1 X7.675 Y94.03 E.10393
G1 X132.47 Y218.825 E6.37226
G1 X129.592 Y218.825 E.10393
G1 X7.675 Y96.908 E6.22528
G1 X7.675 Y99.786 E.10393
G1 X126.714 Y218.825 E6.0783
G1 X123.835 Y218.825 E.10393
G1 X7.675 Y102.665 E5.93132
G1 X7.675 Y105.543 E.10393
G1 X120.957 Y218.825 E5.78434
G1 X118.078 Y218.825 E.10393
G1 X7.675 Y108.422 E5.63736
G1 X7.675 Y111.3 E.10393
M73 P9 R131
M73 P9 R131
G1 X115.2 Y218.825 E5.49038
G1 X112.321 Y218.825 E.10393
G1 X7.675 Y114.179 E5.3434
G1 X7.675 Y117.057 E.10393
M73 P9 R130
M73 P9 R130
G1 X109.443 Y218.825 E5.19642
G1 X106.564 Y218.825 E.10393
G1 X7.675 Y119.936 E5.04944
G1 X7.675 Y122.814 E.10393
G1 X103.686 Y218.825 E4.90246
G1 X100.807 Y218.825 E.10393
G1 X7.675 Y125.693 E4.75548
G1 X7.675 Y128.571 E.10393
G1 X97.929 Y218.825 E4.6085
G1 X95.05 Y218.825 E.10393
G1 X7.675 Y131.45 E4.46152
G1 X7.675 Y134.328 E.10393
G1 X92.172 Y218.825 E4.31454
G1 X89.293 Y218.825 E.10393
G1 X7.675 Y137.207 E4.16756
G1 X7.675 Y140.085 E.10393
G1 X86.415 Y218.825 E4.02058
G1 X83.536 Y218.825 E.10393
G1 X7.675 Y142.964 E3.8736
G1 X7.675 Y145.842 E.10393
G1 X80.658 Y218.825 E3.72662
G1 X77.779 Y218.825 E.10393
G1 X7.675 Y148.721 E3.57964
G1 X7.675 Y151.599 E.10393
G1 X74.901 Y218.825 E3.43266
G1 X72.022 Y218.825 E.10393
G1 X7.675 Y154.478 E3.28568
G1 X7.675 Y157.356 E.10393
G1 X69.144 Y218.825 E3.1387
G1 X66.265 Y218.825 E.10393
G1 X7.675 Y160.235 E2.99172
G1 X7.675 Y163.113 E.10393
M73 P9 R129
M73 P9 R129
G1 X63.387 Y218.825 E2.84474
G1 X60.508 Y218.825 E.10393
G1 X7.675 Y165.992 E2.69776
G1 X7.675 Y168.87 E.10393
G1 X57.63 Y218.825 E2.55078
G1 X54.751 Y218.825 E.10393
G1 X7.675 Y171.749 E2.4038
G1 X7.675 Y174.627 E.10393
G1 X51.873 Y218.825 E2.25682
G1 X48.994 Y218.825 E.10393
M73 P10 R129
M73 P10 R129
G1 X7.675 Y177.506 E2.10984
G1 X7.675 Y180.384 E.10393
G1 X46.116 Y218.825 E1.96286
G1 X43.237 Y218.825 E.10393
G1 X7.675 Y183.263 E1.81588
G1 X7.675 Y186.141 E.10393
G1 X40.359 Y218.825 E1.6689
G1 X37.48 Y218.825 E.10393
G1 X7.675 Y189.02 E1.52192
G1 X7.675 Y191.898 E.10393
G1 X34.602 Y218.825 E1.37494
G1 X31.723 Y218.825 E.10393
G1 X7.675 Y194.777 E1.22796
G1 X7.675 Y197.655 E.10393
G1 X28.845 Y218.825 E1.08098
G1 X25.966 Y218.825 E.10393
G1 X7.675 Y200.534 E.934
G1 X7.675 Y203.412 E.10393
G1 X23.088 Y218.825 E.78702
G1 X20.209 Y218.825 E.10393
G1 X7.675 Y206.291 E.64004
G1 X7.675 Y209.169 E.10393
G1 X17.331 Y218.825 E.49306
G1 X14.453 Y218.825 E.10393
G1 X7.675 Y212.047 E.34608
G1 X7.675 Y214.926 E.10393
G1 X11.574 Y218.825 E.1991
G1 X8.696 Y218.825 E.10393
G1 X7.492 Y217.621 E.06147
; stop printing object Tapa_Estanteria_Modular_ESUN id:15 copy 0
;TIME_ELAPSED:883.254211

M106 S255
;LAYER_CHANGE
;Z:0.446667
;HEIGHT:0.246667
;BEFORE_LAYER_CHANGE
;0.446667
G92 E0

G1 E-1.2 F2400
;WIPE_START
G1 F9000
G1 X8.696 Y218.825
G1 X8.993 Y218.825
;WIPE_END
;_SET_FAN_SPEED_CHANGING_LAYER
M204 P2500
; printing object Tapa_Estanteria_Modular_ESUN id:15 copy 0
M204 T2500
G1 X8.942 Y211.193 Z.6
G1 X7.542 Y.592 Z.6
G1 Z.447
G1 E1.2 F1800
M204 P2000
;TYPE:Inner wall
;WIDTH:0.449999
G1 F5400
G1 X212.908 Y.592 E7.94432
G1 X212.908 Y219.408 E8.46462
G1 X7.092 Y219.408 E7.96173
G1 X7.092 Y.592 E8.46462
G1 X7.502 Y.592 E.01586
G1 X6.71 Y.21 F9000
M204 P1000
;TYPE:Outer wall
;WIDTH:0.419999
G1 F3600
G1 X213.29 Y.21 E7.38751
G1 X213.29 Y219.79 E7.85241
G1 X6.71 Y219.79 E7.38751
G1 X6.71 Y.25 E7.85097
G1 E-1.2 F2400
;WIPE_START
G1 F9000
G1 X8.71 Y.25
;WIPE_END
G1 Z.847
G1 X9.179 Y.692
G1 Z.847
G1 Z.447
G1 E1.2 F1800
M204 P2500
;TYPE:Sparse infill
;WIDTH:0.45
G1 F6000
G1 X7.375 Y2.495 E.09867
G1 X7.375 Y5.374 E.11135
G1 X11.874 Y.875 E.24612
G1 X14.752 Y.875 E.11135
G1 X7.375 Y8.252 E.40359
G1 X7.375 Y11.131 E.11135
G1 X17.631 Y.875 E.56107
G1 X20.509 Y.875 E.11135
G1 X7.375 Y14.009 E.71854
G1 X7.375 Y16.888 E.11135
G1 X23.388 Y.875 E.87602
G1 X26.266 Y.875 E.11135
G1 X7.375 Y19.766 E1.03349
G1 X7.375 Y22.645 E.11135
G1 X29.145 Y.875 E1.19096
G1 X32.023 Y.875 E.11135
M73 P10 R128
M73 P10 R128
G1 X7.375 Y25.523 E1.34844
G1 X7.375 Y28.402 E.11135
G1 X34.902 Y.875 E1.50591
G1 X37.78 Y.875 E.11135
G1 X7.375 Y31.28 E1.66339
G1 X7.375 Y34.159 E.11135
G1 X40.659 Y.875 E1.82086
G1 X43.537 Y.875 E.11135
G1 X7.375 Y37.037 E1.97833
G1 X7.375 Y39.916 E.11135
G1 X46.416 Y.875 E2.13581
G1 X49.294 Y.875 E.11135
G1 X7.375 Y42.794 E2.29328
G1 X7.375 Y45.673 E.11135
G1 X52.173 Y.875 E2.45076
G1 X55.051 Y.875 E.11135
G1 X7.375 Y48.551 E2.60823
G1 X7.375 Y51.43 E.11135
G1 X57.93 Y.875 E2.7657
G1 X60.808 Y.875 E.11135
G1 X7.375 Y54.308 E2.92318
G1 X7.375 Y57.187 E.11135
G1 X63.687 Y.875 E3.08065
G1 X66.565 Y.875 E.11135
G1 X7.375 Y60.065 E3.23813
G1 X7.375 Y62.944 E.11135
G1 X69.444 Y.875 E3.3956
G1 X72.322 Y.875 E.11135
G1 X7.375 Y65.822 E3.55308
G1 X7.375 Y68.701 E.11135
G1 X75.201 Y.875 E3.71055
G1 X78.079 Y.875 E.11135
G1 X7.375 Y71.579 E3.86802
G1 X7.375 Y74.458 E.11135
G1 X80.958 Y.875 E4.0255
G1 X83.836 Y.875 E.11135
G1 X7.375 Y77.336 E4.18297
G1 X7.375 Y80.215 E.11135
G1 X86.715 Y.875 E4.34045
G1 X89.593 Y.875 E.11135
G1 X7.375 Y83.093 E4.49792
G1 X7.375 Y85.972 E.11135
G1 X92.472 Y.875 E4.65539
G1 X95.35 Y.875 E.11135
G1 X7.375 Y88.85 E4.81287
G1 X7.375 Y91.728 E.11135
G1 X98.229 Y.875 E4.97034
G1 X101.107 Y.875 E.11135
G1 X7.375 Y94.607 E5.12782
G1 X7.375 Y97.485 E.11135
G1 X103.986 Y.875 E5.28529
G1 X106.864 Y.875 E.11135
G1 X7.375 Y100.364 E5.44276
G1 X7.375 Y103.242 E.11135
G1 X109.742 Y.875 E5.60024
G1 X112.621 Y.875 E.11135
G1 X7.375 Y106.121 E5.75771
G1 X7.375 Y108.999 E.11135
G1 X115.499 Y.875 E5.91519
G1 X118.378 Y.875 E.11135
G1 X7.375 Y111.878 E6.07266
G1 X7.375 Y114.756 E.11135
G1 X121.256 Y.875 E6.23013
G1 X124.135 Y.875 E.11135
G1 X7.375 Y117.635 E6.38761
G1 X7.375 Y120.513 E.11135
G1 X127.013 Y.875 E6.54508
G1 X129.892 Y.875 E.11135
G1 X7.375 Y123.392 E6.70256
G1 X7.375 Y126.27 E.11135
G1 X132.77 Y.875 E6.86003
G1 X135.649 Y.875 E.11135
M73 P11 R128
M73 P11 R128
G1 X7.375 Y129.149 E7.0175
G1 X7.375 Y132.027 E.11135
G1 X138.527 Y.875 E7.17498
G1 X141.406 Y.875 E.11135
G1 X7.375 Y134.906 E7.33245
G1 X7.375 Y137.784 E.11135
G1 X144.284 Y.875 E7.48993
G1 X147.163 Y.875 E.11135
G1 X7.375 Y140.663 E7.6474
