;TIME:1445.26
;Filament used:1.84839m
;Layer height:0.200
; HEADER_BLOCK_START
; generated by Creality_Print V6.1.0.2041 on 2025-04-07 at 11:16:24
; total layer number: 30
; filament_density: 1.24
; filament_diameter: 1.75
; max_z_height: 6.00
; HEADER_BLOCK_END

; MINX = 94.00
; MINY = 79.50
; MINZ = 0.00
; MAXX = 126.00
; MAXY = 140.50
; MAXZ = 6.00

; THUMBNAIL_BLOCK_START

;
; THUMBNAIL_BLOCK_END

; THUMBNAIL_BLOCK_START

;
; THUMBNAIL_BLOCK_END

; external perimeters extrusion width = 0.42mm
; perimeters extrusion width = 0.45mm
; infill extrusion width = 0.45mm
; solid infill extrusion width = 0.42mm
; top infill extrusion width = 0.42mm
; first layer extrusion width = 0.50mm

; EXECUTABLE_BLOCK_START
M73 P0 R24
M201 X5000 Y5000 Z500 E5000
M203 X500 Y500 Z30 E100
M204 P5000 R2500 T5000 ; sets acceleration (P, T) and retract acceleration (R), mm/sec^2
M205 X10.00 Y10.00 Z0.40 E5.00 ; sets the jerk limits, mm/sec
;TYPE:Custom
M220 S100 ;Reset Feedrate 
M221 S100 ;Reset Flowrate 
 
M140 S60 ;Set final bed temp 
G28 ;Home 
 
G92 E0 ;Reset Extruder 
G1 Z2.0 F3000 ;Move Z Axis up 
M104 S205 ;Set final nozzle temp 
G1 X-2.1 Y20 Z0.28 F5000.0 ;Move to start position 
M190 S60 ;Wait for bed temp to stabilize 
M109 S205 ;Wait for nozzle temp to stabilize 
G1 X-2.1 Y145.0 Z0.28 F1500.0 E15 ;Draw the first line 
G1 X-2.4 Y145.0 Z0.28 F5000.0 ;Move to side a little 
G1 X-2.4 Y20 Z0.28 F1500.0 E30 ;Draw the second line 
G92 E0  ;Reset Extruder 
G1 E-1.0000 F1800 ;Retract a bit 
M73 P0 R23
M73 P0 R23
G1 Z2.0 F3000 ;Move Z Axis up 
G1 E0.0000 F1800
G90
G21
M83 ; use relative distances for extrusion
" "
G1 E-1.2 F2400
M106 S0
;LAYER_CHANGE
;Z:0.2
;HEIGHT:0.2
;BEFORE_LAYER_CHANGE
;0.2
G92 E0

;_SET_FAN_SPEED_CHANGING_LAYER
M204 P500
M205 X10 Y10
M204 T500
G1 Z.4 F9000
G1 X78.131 Y66.445
G1 Z.2
G1 E1.2 F1800
;TYPE:Skirt
;WIDTH:0.5
G1 F3000
G1 X80.706 Y63.835 E.13238
G1 X83.917 Y61.501 E.1433
G1 X87.104 Y59.895 E.12887
G1 X90.393 Y58.817 E.12496
G1 X94.01 Y58.219 E.13238
G1 X96 Y58.129 E.07192
G1 X124 Y58.129 E1.01097
G1 X125.677 Y58.195 E.06059
G1 X129.186 Y58.718 E.12812
G1 X132.796 Y59.853 E.13663
G1 X136.074 Y61.496 E.13238
G1 X139.055 Y63.631 E.13238
G1 X141.665 Y66.206 E.13239
G1 X143.84 Y69.158 E.13238
G1 X145.526 Y72.414 E.13238
G1 X146.731 Y76.093 E.13979
G1 X147.281 Y79.51 E.12497
G1 X147.371 Y81.5 E.07191
G1 X147.371 Y138.5 E2.05804
G1 X147.281 Y140.49 E.07191
M73 P1 R23
M73 P1 R23
G1 X146.756 Y143.802 E.12109
G1 X145.647 Y147.296 E.13238
G1 X143.84 Y150.842 E.14368
G1 X141.672 Y153.786 E.13199
G1 X139.137 Y156.299 E.12889
G1 X136.342 Y158.34 E.12496
G1 X133.086 Y160.026 E.13238
G1 X129.302 Y161.256 E.14367
G1 X125.99 Y161.781 E.12108
G1 X124 Y161.871 E.07192
G1 X96 Y161.871 E1.01097
G1 X94.01 Y161.781 E.07192
G1 X90.698 Y161.256 E.12108
G1 X87.204 Y160.147 E.13238
G1 X83.926 Y158.504 E.13239
G1 X80.945 Y156.369 E.13238
G1 X78.131 Y153.555 E.14368
G1 X75.996 Y150.574 E.13238
G1 X74.474 Y147.586 E.12108
G1 X73.317 Y144.107 E.13238
G1 X72.73 Y140.607 E.12813
G1 X72.629 Y138.5 E.07617
G1 X72.629 Y81.5 E2.05804
G1 X72.719 Y79.51 E.07191
G1 X73.244 Y76.198 E.12108
G1 X74.353 Y72.704 E.13238
G1 X76.16 Y69.158 E.14368
G1 X78.108 Y66.477 E.11964
G1 X78.476 Y66.745 F9000
G1 F3000
G1 X78.479 Y66.742 E.00015
G1 X81.003 Y64.182 E.12979
G1 X84.155 Y61.891 E.14071
G1 X87.281 Y60.316 E.12637
G1 X90.5 Y59.262 E.12229
G1 X94.046 Y58.675 E.12979
G1 X96 Y58.586 E.07062
G1 X124 Y58.586 E1.01097
G1 X125.641 Y58.65 E.05929
G1 X129.082 Y59.163 E.12562
G1 X132.622 Y60.276 E.13396
G1 X135.836 Y61.886 E.1298
G1 X138.758 Y63.979 E.12979
G1 X141.318 Y66.503 E.1298
G1 X143.45 Y69.397 E.12979
G1 X145.104 Y72.588 E.12979
G1 X146.287 Y76.202 E.13729
G1 X146.825 Y79.546 E.1223
G1 X146.914 Y81.5 E.07062
G1 X146.914 Y138.5 E2.05804
G1 X146.825 Y140.454 E.07062
G1 X146.312 Y143.695 E.1185
G1 X145.224 Y147.122 E.12979
G1 X143.45 Y150.603 E.14109
G1 X141.324 Y153.489 E.1294
G1 X138.838 Y155.953 E.12638
G1 X136.103 Y157.95 E.12229
G1 X132.911 Y159.604 E.12979
G1 X129.195 Y160.812 E.14108
G1 X125.954 Y161.325 E.11849
G1 X124 Y161.414 E.07062
G1 X96 Y161.414 E1.01097
G1 X94.046 Y161.325 E.07062
G1 X90.805 Y160.812 E.11849
G1 X87.378 Y159.724 E.12979
G1 X84.164 Y158.114 E.1298
G1 X81.242 Y156.021 E.12979
G1 X78.479 Y153.258 E.14109
G1 X76.386 Y150.336 E.12979
G1 X74.896 Y147.411 E.11849
G1 X73.762 Y144 E.12979
G1 X73.186 Y140.569 E.12562
G1 X73.086 Y138.5 E.0748
G1 X73.086 Y81.5 E2.05804
G1 X73.175 Y79.546 E.07062
G1 X73.688 Y76.305 E.11849
G1 X74.776 Y72.878 E.12979
G1 X76.55 Y69.397 E.14109
G1 X78.453 Y66.777 E.1169
G1 X78.821 Y67.045 F9000
G1 F3000
G1 X78.826 Y67.039 E.0003
G1 X81.3 Y64.53 E.1272
G1 X84.394 Y62.281 E.13812
G1 X87.458 Y60.738 E.12386
G1 X90.606 Y59.706 E.11962
G1 X94.082 Y59.131 E.1272
G1 X96 Y59.043 E.06932
G1 X124 Y59.043 E1.01097
G1 X125.605 Y59.106 E.058
G1 X128.978 Y59.608 E.12311
G1 X132.447 Y60.698 E.13129
G1 X135.597 Y62.275 E.12721
G1 X138.461 Y64.326 E.1272
G1 X140.97 Y66.8 E.12721
G1 X143.061 Y69.636 E.1272
G1 X144.682 Y72.763 E.1272
G1 X145.843 Y76.311 E.13478
G1 X146.369 Y79.582 E.11962
G1 X146.457 Y81.5 E.06932
G1 X146.457 Y138.5 E2.05804
G1 X146.369 Y140.418 E.06932
G1 X145.867 Y143.589 E.11591
G1 X144.802 Y146.947 E.1272
G1 X143.06 Y150.365 E.1385
G1 X140.977 Y153.192 E.12681
G1 X138.54 Y155.607 E.12387
G1 X135.864 Y157.561 E.11962
G1 X132.737 Y159.182 E.1272
G1 X129.089 Y160.367 E.13849
G1 X125.918 Y160.869 E.1159
G1 X124 Y160.957 E.06932
G1 X96 Y160.957 E1.01097
G1 X94.082 Y160.869 E.06932
G1 X90.912 Y160.367 E.1159
G1 X87.553 Y159.302 E.1272
G1 X84.403 Y157.725 E.12721
G1 X81.539 Y155.674 E.1272
G1 X78.826 Y152.961 E.1385
G1 X76.775 Y150.097 E.1272
M73 P2 R23
M73 P2 R23
G1 X75.318 Y147.237 E.11591
G1 X74.206 Y143.894 E.1272
G1 X73.641 Y140.531 E.12311
G1 X73.543 Y138.5 E.07342
G1 X73.543 Y81.5 E2.05804
G1 X73.631 Y79.582 E.06932
G1 X74.133 Y76.412 E.1159
G1 X75.198 Y73.053 E.1272
G1 X76.939 Y69.636 E.1385
G1 X78.798 Y67.078 E.11416
; printing object Tapa TypeC.STL id:458752 copy 0
G1 E-1.2 F2400
;WIPE_START
G1 F9000
G1 X78.826 Y67.039
G1 X80.197 Y65.649
;WIPE_END
G1 X85.749 Y70.886 Z.6
G1 X95.837 Y80.4 Z.6
G1 Z.2
G1 E1.2 F1800
;TYPE:Inner wall
;WIDTH:0.499999
G1 X96.061 Y80.357 E.00823
G1 X124.168 Y80.379 E1.01485
G1 X124.516 Y80.491 E.01317
G1 X124.825 Y80.715 E.01378
G1 X125.075 Y81.142 E.01787
G1 X125.143 Y81.666 E.01908
G1 X125.143 Y138.498 E2.05198
G1 X125.01 Y139.015 E.01927
G1 X124.807 Y139.295 E.0125
G1 X124.513 Y139.511 E.01314
G3 X123.966 Y139.643 I-.857 J-2.343 E.02036
G1 X96.002 Y139.643 E1.00968
G1 X95.485 Y139.51 E.01926
G1 X95.198 Y139.302 E.01281
G1 X94.99 Y139.014 E.01282
G3 X94.857 Y138.464 I2.315 J-.849 E.02048
G1 X94.857 Y81.502 E2.05668
G1 X94.99 Y80.985 E.01926
G1 X95.199 Y80.698 E.01282
G1 X95.561 Y80.452 E.01582
G1 X95.798 Y80.407 E.00868
G1 X95.122 Y80.188 F9000
;TYPE:Outer wall
G1 F1800
G1 X95.18 Y80.146 E.00258
G3 X95.498 Y79.983 I1.239 J2.024 E.0129
G1 X96.025 Y79.9 E.01929
G1 X124.24 Y79.922 E1.01872
G1 X124.725 Y80.078 E.01839
G1 X125.212 Y80.465 E.02247
G1 X125.515 Y80.998 E.02212
G1 X125.6 Y81.666 E.02432
G1 X125.6 Y138.678 E2.05848
G1 X125.422 Y139.225 E.02075
G1 X125.135 Y139.622 E.01769
G1 X124.724 Y139.923 E.01838
G1 X124.24 Y140.08 E.01838
G1 X123.984 Y140.1 E.00927
G1 X95.822 Y140.1 E1.01683
G1 X95.275 Y139.922 E.02075
G1 X94.871 Y139.629 E.01803
G1 X94.577 Y139.225 E.01804
G1 X94.422 Y138.749 E.01806
G1 X94.4 Y138.483 E.00964
G1 X94.4 Y81.322 E2.06387
G1 X94.578 Y80.775 E.02075
M73 P3 R23
M73 P3 R23
G1 X94.871 Y80.371 E.01804
G1 X95.09 Y80.212 E.00977
G1 E-1.2 F2400
;WIPE_START
G1 F9000
G1 X95.18 Y80.146
G1 X95.498 Y79.983
G1 X96.025 Y79.9
G1 X97.023 Y79.901
;WIPE_END
G1 X102.499 Y85.217 Z.6
G1 X122.372 Y104.509 Z.6
G1 Z.2
G1 E1.2 F1800
;TYPE:Inner wall
G1 X122.462 Y104.59 E.00439
G3 X122.657 Y105.055 I-.569 J.512 E.01855
G1 X122.657 Y108.671 E.13056
G1 X122.606 Y108.93 E.00953
G3 X122.305 Y109.271 I-.635 J-.259 E.01674
G1 X121.971 Y109.357 E.01242
G1 X118.355 Y109.357 E.13056
G1 X118.048 Y109.284 E.0114
G1 X117.871 Y109.156 E.00791
G1 X117.634 Y108.722 E.01785
G1 X117.583 Y108.496 E.00838
G1 X117.623 Y108.227 E.00983
G1 X117.783 Y107.975 E.01076
G1 X121.275 Y104.483 E.17831
G1 X121.527 Y104.323 E.01076
G1 X121.796 Y104.283 E.00983
G1 X122.296 Y104.452 E.01907
G1 X122.34 Y104.485 E.00198
G1 X121.772 Y104.739 F9000
;TYPE:Outer wall
G1 F1800
G1 X122.137 Y104.898 E.01439
G1 X122.2 Y105.055 E.00611
G1 X122.2 Y108.671 E.13056
G1 X122.139 Y108.827 E.00603
G1 X121.971 Y108.9 E.0066
G1 X118.355 Y108.9 E.13056
G1 X118.194 Y108.833 E.00632
G1 X118.039 Y108.472 E.01418
G1 X118.106 Y108.298 E.00672
G1 X121.598 Y104.806 E.17831
G1 X121.734 Y104.754 E.00527
G1 E-1.2 F2400
;WIPE_START
G1 F9000
G1 X122.137 Y104.898
G1 X122.2 Y105.055
G1 X122.2 Y106.458
;WIPE_END
G1 X114.659 Y107.636 Z.6
G1 X109.1 Y108.504 Z.6
G1 Z.2
G1 E1.2 F1800
;TYPE:Inner wall
G1 X109.098 Y108.496 E.00029
G1 X109.138 Y108.227 E.00983
G1 X109.298 Y107.975 E.01076
G1 X121.275 Y95.998 E.61158
G1 X121.571 Y95.823 E.01239
G1 X121.93 Y95.818 E.01299
G1 X122.287 Y95.961 E.01387
G3 X122.657 Y96.57 I-.393 J.656 E.02676
G1 X122.657 Y100.291 E.13435
G1 X122.601 Y100.564 E.01004
G1 X122.456 Y100.776 E.00928
G1 X114.076 Y109.156 E.42791
G1 X113.859 Y109.302 E.00944
G1 X113.572 Y109.357 E.01057
G1 X109.87 Y109.357 E.13365
G1 X109.583 Y109.294 E.01063
G1 X109.385 Y109.156 E.00868
G1 X109.149 Y108.722 E.01785
G1 X109.108 Y108.543 E.00664
G1 X109.659 Y108.759 F9000
;TYPE:Outer wall
G1 F1800
G1 X109.554 Y108.472 E.01103
G1 X109.621 Y108.298 E.00672
G1 X121.598 Y96.321 E.61158
G1 X121.697 Y96.263 E.00413
G1 X121.847 Y96.271 E.00544
G1 X122.135 Y96.411 E.01157
G1 X122.2 Y96.57 E.0062
G1 X122.2 Y100.291 E.13435
G1 X122.133 Y100.453 E.00632
G1 X113.753 Y108.833 E.42791
G1 X113.591 Y108.9 E.00632
G1 X109.87 Y108.9 E.13435
G1 X109.774 Y108.879 E.00354
G1 X109.687 Y108.788 E.00456
G1 E-1.2 F2400
;WIPE_START
G1 F9000
G1 X109.554 Y108.472
G1 X109.621 Y108.298
G1 X110.661 Y107.258
;WIPE_END
G1 X105.888 Y113.213 Z.6
G1 X102.711 Y117.176 Z.6
G1 Z.2
G1 E1.2 F1800
;TYPE:Inner wall
;WIDTH:0.461269
G1 X102.718 Y117.114 E.00206
;WIDTH:0.499999
G1 X102.745 Y116.837 E.01005
G3 X103.16 Y116.026 I3.704 J1.383 E.03296
G1 X103.67 Y115.561 E.02492
G1 X103.868 Y115.44 E.00837
G1 X104.392 Y115.229 E.02041
G1 X104.618 Y115.18 E.00836
G1 X105.182 Y115.156 E.02036
G1 X105.723 Y115.257 E.01988
G3 X106.489 Y115.681 I-1.397 J3.424 E.0317
G1 X106.88 Y116.088 E.02038
G1 X107.137 Y116.504 E.01765
G1 X107.22 Y116.848 E.01276
;WIDTH:0.473521
G1 X107.304 Y117.191 E.01202
;WIDTH:0.447043
G1 X107.31 Y117.75 E.01785
;WIDTH:0.467243
G1 X107.249 Y118.056 E.01045
;WIDTH:0.499999
G3 X107.092 Y118.573 I-1.199 J-.082 E.01967
G1 X106.775 Y119.041 E.02041
G1 X106.615 Y119.209 E.00838
G1 X106.161 Y119.544 E.02039
G1 X105.615 Y119.753 E.0211
G1 X105.399 Y119.78 E.00785
;WIDTH:0.46392
G1 X105.183 Y119.808 E.00723
;WIDTH:0.454347
G1 X104.59 Y119.795 E.01928
;WIDTH:0.499999
G1 X104.2 Y119.694 E.01454
G1 X103.716 Y119.476 E.01917
G1 X103.362 Y119.186 E.01653
G1 X103.012 Y118.754 E.02005
G3 X102.702 Y117.944 I2.651 J-1.478 E.03142
;WIDTH:0.467042
G1 X102.69 Y117.391 E.01855
;WIDTH:0.461269
G1 X102.707 Y117.215 E.00582
G1 X102.291 Y117.756 F9000
;WIDTH:0.465083
G1 F1800
G1 X102.288 Y117.84 E.0028
;WIDTH:0.496978
G1 X102.263 Y118.148 E.01111
;WIDTH:0.499999
G1 X102.092 Y118.573 E.01653
G1 X101.782 Y119.033 E.02005
G1 X101.611 Y119.209 E.00882
G1 X101.161 Y119.544 E.02029
G1 X100.954 Y119.649 E.00837
G1 X100.407 Y119.796 E.02043
;WIDTH:0.462282
G1 X99.62 Y119.796 E.02609
;WIDTH:0.489255
G1 X99.394 Y119.766 E.00802
;WIDTH:0.499999
G1 X98.868 Y119.56 E.02041
G1 X98.67 Y119.439 E.00837
G1 X98.246 Y119.066 E.02039
G1 X97.972 Y118.699 E.01655
G1 X97.705 Y118.011 E.02663
G1 X97.666 Y117.783 E.00837
G1 X97.666 Y117.217 E.02041
G1 X97.705 Y116.989 E.00836
G1 X97.893 Y116.456 E.02039
G1 X98.006 Y116.254 E.00837
G1 X98.362 Y115.814 E.02042
G1 X98.536 Y115.661 E.00837
G1 X99.016 Y115.365 E.02038
G1 X99.532 Y115.19 E.01967
G1 X100.182 Y115.156 E.02349
G1 X100.658 Y115.236 E.01742
G1 X101.303 Y115.543 E.0258
G1 X101.489 Y115.681 E.00837
G1 X101.88 Y116.088 E.02037
G1 X102.166 Y116.571 E.02027
G1 X102.313 Y117.19 E.02295
;WIDTH:0.465083
G1 X102.293 Y117.716 E.01755
G1 X101.87 Y117.234 F9000
;TYPE:Outer wall
;WIDTH:0.499999
G1 F1800
G1 X101.887 Y117.301 E.00247
G3 X101.834 Y117.997 I-5.479 J-.071 E.02522
G1 X101.713 Y118.317 E.01238
G1 X101.402 Y118.778 E.02005
G1 X100.89 Y119.176 E.02345
G1 X100.279 Y119.377 E.0232
G1 X99.638 Y119.363 E.02316
G1 X99.038 Y119.136 E.02316
G1 X98.549 Y118.723 E.02313
G1 X98.324 Y118.391 E.01446
G1 X98.136 Y117.859 E.02038
G1 X98.123 Y117.217 E.02316
G1 X98.324 Y116.609 E.02315
G1 X98.717 Y116.101 E.02318
G1 X99.256 Y115.754 E.02313
G1 X99.639 Y115.637 E.01446
G1 X100.201 Y115.613 E.02033
G1 X100.593 Y115.697 E.01448
G1 X101.097 Y115.951 E.02037
G1 X101.55 Y116.405 E.02313
G1 X101.745 Y116.754 E.01447
G1 X101.86 Y117.196 E.01646
G1 E-1.2 F2400
;WIPE_START
G1 F9000
G1 X101.887 Y117.301
G1 X101.834 Y117.997
G1 X101.713 Y118.317
G1 X101.402 Y118.778
G1 X101.169 Y118.959
;WIPE_END
G1 X99.193 Y120.313 Z.6
G1 Z.2
G1 E1.2 F1800
;TYPE:Inner wall
G1 X99.394 Y120.234 E.00778
;WIDTH:0.489255
G1 X99.789 Y120.213 E.01395
;WIDTH:0.458528
G1 X100.184 Y120.192 E.01299
;WIDTH:0.462369
G1 X100.408 Y120.204 E.00741
;WIDTH:0.499999
G1 X100.954 Y120.351 E.02042
G1 X101.165 Y120.458 E.00854
G1 X101.619 Y120.795 E.02041
G1 X101.964 Y121.196 E.0191
G1 X102.286 Y121.957 E.02985
;WIDTH:0.486246
G1 X102.3 Y122.272 E.01101
;WIDTH:0.458186
G1 X102.315 Y122.586 E.01032
;WIDTH:0.456935
G1 X102.299 Y122.816 E.00753
;WIDTH:0.483744
G1 X102.284 Y123.045 E.00802
;WIDTH:0.499999
G3 X101.881 Y123.911 I-3.224 J-.977 E.03459
G1 X101.49 Y124.319 E.02039
G1 X101.111 Y124.577 E.01655
G1 X100.408 Y124.796 E.02661
;WIDTH:0.462369
G1 X99.62 Y124.796 E.02611
;WIDTH:0.489256
G1 X99.394 Y124.766 E.00802
;WIDTH:0.499999
G1 X98.868 Y124.561 E.02038
G1 X98.413 Y124.243 E.02006
G3 X97.9 Y123.554 I2.685 J-2.538 E.03108
G1 X97.707 Y123.015 E.02069
G1 X97.642 Y122.499 E.01875
G1 X97.745 Y121.837 E.02421
G1 X97.821 Y121.62 E.0083
G1 X98.099 Y121.117 E.02072
G1 X98.247 Y120.934 E.0085
G1 X98.67 Y120.561 E.02038
G1 X98.868 Y120.44 E.00837
G1 X99.156 Y120.327 E.01118
G1 X98.995 Y120.895 F9000
;TYPE:Outer wall
G1 F1800
G1 X99.562 Y120.653 E.02226
G1 X100.202 Y120.613 E.02315
G1 X100.82 Y120.788 E.02318
G1 X101.342 Y121.159 E.02313
G1 X101.594 Y121.47 E.01446
G1 X101.846 Y122.059 E.02313
G1 X101.894 Y122.622 E.02038
G1 X101.826 Y123.016 E.01446
G1 X101.594 Y123.531 E.02038
G1 X101.16 Y124.002 E.02311
G1 X100.819 Y124.212 E.01448
G1 X100.279 Y124.377 E.02038
G1 X99.638 Y124.363 E.02316
G1 X99.039 Y124.136 E.02313
G1 X98.715 Y123.896 E.01455
G1 X98.367 Y123.467 E.01995
G1 X98.137 Y122.861 E.02342
G1 X98.103 Y122.461 E.01449
G1 X98.196 Y121.913 E.02005
G1 X98.499 Y121.339 E.02345
G1 X98.961 Y120.915 E.02265
G1 E-1.2 F2400
;WIPE_START
G1 F9000
G1 X99.562 Y120.653
G1 X100.202 Y120.613
G1 X100.82 Y120.788
G1 X100.87 Y120.824
;WIPE_END
G1 X107.156 Y123.397 Z.6
G1 Z.2
G1 E1.2 F1800
;TYPE:Inner wall
G1 X107.01 Y123.719 E.01277
G1 X106.881 Y123.911 E.00837
G1 X106.49 Y124.319 E.02039
G1 X106.111 Y124.577 E.01655
G1 X105.615 Y124.753 E.01902
G1 X105.399 Y124.78 E.00785
;WIDTH:0.46392
G1 X105.183 Y124.808 E.00723
;WIDTH:0.451844
G1 X104.619 Y124.796 E.01822
;WIDTH:0.489256
G1 X104.394 Y124.766 E.00802
;WIDTH:0.499999
G1 X103.868 Y124.56 E.0204
G1 X103.487 Y124.306 E.01654
G1 X103.012 Y123.754 E.02627
G1 X102.9 Y123.554 E.0083
G1 X102.714 Y123.011 E.02072
;WIDTH:0.483744
G1 X102.694 Y122.217 E.02764
;WIDTH:0.486246
G1 X102.712 Y121.991 E.00794
;WIDTH:0.499999
G1 X102.893 Y121.456 E.0204
G3 X103.428 Y120.742 I3.341 J1.946 E.03229
G3 X104.175 Y120.293 I2.481 J3.278 E.03151
G1 X104.62 Y120.204 E.0164
;WIDTH:0.451809
G1 X105.185 Y120.192 E.01823
;WIDTH:0.463888
G1 X105.41 Y120.212 E.00752
;WIDTH:0.499999
G1 X105.635 Y120.231 E.00816
G1 X106.243 Y120.513 E.0242
G1 X106.49 Y120.681 E.01078
G1 X106.88 Y121.088 E.02036
