;TIME:4023.11
;Filament used:19.48693m
;Layer height:0.200
; HEADER_BLOCK_START
; generated by Creality_Print V6.1.0.2041 on 2025-04-08 at 23:05:27
; total layer number: 15
; filament_density: 1.24
; filament_diameter: 1.75
; max_z_height: 4.94
; HEADER_BLOCK_END

; MINX = 0.00
; MINY = 5.50
; MINZ = 0.00
; MAXX = 220.00
; MAXY = 220.00
; MAXZ = 5.00

; THUMBNAIL_BLOCK_START

;
; THUMBNAIL_BLOCK_END

; THUMBNAIL_BLOCK_START

;
; THUMBNAIL_BLOCK_END

; external perimeters extrusion width = 0.42mm
; perimeters extrusion width = 0.45mm
; infill extrusion width = 0.45mm
; solid infill extrusion width = 0.42mm
; top infill extrusion width = 0.42mm
; first layer extrusion width = 0.50mm

; EXECUTABLE_BLOCK_START
M73 P0 R67
M201 X5000 Y5000 Z500 E5000
M203 X500 Y500 Z30 E100
M204 P5000 R2500 T5000 ; sets acceleration (P, T) and retract acceleration (R), mm/sec^2
M205 X10.00 Y10.00 Z0.40 E5.00 ; sets the jerk limits, mm/sec
;TYPE:Custom
M220 S100 ;Reset Feedrate 
M221 S100 ;Reset Flowrate 
 
M140 S60 ;Set final bed temp 
G28 ;Home 
 
G92 E0 ;Reset Extruder 
G1 Z2.0 F3000 ;Move Z Axis up 
M104 S205 ;Set final nozzle temp 
G1 X-2.1 Y20 Z0.28 F5000.0 ;Move to start position 
M190 S60 ;Wait for bed temp to stabilize 
M109 S205 ;Wait for nozzle temp to stabilize 
G1 X-2.1 Y145.0 Z0.28 F1500.0 E15 ;Draw the first line 
G1 X-2.4 Y145.0 Z0.28 F5000.0 ;Move to side a little 
M73 P0 R66
M73 P0 R66
G1 X-2.4 Y20 Z0.28 F1500.0 E30 ;Draw the second line 
G92 E0  ;Reset Extruder 
G1 E-1.0000 F1800 ;Retract a bit 
G1 Z2.0 F3000 ;Move Z Axis up 
G1 E0.0000 F1800
G90
G21
M83 ; use relative distances for extrusion
" "
G1 E-1.2 F2400
M106 S0
;LAYER_CHANGE
;Z:0.2
;HEIGHT:0.2
;BEFORE_LAYER_CHANGE
;0.2
G92 E0

;_SET_FAN_SPEED_CHANGING_LAYER
M204 P500
M205 X10 Y10
; printing object Cuerpo1 id:458752 copy 0
M204 T500
G1 Z.4 F9000
G1 X.229 Y215.729
G1 Z.2
G1 E1.2 F1800
;TYPE:Brim
;WIDTH:0.5
G1 X210 Y215.729 E7.57401
G1 X210.402 Y215.658 E.01473
G1 X210.743 Y215.476 E.01396
G1 X211.009 Y215.196 E.01396
G1 X211.25 Y214.729 E.01898
G1 X219.771 Y214.729 E.30768
G1 X219.771 Y216.1 E.04951
G1 X212.138 Y216.1 E.27561
G1 X211.972 Y216.171 E.00651
G1 X211.716 Y216.441 E.01343
G1 X211.28 Y216.753 E.01937
G1 X211.03 Y216.877 E.01009
G1 X210.529 Y217.037 E.01898
G1 X209.987 Y217.1 E.01971
G1 X.229 Y217.1 E7.57353
G1 X.229 Y215.769 E.04807
G1 X.733 Y216.219 F9000
G1 F1800
G1 X.823 Y216.186 E.00344
G1 X209.989 Y216.186 E7.55217
G1 X210.471 Y216.11 E.01759
G1 X210.628 Y216.056 E.00599
G1 X210.949 Y215.884 E.01317
G1 X211.081 Y215.783 E.00598
G1 X211.33 Y215.522 E.01303
G1 X211.495 Y215.251 E.01147
G1 X211.612 Y215.186 E.00485
G1 X219.177 Y215.186 E.27313
G1 X219.281 Y215.233 E.00413
G1 X219.314 Y215.323 E.00344
G1 X219.314 Y215.506 E.0066
G1 X219.267 Y215.61 E.00413
G1 X219.177 Y215.643 E.00344
G1 X212.152 Y215.643 E.25365
G1 X211.945 Y215.685 E.00763
G1 X211.805 Y215.745 E.0055
G1 X211.631 Y215.866 E.00763
G1 X211.404 Y216.102 E.01182
G1 X211.052 Y216.354 E.01562
G1 X210.867 Y216.448 E.0075
G1 X210.419 Y216.589 E.01696
G1 X209.952 Y216.643 E.01698
G1 X.823 Y216.643 E7.55083
G1 X.719 Y216.595 E.00413
M73 P1 R66
M73 P1 R66
G1 X.686 Y216.506 E.00344
G1 X.686 Y216.323 E.0066
G1 X.717 Y216.255 E.00269
G1 E-1.2 F2400
;WIPE_START
G1 F1800
G1 X.823 Y216.186
G1 X2.696 Y216.186
;WIPE_END
G1 X2.625 Y208.553 Z.6 F9000
G1 X.717 Y4.271 Z.6
G1 Z.2
G1 E1.2 F1800
G1 X.229 Y4.271 E.01762
G1 X.229 Y2.9 E.04951
G1 X209.991 Y2.9 E7.57368
G1 X210.261 Y2.922 E.00978
G1 X210.546 Y2.967 E.0104
G1 X211.059 Y3.135 E.0195
G1 X211.307 Y3.263 E.01007
G1 X211.74 Y3.581 E.01942
G1 X211.976 Y3.829 E.01234
G1 X212.141 Y3.9 E.00652
G1 X219.771 Y3.9 E.27549
G1 X219.771 Y5.271 E.04951
G1 X211.245 Y5.271 E.30786
G1 X211.018 Y4.816 E.01838
G1 X210.754 Y4.533 E.01396
G1 X210.416 Y4.346 E.01396
G1 X210 Y4.271 E.01525
G1 X.757 Y4.271 E7.55494
G1 X.823 Y3.814 F9000
G1 F1800
G1 X.719 Y3.767 E.00413
G1 X.686 Y3.677 E.00344
G1 X.686 Y3.494 E.0066
G1 X.733 Y3.39 E.00413
G1 X.823 Y3.357 E.00344
G1 X209.978 Y3.358 E7.55177
G1 X210.427 Y3.411 E.01631
M73 P1 R65
M73 P1 R65
G1 X210.892 Y3.563 E.01766
G1 X211.075 Y3.659 E.00745
G1 X211.427 Y3.918 E.01579
G1 X211.634 Y4.133 E.01079
G1 X211.808 Y4.254 E.00764
G1 X211.948 Y4.315 E.00551
G1 X212.155 Y4.357 E.00764
G1 X219.177 Y4.357 E.25353
G1 X219.281 Y4.405 E.00413
G1 X219.314 Y4.494 E.00344
G1 X219.314 Y4.677 E.0066
G1 X219.267 Y4.781 E.00413
G1 X219.177 Y4.814 E.00344
G1 X211.613 Y4.814 E.27313
G1 X211.495 Y4.748 E.00488
G1 X211.342 Y4.494 E.0107
G1 X211.096 Y4.23 E.01305
G1 X210.966 Y4.128 E.00598
G1 X210.646 Y3.952 E.01316
G1 X210.487 Y3.895 E.00611
G1 X209.989 Y3.814 E.01822
G1 X.863 Y3.814 E7.55071
G1 E-1.2 F2400
;WIPE_START
G1 F9000
G1 X.719 Y3.767
G1 X.686 Y3.677
G1 X.686 Y3.494
G1 X.733 Y3.39
G1 X.823 Y3.357
G1 X2.183 Y3.357
;WIPE_END
G1 X9.814 Y3.504 Z.6
G1 X209.743 Y7.339 Z.6
G1 Z.2
G1 E1.2 F1800
;TYPE:Inner wall
;WIDTH:0.499999
G1 X209.829 Y7.357 E.00317
G1 X219.143 Y7.357 E.3363
G1 X219.143 Y212.643 E7.41204
G1 X209.751 Y212.643 E.33911
M73 P2 R65
M73 P2 R65
G1 X209.442 Y212.762 E.01197
G1 X209.237 Y212.982 E.01083
G1 X209.143 Y213.329 E.01297
G1 X209.143 Y213.643 E.01135
G1 X.857 Y213.643 E7.52036
G1 X.857 Y6.357 E7.48425
G1 X209.143 Y6.357 E7.52036
G1 X209.143 Y6.671 E.01135
G1 X209.237 Y7.018 E.01297
G2 X209.555 Y7.289 I.636 J-.424 E.01528
G1 X209.704 Y7.329 E.00556
G1 X209.6 Y6.671 F9000
;TYPE:Outer wall
G1 F1800
G1 X209.671 Y6.837 E.00648
G1 X209.829 Y6.9 E.00615
G1 X219.6 Y6.9 E.35281
G1 X219.6 Y213.1 E7.44505
G1 X209.829 Y213.1 E.35281
G1 X209.671 Y213.163 E.00615
G1 X209.6 Y213.329 E.00648
G1 X209.6 Y214.1 E.02785
G1 X.4 Y214.1 E7.55337
G1 X.4 Y5.9 E7.51726
G1 X209.6 Y5.9 E7.55337
M73 P3 R64
M73 P3 R64
G1 X209.6 Y6.631 E.02641
G1 E-1.2 F2400
;WIPE_START
G1 F9000
G1 X209.671 Y6.837
G1 X209.829 Y6.9
G1 X211.441 Y6.9
;WIPE_END
G1 Z.6
G1 X219.006 Y8.418
G1 Z.6
G1 Z.2
G1 E1.2 F1800
;TYPE:Bottom surface
;WIDTH:0.500075
G1 F4800
G1 X218.287 Y7.7 E.0367
G1 X217.64 Y7.7 E.02335
G1 X218.8 Y8.859 E.05922
G1 X218.8 Y9.506 E.02335
G1 X216.994 Y7.699 E.09225
G1 X216.347 Y7.699 E.02335
G1 X218.8 Y10.152 E.12527
G1 X218.8 Y10.799 E.02335
G1 X215.7 Y7.699 E.1583
G1 X215.054 Y7.699 E.02335
G1 X218.8 Y11.445 E.19133
G1 X218.8 Y12.092 E.02335
G1 X214.407 Y7.699 E.22435
G1 X213.76 Y7.699 E.02335
G1 X218.8 Y12.738 E.25738
G1 X218.8 Y13.385 E.02335
G1 X213.114 Y7.698 E.2904
G1 X212.467 Y7.698 E.02335
G1 X218.8 Y14.031 E.32343
G1 X218.8 Y14.678 E.02335
G1 X211.82 Y7.698 E.35646
G1 X211.174 Y7.698 E.02335
G1 X218.8 Y15.324 E.38948
G1 X218.8 Y15.971 E.02335
G1 X210.527 Y7.698 E.42251
G1 X209.88 Y7.698 E.02335
G1 X218.8 Y16.617 E.45553
G1 X218.8 Y17.264 E.02335
G1 X208.236 Y6.7 E.5395
G1 X207.59 Y6.7 E.02335
G1 X218.8 Y17.91 E.57252
G1 X218.8 Y18.557 E.02335
G1 X206.943 Y6.7 E.60554
G1 X206.297 Y6.7 E.02335
G1 X218.8 Y19.203 E.63856
G1 X218.8 Y19.85 E.02335
G1 X205.65 Y6.7 E.67157
G1 X205.004 Y6.7 E.02335
G1 X218.8 Y20.496 E.70459
G1 X218.8 Y21.143 E.02335
G1 X204.357 Y6.7 E.73761
G1 X203.711 Y6.7 E.02335
G1 X218.8 Y21.789 E.77063
G1 X218.8 Y22.436 E.02335
G1 X203.064 Y6.7 E.80364
G1 X202.417 Y6.7 E.02335
G1 X218.8 Y23.083 E.83666
G1 X218.8 Y23.729 E.02335
G1 X201.771 Y6.7 E.86968
G1 X201.124 Y6.7 E.02335
G1 X218.8 Y24.376 E.9027
G1 X218.8 Y25.022 E.02335
G1 X200.478 Y6.7 E.93571
G1 X199.831 Y6.7 E.02335
G1 X218.8 Y25.669 E.96873
G1 X218.8 Y26.315 E.02335
G1 X199.185 Y6.7 E1.00175
G1 X198.538 Y6.7 E.02335
G1 X218.8 Y26.962 E1.03477
G1 X218.8 Y27.608 E.02335
G1 X197.892 Y6.7 E1.06778
G1 X197.245 Y6.7 E.02335
G1 X218.8 Y28.255 E1.1008
G1 X218.8 Y28.901 E.02335
G1 X196.599 Y6.7 E1.13382
G1 X195.952 Y6.7 E.02335
G1 X218.8 Y29.548 E1.16684
G1 X218.8 Y30.194 E.02335
G1 X195.306 Y6.7 E1.19985
G1 X194.659 Y6.7 E.02335
G1 X218.8 Y30.841 E1.23287
G1 X218.8 Y31.487 E.02335
G1 X194.013 Y6.7 E1.26589
G1 X193.366 Y6.7 E.02335
G1 X218.8 Y32.134 E1.29891
G1 X218.8 Y32.78 E.02335
G1 X192.72 Y6.7 E1.33192
G1 X192.073 Y6.7 E.02335
G1 X218.8 Y33.427 E1.36494
G1 X218.8 Y34.073 E.02335
G1 X191.427 Y6.7 E1.39796
G1 X190.78 Y6.7 E.02335
G1 X218.8 Y34.72 E1.43098
G1 X218.8 Y35.366 E.02335
G1 X190.134 Y6.7 E1.46399
G1 X189.487 Y6.7 E.02335
G1 X218.8 Y36.013 E1.49701
G1 X218.8 Y36.659 E.02335
G1 X188.841 Y6.7 E1.53003
G1 X188.194 Y6.7 E.02335
G1 X218.8 Y37.306 E1.56305
G1 X218.8 Y37.952 E.02335
G1 X187.548 Y6.7 E1.59606
G1 X186.901 Y6.7 E.02335
G1 X218.8 Y38.599 E1.62908
G1 X218.8 Y39.245 E.02335
G1 X186.255 Y6.7 E1.6621
G1 X185.608 Y6.7 E.02335
G1 X218.8 Y39.892 E1.69512
G1 X218.8 Y40.538 E.02335
G1 X184.962 Y6.7 E1.72813
G1 X184.315 Y6.7 E.02335
G1 X218.8 Y41.185 E1.76115
G1 X218.8 Y41.831 E.02335
G1 X183.669 Y6.7 E1.79417
G1 X183.022 Y6.7 E.02335
G1 X218.8 Y42.478 E1.82719
G1 X218.8 Y43.124 E.02335
G1 X182.376 Y6.7 E1.8602
G1 X181.729 Y6.7 E.02335
G1 X218.8 Y43.771 E1.89322
G1 X218.8 Y44.418 E.02335
M73 P4 R64
M73 P4 R64
G1 X181.082 Y6.7 E1.92624
G1 X180.436 Y6.7 E.02335
G1 X218.8 Y45.064 E1.95926
G1 X218.8 Y45.711 E.02335
G1 X179.789 Y6.7 E1.99228
G1 X179.143 Y6.7 E.02335
G1 X218.8 Y46.357 E2.02529
G1 X218.8 Y47.004 E.02335
G1 X178.496 Y6.7 E2.05831
G1 X177.85 Y6.7 E.02335
G1 X218.8 Y47.65 E2.09133
G1 X218.8 Y48.297 E.02335
G1 X177.203 Y6.7 E2.12435
G1 X176.557 Y6.7 E.02335
G1 X218.8 Y48.943 E2.15736
G1 X218.8 Y49.59 E.02335
G1 X175.91 Y6.7 E2.19038
G1 X175.264 Y6.7 E.02335
G1 X218.8 Y50.236 E2.2234
G1 X218.8 Y50.883 E.02335
G1 X174.617 Y6.7 E2.25642
G1 X173.971 Y6.7 E.02335
G1 X218.8 Y51.529 E2.28943
G1 X218.8 Y52.176 E.02335
G1 X173.324 Y6.7 E2.32245
G1 X172.678 Y6.7 E.02335
G1 X218.8 Y52.822 E2.35547
G1 X218.8 Y53.469 E.02335
G1 X172.031 Y6.7 E2.38849
G1 X171.385 Y6.7 E.02335
G1 X218.8 Y54.115 E2.4215
G1 X218.8 Y54.762 E.02335
G1 X170.738 Y6.7 E2.45452
G1 X170.092 Y6.7 E.02335
G1 X218.8 Y55.408 E2.48754
G1 X218.8 Y56.055 E.02335
G1 X169.445 Y6.7 E2.52056
G1 X168.799 Y6.7 E.02335
G1 X218.8 Y56.701 E2.55357
G1 X218.8 Y57.348 E.02335
G1 X168.152 Y6.7 E2.58659
G1 X167.506 Y6.7 E.02335
G1 X218.8 Y57.994 E2.61961
G1 X218.8 Y58.641 E.02335
G1 X166.859 Y6.7 E2.65263
G1 X166.213 Y6.7 E.02335
G1 X218.8 Y59.287 E2.68564
G1 X218.8 Y59.934 E.02335
M73 P4 R63
M73 P4 R63
G1 X165.566 Y6.7 E2.71866
G1 X164.92 Y6.7 E.02335
G1 X218.8 Y60.58 E2.75168
G1 X218.8 Y61.227 E.02335
G1 X164.273 Y6.7 E2.7847
G1 X163.627 Y6.7 E.02335
G1 X218.8 Y61.873 E2.81771
G1 X218.8 Y62.52 E.02335
G1 X162.98 Y6.7 E2.85073
G1 X162.334 Y6.7 E.02335
G1 X218.8 Y63.166 E2.88375
G1 X218.8 Y63.813 E.02335
G1 X161.687 Y6.7 E2.91677
G1 X161.041 Y6.7 E.02335
G1 X218.8 Y64.459 E2.94978
G1 X218.8 Y65.106 E.02335
G1 X160.394 Y6.7 E2.9828
G1 X159.748 Y6.7 E.02335
G1 X218.8 Y65.752 E3.01582
G1 X218.8 Y66.399 E.02335
G1 X159.101 Y6.7 E3.04884
G1 X158.454 Y6.7 E.02335
G1 X218.8 Y67.046 E3.08185
G1 X218.8 Y67.692 E.02335
G1 X157.808 Y6.7 E3.11487
G1 X157.161 Y6.7 E.02335
G1 X218.8 Y68.339 E3.14789
G1 X218.8 Y68.985 E.02335
G1 X156.515 Y6.7 E3.18091
G1 X155.868 Y6.7 E.02335
M73 P5 R63
M73 P5 R63
G1 X218.8 Y69.632 E3.21392
G1 X218.8 Y70.278 E.02335
G1 X155.222 Y6.7 E3.24694
G1 X154.575 Y6.7 E.02335
G1 X218.8 Y70.925 E3.27996
G1 X218.8 Y71.571 E.02335
G1 X153.929 Y6.7 E3.31298
G1 X153.282 Y6.7 E.02335
G1 X218.8 Y72.218 E3.34599
G1 X218.8 Y72.864 E.02335
G1 X152.636 Y6.7 E3.37901
G1 X151.989 Y6.7 E.02335
G1 X218.8 Y73.511 E3.41203
G1 X218.8 Y74.157 E.02335
G1 X151.343 Y6.7 E3.44505
G1 X150.696 Y6.7 E.02335
G1 X218.8 Y74.804 E3.47806
G1 X218.8 Y75.45 E.02335
G1 X150.05 Y6.7 E3.51108
G1 X149.403 Y6.7 E.02335
G1 X218.8 Y76.097 E3.5441
G1 X218.8 Y76.743 E.02335
G1 X148.757 Y6.7 E3.57712
G1 X148.11 Y6.7 E.02335
G1 X218.8 Y77.39 E3.61013
G1 X218.8 Y78.036 E.02335
G1 X147.464 Y6.7 E3.64315
G1 X146.817 Y6.7 E.02335
G1 X218.8 Y78.683 E3.67617
G1 X218.8 Y79.329 E.02335
G1 X146.171 Y6.7 E3.70919
G1 X145.524 Y6.7 E.02335
G1 X218.8 Y79.976 E3.7422
G1 X218.8 Y80.622 E.02335
G1 X144.878 Y6.7 E3.77522
G1 X144.231 Y6.7 E.02335
G1 X218.8 Y81.269 E3.80824
G1 X218.8 Y81.915 E.02335
G1 X143.585 Y6.7 E3.84126
G1 X142.938 Y6.7 E.02335
G1 X218.8 Y82.562 E3.87427
G1 X218.8 Y83.208 E.02335
G1 X142.292 Y6.7 E3.90729
G1 X141.645 Y6.7 E.02335
G1 X218.8 Y83.855 E3.94031
G1 X218.8 Y84.501 E.02335
G1 X140.999 Y6.7 E3.97333
G1 X140.352 Y6.7 E.02335
G1 X218.8 Y85.148 E4.00634
G1 X218.8 Y85.794 E.02335
G1 X139.706 Y6.7 E4.03936
G1 X139.059 Y6.7 E.02335
G1 X218.8 Y86.441 E4.07238
G1 X218.8 Y87.087 E.02335
G1 X138.413 Y6.7 E4.1054
G1 X137.766 Y6.7 E.02335
G1 X218.8 Y87.734 E4.13841
G1 X218.8 Y88.381 E.02335
M73 P6 R63
M73 P6 R63
G1 X137.119 Y6.7 E4.17143
G1 X136.473 Y6.7 E.02335
M73 P6 R62
M73 P6 R62
G1 X218.8 Y89.027 E4.20445
G1 X218.8 Y89.674 E.02335
G1 X135.826 Y6.7 E4.23747
G1 X135.18 Y6.7 E.02335
G1 X218.8 Y90.32 E4.27048
G1 X218.8 Y90.967 E.02335
G1 X134.533 Y6.7 E4.3035
G1 X133.887 Y6.7 E.02335
G1 X218.8 Y91.613 E4.33652
G1 X218.8 Y92.26 E.02335
G1 X133.24 Y6.7 E4.36954
G1 X132.594 Y6.7 E.02335
G1 X218.8 Y92.906 E4.40255
G1 X218.8 Y93.553 E.02335
G1 X131.947 Y6.7 E4.43557
G1 X131.301 Y6.7 E.02335
G1 X218.8 Y94.199 E4.46859
G1 X218.8 Y94.846 E.02335
G1 X130.654 Y6.7 E4.50161
G1 X130.008 Y6.7 E.02335
G1 X218.8 Y95.492 E4.53462
G1 X218.8 Y96.139 E.02335
G1 X129.361 Y6.7 E4.56764
G1 X128.715 Y6.7 E.02335
G1 X218.8 Y96.785 E4.60066
G1 X218.8 Y97.432 E.02335
G1 X128.068 Y6.7 E4.63368
G1 X127.422 Y6.7 E.02335
G1 X218.8 Y98.078 E4.66669
G1 X218.8 Y98.725 E.02335
G1 X126.775 Y6.7 E4.69971
G1 X126.129 Y6.7 E.02335
G1 X218.8 Y99.371 E4.73273
G1 X218.8 Y100.018 E.02335
G1 X125.482 Y6.7 E4.76575
G1 X124.836 Y6.7 E.02335
G1 X218.8 Y100.664 E4.79876
G1 X218.8 Y101.311 E.02335
G1 X124.189 Y6.7 E4.83178
G1 X123.543 Y6.7 E.02335
G1 X218.8 Y101.957 E4.8648
G1 X218.8 Y102.604 E.02335
G1 X122.896 Y6.7 E4.89782
G1 X122.25 Y6.7 E.02335
M73 P7 R62
M73 P7 R62
G1 X218.8 Y103.25 E4.93084
G1 X218.8 Y103.897 E.02335
G1 X121.603 Y6.7 E4.96385
G1 X120.957 Y6.7 E.02335
G1 X218.8 Y104.543 E4.99687
G1 X218.8 Y105.19 E.02335
G1 X120.31 Y6.7 E5.02989
G1 X119.664 Y6.7 E.02335
G1 X218.8 Y105.836 E5.06291
G1 X218.8 Y106.483 E.02335
G1 X119.017 Y6.7 E5.09592
G1 X118.371 Y6.7 E.02335
G1 X218.8 Y107.129 E5.12894
G1 X218.8 Y107.776 E.02335
G1 X117.724 Y6.7 E5.16196
G1 X117.078 Y6.7 E.02335
G1 X218.8 Y108.422 E5.19498
G1 X218.8 Y109.069 E.02335
G1 X116.431 Y6.7 E5.22799
G1 X115.784 Y6.7 E.02335
G1 X218.8 Y109.716 E5.26101
G1 X218.8 Y110.362 E.02335
G1 X115.138 Y6.7 E5.29403
M73 P7 R61
M73 P7 R61
G1 X114.491 Y6.7 E.02335
G1 X218.8 Y111.009 E5.32705
G1 X218.8 Y111.655 E.02335
G1 X113.845 Y6.7 E5.36006
G1 X113.198 Y6.7 E.02335
G1 X218.8 Y112.302 E5.39308
G1 X218.8 Y112.948 E.02335
G1 X112.552 Y6.7 E5.4261
G1 X111.905 Y6.7 E.02335
G1 X218.8 Y113.595 E5.45912
G1 X218.8 Y114.241 E.02335
G1 X111.259 Y6.7 E5.49213
G1 X110.612 Y6.7 E.02335
G1 X218.8 Y114.888 E5.52515
G1 X218.8 Y115.534 E.02335
G1 X109.966 Y6.7 E5.55817
G1 X109.319 Y6.7 E.02335
M73 P8 R61
M73 P8 R61
G1 X218.8 Y116.181 E5.59119
G1 X218.8 Y116.827 E.02335
G1 X108.673 Y6.7 E5.6242
G1 X108.026 Y6.7 E.02335
G1 X218.8 Y117.474 E5.65722
G1 X218.8 Y118.12 E.02335
G1 X107.38 Y6.7 E5.69024
G1 X106.733 Y6.7 E.02335
G1 X218.8 Y118.767 E5.72326
G1 X218.8 Y119.413 E.02335
G1 X106.087 Y6.7 E5.75627
G1 X105.44 Y6.7 E.02335
G1 X218.8 Y120.06 E5.78929
G1 X218.8 Y120.706 E.02335
G1 X104.794 Y6.7 E5.82231
G1 X104.147 Y6.7 E.02335
G1 X218.8 Y121.353 E5.85533
G1 X218.8 Y121.999 E.02335
G1 X103.501 Y6.7 E5.88834
G1 X102.854 Y6.7 E.02335
G1 X218.8 Y122.646 E5.92136
G1 X218.8 Y123.292 E.02335
G1 X102.208 Y6.7 E5.95438
G1 X101.561 Y6.7 E.02335
G1 X218.8 Y123.939 E5.9874
G1 X218.8 Y124.585 E.02335
G1 X100.915 Y6.7 E6.02041
G1 X100.268 Y6.7 E.02335
G1 X218.8 Y125.232 E6.05343
G1 X218.8 Y125.878 E.02335
G1 X99.622 Y6.7 E6.08645
G1 X98.975 Y6.7 E.02335
G1 X218.8 Y126.525 E6.11947
G1 X218.8 Y127.171 E.02335
G1 X98.329 Y6.7 E6.15248
G1 X97.682 Y6.7 E.02335
G1 X218.8 Y127.818 E6.1855
G1 X218.8 Y128.464 E.02335
M73 P9 R61
M73 P9 R61
G1 X97.036 Y6.7 E6.21852
G1 X96.389 Y6.7 E.02335
M73 P9 R60
M73 P9 R60
G1 X218.8 Y129.111 E6.25154
G1 X218.8 Y129.757 E.02335
G1 X95.743 Y6.7 E6.28455
G1 X95.096 Y6.7 E.02335
G1 X218.8 Y130.404 E6.31757
G1 X218.8 Y131.05 E.02335
