;TIME:1723.35
;Filament used:2.37878m
;Layer height:0.200
; HEADER_BLOCK_START
; generated by Creality_Print V6.1.0.2041 on 2025-04-07 at 10:45:59
; total layer number: 35
; filament_density: 1.24
; filament_diameter: 1.75
; max_z_height: 7.00
; HEADER_BLOCK_END

; MINX = 92.50
; MINY = 77.50
; MINZ = 0.00
; MAXX = 127.50
; MAXY = 142.50
; MAXZ = 7.00

; THUMBNAIL_BLOCK_START

;
; THUMBNAIL_BLOCK_END

; THUMBNAIL_BLOCK_START

;
; THUMBNAIL_BLOCK_END

; external perimeters extrusion width = 0.42mm
; perimeters extrusion width = 0.45mm
; infill extrusion width = 0.45mm
; solid infill extrusion width = 0.42mm
; top infill extrusion width = 0.42mm
; first layer extrusion width = 0.50mm

; EXECUTABLE_BLOCK_START
M73 P0 R28
M201 X5000 Y5000 Z500 E5000
M203 X500 Y500 Z30 E100
M204 P5000 R2500 T5000 ; sets acceleration (P, T) and retract acceleration (R), mm/sec^2
M205 X10.00 Y10.00 Z0.40 E5.00 ; sets the jerk limits, mm/sec
;TYPE:Custom
M220 S100 ;Reset Feedrate 
M221 S100 ;Reset Flowrate 
 
M140 S60 ;Set final bed temp 
G28 ;Home 
 
G92 E0 ;Reset Extruder 
G1 Z2.0 F3000 ;Move Z Axis up 
M104 S205 ;Set final nozzle temp 
G1 X-2.1 Y20 Z0.28 F5000.0 ;Move to start position 
M190 S60 ;Wait for bed temp to stabilize 
M109 S205 ;Wait for nozzle temp to stabilize 
G1 X-2.1 Y145.0 Z0.28 F1500.0 E15 ;Draw the first line 
G1 X-2.4 Y145.0 Z0.28 F5000.0 ;Move to side a little 
G1 X-2.4 Y20 Z0.28 F1500.0 E30 ;Draw the second line 
G92 E0  ;Reset Extruder 
G1 E-1.0000 F1800 ;Retract a bit 
G1 Z2.0 F3000 ;Move Z Axis up 
G1 E0.0000 F1800
G90
G21
M83 ; use relative distances for extrusion
" "
G1 E-1.2 F2400
M106 S0
;LAYER_CHANGE
;Z:0.2
;HEIGHT:0.2
;BEFORE_LAYER_CHANGE
;0.2
G92 E0

;_SET_FAN_SPEED_CHANGING_LAYER
M204 P500
M205 X10 Y10
M204 T500
G1 Z.4 F9000
G1 X76.631 Y64.445
G1 Z.2
G1 E1.2 F1800
;TYPE:Skirt
;WIDTH:0.5
G1 F3000
G1 X79.139 Y61.894 E.12917
G1 X82.426 Y59.496 E.14689
G1 X85.703 Y57.853 E.13238
G1 X88.893 Y56.817 E.12109
G1 X92.51 Y56.219 E.13237
G1 X94.5 Y56.129 E.07192
G1 X125.5 Y56.129 E1.11929
G1 X127.177 Y56.195 E.06059
G1 X130.715 Y56.724 E.12916
G1 X134.297 Y57.854 E.13561
G1 X137.574 Y59.496 E.13237
G1 X140.555 Y61.631 E.13239
G1 X143.165 Y64.206 E.13238
G1 X145.34 Y67.158 E.13239
G1 X147.026 Y70.414 E.13238
G1 X148.237 Y74.119 E.14075
G1 X148.781 Y77.51 E.12401
G1 X148.871 Y79.5 E.07191
G1 X148.871 Y140.5 E2.20247
G1 X148.781 Y142.49 E.07192
G1 X148.256 Y145.802 E.12107
G1 X147.179 Y149.213 E.12918
G1 X145.34 Y152.842 E.14689
G1 X143.369 Y155.555 E.12108
G1 X140.794 Y158.165 E.13236
G1 X137.842 Y160.34 E.1324
G1 X134.587 Y162.026 E.13237
G1 X130.801 Y163.256 E.1437
G1 X127.49 Y163.781 E.12105
G1 X125.5 Y163.871 E.07193
G1 X94.5 Y163.871 E1.11929
G1 X92.51 Y163.781 E.07193
G1 X89.199 Y163.256 E.12105
G1 X85.703 Y162.147 E.1324
G1 X82.158 Y160.34 E.14367
G1 X79.206 Y158.165 E.13239
G1 X76.631 Y155.555 E.13237
G1 X74.5 Y152.581 E.1321
G1 X72.885 Y149.372 E.12973
G1 X71.817 Y146.107 E.12402
G1 X71.219 Y142.49 E.13238
G1 X71.129 Y140.5 E.07191
G1 X71.129 Y79.5 E2.20247
G1 X71.219 Y77.51 E.07191
M73 P1 R28
M73 P1 R28
G1 X71.744 Y74.198 E.12108
G1 X72.821 Y70.787 E.12916
G1 X74.66 Y67.158 E.14689
G1 X76.608 Y64.477 E.11964
G1 X76.976 Y64.745 F9000
G1 F3000
G1 X76.979 Y64.742 E.00015
G1 X79.437 Y62.24 E.12664
G1 X82.664 Y59.886 E.14424
G1 X85.878 Y58.276 E.12979
G1 X89 Y57.262 E.1185
G1 X92.546 Y56.675 E.12978
G1 X94.5 Y56.586 E.07062
G1 X125.5 Y56.586 E1.11929
G1 X127.141 Y56.65 E.05929
G1 X130.61 Y57.169 E.12663
G1 X134.122 Y58.276 E.13296
G1 X137.335 Y59.886 E.12978
G1 X140.258 Y61.979 E.1298
G1 X142.817 Y64.503 E.12979
G1 X144.95 Y67.397 E.1298
G1 X146.604 Y70.588 E.12979
G1 X147.793 Y74.227 E.13822
G1 X148.325 Y77.546 E.12136
G1 X148.414 Y79.5 E.07062
G1 X148.414 Y140.5 E2.20247
G1 X148.325 Y142.454 E.07062
G1 X147.812 Y145.695 E.11848
G1 X146.756 Y149.04 E.12665
G1 X144.95 Y152.603 E.14424
G1 X143.021 Y155.258 E.11849
G1 X140.497 Y157.817 E.12977
G1 X137.603 Y159.95 E.12981
G1 X134.412 Y161.604 E.12978
G1 X130.695 Y162.812 E.14111
G1 X127.454 Y163.325 E.11846
G1 X125.5 Y163.414 E.07063
G1 X94.5 Y163.414 E1.11929
G1 X92.546 Y163.325 E.07063
G1 X89.305 Y162.812 E.11847
G1 X85.878 Y161.724 E.12981
G1 X82.397 Y159.95 E.14108
G1 X79.503 Y157.817 E.1298
G1 X76.979 Y155.258 E.12978
G1 X74.89 Y152.342 E.12951
G1 X73.306 Y149.195 E.1272
G1 X72.262 Y146 E.12137
G1 X71.675 Y142.454 E.12979
G1 X71.586 Y140.5 E.07062
G1 X71.586 Y79.5 E2.20247
G1 X71.675 Y77.546 E.07062
G1 X72.188 Y74.305 E.11849
G1 X73.243 Y70.96 E.12664
G1 X75.05 Y67.397 E.14423
G1 X76.953 Y64.777 E.1169
G1 X77.321 Y65.045 F9000
G1 F3000
G1 X77.326 Y65.039 E.0003
G1 X79.736 Y62.587 E.12411
G1 X82.903 Y60.275 E.14158
G1 X86.053 Y58.698 E.1272
G1 X89.107 Y57.706 E.11591
G1 X92.582 Y57.131 E.12719
G1 X94.5 Y57.043 E.06932
G1 X125.5 Y57.043 E1.11929
G1 X127.105 Y57.106 E.058
G1 X130.505 Y57.614 E.12411
G1 X133.947 Y58.698 E.1303
G1 X137.097 Y60.275 E.12719
G1 X139.961 Y62.326 E.12721
G1 X142.47 Y64.8 E.1272
G1 X144.561 Y67.636 E.12721
G1 X146.182 Y70.763 E.1272
G1 X147.349 Y74.336 E.13569
G1 X147.869 Y77.582 E.11871
G1 X147.957 Y79.5 E.06932
G1 X147.957 Y140.5 E2.20247
G1 X147.869 Y142.418 E.06932
G1 X147.367 Y145.588 E.11589
G1 X146.334 Y148.867 E.12412
G1 X144.56 Y152.364 E.14158
G1 X142.674 Y154.962 E.1159
G1 X140.2 Y157.47 E.12718
G1 X137.364 Y159.561 E.12722
G1 X134.237 Y161.182 E.12719
G1 X130.588 Y162.367 E.13852
G1 X127.418 Y162.869 E.11587
G1 X125.5 Y162.957 E.06933
G1 X94.5 Y162.957 E1.11929
G1 X92.582 Y162.869 E.06933
G1 X89.412 Y162.367 E.11588
G1 X86.053 Y161.302 E.12722
G1 X82.636 Y159.561 E.13849
G1 X79.8 Y157.47 E.12721
G1 X77.326 Y154.961 E.12719
G1 X75.28 Y152.104 E.12692
G1 X73.728 Y149.019 E.12468
G1 X72.706 Y145.894 E.11871
G1 X72.131 Y142.418 E.1272
G1 X72.043 Y140.5 E.06932
G1 X72.043 Y79.5 E2.20247
G1 X72.131 Y77.582 E.06932
G1 X72.633 Y74.412 E.1159
G1 X73.666 Y71.133 E.12411
G1 X75.439 Y67.636 E.14158
G1 X77.298 Y65.078 E.11416
; printing object Tapa Solterra.STL id:458752 copy 0
G1 E-1.2 F2400
;WIPE_START
G1 F9000
G1 X77.326 Y65.039
G1 X78.694 Y63.647
;WIPE_END
G1 X80.126 Y71.144 Z.6
G1 X93.369 Y140.504 Z.6
G1 Z.2
G1 E1.2 F1800
;TYPE:Inner wall
;WIDTH:0.499999
G1 X93.357 Y140.439 E.0024
G1 X93.357 Y79.502 E2.20018
G1 X93.49 Y78.985 E.01928
M73 P2 R28
M73 P2 R28
G1 X93.694 Y78.703 E.01256
G1 X93.986 Y78.49 E.01306
G3 X94.533 Y78.357 I.86 J2.354 E.02037
G1 X125.671 Y78.38 E1.12424
G1 X126.016 Y78.491 E.01308
G1 X126.325 Y78.715 E.01379
G1 X126.576 Y79.144 E.01794
G1 X126.643 Y79.665 E.01897
G1 X126.643 Y140.498 E2.19644
G1 X126.51 Y141.015 E.01926
G1 X126.302 Y141.302 E.0128
G1 X126.015 Y141.51 E.01281
G3 X125.466 Y141.643 I-.868 J-2.384 E.02041
G1 X94.502 Y141.643 E1.118
G1 X93.985 Y141.51 E.01926
G1 X93.698 Y141.301 E.01282
G1 X93.452 Y140.938 E.01586
G1 X93.377 Y140.543 E.0145
G1 X93.114 Y141.258 F9000
;TYPE:Outer wall
G1 F1800
G1 X92.983 Y141.003 E.01035
G1 X92.9 Y140.475 E.0193
G1 X92.9 Y79.322 E2.20798
G1 X93.078 Y78.775 E.02076
G1 X93.367 Y78.377 E.01777
G1 X93.776 Y78.077 E.01829
G1 X94.26 Y77.92 E.01838
G1 X94.516 Y77.9 E.00927
G1 X125.742 Y77.923 E1.12748
G1 X126.225 Y78.078 E.0183
G3 X126.787 Y78.553 I-1.218 J2.011 E.02668
G1 X127.016 Y79 E.01813
G1 X127.1 Y79.665 E.0242
G1 X127.1 Y140.678 E2.20294
G1 X126.922 Y141.225 E.02076
M73 P2 R27
M73 P2 R27
G1 X126.629 Y141.629 E.01802
G1 X126.225 Y141.922 E.01803
G1 X125.74 Y142.08 E.01839
G1 X125.484 Y142.1 E.00927
G1 X94.322 Y142.1 E1.12515
G1 X93.775 Y141.922 E.02075
G1 X93.371 Y141.629 E.01804
G3 X93.144 Y141.317 I1.794 J-1.544 E.01392
G1 X93.132 Y141.293 E.00098
G1 E-1.2 F2400
;WIPE_START
G1 F9000
G1 X92.983 Y141.003
G1 X92.9 Y140.475
G1 X92.9 Y139.336
;WIPE_END
G1 X97.969 Y133.63 Z.6
G1 X122.064 Y106.508 Z.6
G1 Z.2
G1 E1.2 F1800
;TYPE:Inner wall
G1 X122.151 Y106.565 E.00376
G1 X122.331 Y106.867 E.01268
G1 X122.357 Y107.055 E.00688
G1 X122.357 Y110.671 E.13056
G1 X122.331 Y110.857 E.00678
G1 X122.156 Y111.157 E.01253
G1 X121.914 Y111.313 E.0104
G1 X121.671 Y111.357 E.00889
G1 X118.055 Y111.357 E.13056
G1 X117.745 Y111.283 E.01152
G1 X117.61 Y111.193 E.00584
G1 X117.422 Y110.934 E.01157
G1 X117.283 Y110.496 E.01659
G1 X117.323 Y110.227 E.00983
G1 X117.483 Y109.975 E.01076
G1 X120.975 Y106.483 E.17831
G1 X121.227 Y106.323 E.01076
G1 X121.496 Y106.283 E.00983
G1 X121.934 Y106.422 E.01659
G1 X122.03 Y106.486 E.00417
G1 X121.472 Y106.739 F9000
;TYPE:Outer wall
G1 F1800
G1 X121.831 Y106.892 E.01409
G1 X121.9 Y107.055 E.0064
G1 X121.9 Y110.671 E.13056
G1 X121.833 Y110.833 E.00632
G1 X121.671 Y110.9 E.00631
G1 X118.055 Y110.9 E.13056
G1 X117.907 Y110.845 E.00571
G1 X117.757 Y110.547 E.01206
G1 X117.752 Y110.352 E.00705
G1 X121.298 Y106.806 E.18107
G1 X121.434 Y106.754 E.00527
G1 E-1.2 F2400
;WIPE_START
G1 F9000
G1 X121.831 Y106.892
G1 X121.9 Y107.055
G1 X121.9 Y108.458
;WIPE_END
G1 X122.091 Y100.828 Z.6
G1 X122.159 Y98.104 Z.6
G1 Z.2
G1 E1.2 F1800
;TYPE:Inner wall
G1 X122.238 Y98.196 E.0044
G3 X122.357 Y98.57 I-.63 J.406 E.01433
G1 X122.357 Y102.291 E.13435
G1 X122.331 Y102.477 E.00677
G1 X122.156 Y102.776 E.01251
G1 X113.776 Y111.156 E.42791
G1 X113.513 Y111.32 E.01117
G1 X113.256 Y111.357 E.00938
G1 X109.57 Y111.357 E.1331
G1 X109.328 Y111.313 E.00888
G1 X109.085 Y111.156 E.01044
G1 X108.937 Y110.934 E.00966
G1 X108.798 Y110.496 E.01659
G1 X108.838 Y110.227 E.00983
G1 X108.998 Y109.975 E.01076
G1 X120.975 Y97.998 E.61158
G1 X121.271 Y97.823 E.01239
G1 X121.63 Y97.818 E.01299
G1 X122.076 Y98.016 E.01759
G1 X122.131 Y98.075 E.00292
G1 X121.547 Y98.271 F9000
;TYPE:Outer wall
G1 F1800
G1 X121.823 Y98.399 E.01097
G1 X121.9 Y98.57 E.00677
G1 X121.9 Y102.291 E.13435
G1 X121.833 Y102.453 E.00632
G1 X113.453 Y110.833 E.42791
G1 X113.291 Y110.9 E.00632
G1 X109.57 Y110.9 E.13435
G1 X109.408 Y110.833 E.00632
G1 X109.254 Y110.472 E.01418
G1 X109.321 Y110.298 E.00672
G1 X121.298 Y98.321 E.61158
G1 X121.397 Y98.263 E.00413
G1 X121.507 Y98.269 E.004
G1 E-1.2 F2400
;WIPE_START
G1 F9000
G1 X121.823 Y98.399
G1 X121.9 Y98.57
G1 X121.9 Y100.041
M73 P3 R27
;WIPE_END
M73 P3 R27
G1 X118.588 Y106.918 Z.6
G1 X111.826 Y120.96 Z.6
G1 Z.2
G1 E1.2 F1800
;TYPE:Inner wall
G1 X111.613 Y121.21 E.01184
G1 X111.161 Y121.544 E.02032
G1 X110.615 Y121.753 E.0211
G1 X110.391 Y121.781 E.00814
;WIDTH:0.463214
G1 X110.168 Y121.81 E.00748
;WIDTH:0.46083
G1 X109.654 Y121.793 E.01697
;WIDTH:0.499999
G1 X109.232 Y121.722 E.01545
G3 X108.487 Y121.306 I1.251 J-3.118 E.03088
G1 X108.007 Y120.746 E.02664
G1 X107.82 Y120.335 E.01632
G1 X107.758 Y120.088 E.0092
;WIDTH:0.473267
G1 X107.695 Y119.841 E.00866
;WIDTH:0.446534
G1 X107.693 Y119.217 E.01987
;WIDTH:0.486408
G1 X107.712 Y118.991 E.00795
;WIDTH:0.499999
G1 X107.893 Y118.456 E.0204
G3 X108.407 Y117.764 I3.42 J1.997 E.0312
G1 X108.858 Y117.444 E.01995
G1 X109.392 Y117.229 E.0208
G3 X110.635 Y117.231 I.617 J2.678 E.04527
G1 X111.302 Y117.543 E.02659
G1 X111.703 Y117.869 E.01866
G1 X112.092 Y118.427 E.02455
G1 X112.244 Y118.856 E.01643
G1 X112.279 Y119.107 E.00916
;WIDTH:0.46128
G1 X112.313 Y119.358 E.00838
;WIDTH:0.467044
G1 X112.285 Y119.977 E.02075
;WIDTH:0.499999
G1 X112.17 Y120.418 E.01645
G1 X111.851 Y120.929 E.02176
G1 X111.727 Y120.278 F9000
;TYPE:Outer wall
G1 F1800
G1 X111.713 Y120.318 E.00151
G1 X111.397 Y120.785 E.02037
G1 X110.943 Y121.137 E.02075
G1 X110.717 Y121.243 E.009
G1 X110.233 Y121.386 E.01822
G1 X109.88 Y121.394 E.01275
G1 X109.328 Y121.275 E.02037
G1 X108.775 Y120.95 E.02316
G1 X108.362 Y120.459 E.02316
G1 X108.136 Y119.859 E.02316
G1 X108.123 Y119.217 E.02316
G1 X108.324 Y118.609 E.02315
G3 X108.732 Y118.085 I8.126 J5.902 E.02397
G1 X109.039 Y117.864 E.01366
G1 X109.562 Y117.653 E.02037
G1 X110.201 Y117.613 E.02312
G1 X110.593 Y117.697 E.01448
G1 X111.096 Y117.951 E.02034
G1 X111.397 Y118.216 E.01446
G1 X111.713 Y118.683 E.02036
G1 X111.887 Y119.301 E.02317
G3 X111.834 Y119.997 I-5.478 J-.071 E.02522
G1 X111.742 Y120.241 E.00944
G1 E-1.2 F2400
;WIPE_START
G1 F9000
G1 X111.713 Y120.318
G1 X111.397 Y120.785
G1 X110.943 Y121.137
G1 X110.717 Y121.243
G1 X110.233 Y121.386
G1 X110.208 Y121.387
;WIPE_END
G1 X115.776 Y121.694 Z.6
G1 Z.2
G1 E1.2 F1800
;TYPE:Inner wall
G1 X115.577 Y121.779 E.0078
G1 X115.294 Y121.797 E.01023
;WIDTH:0.463899
G1 X115.012 Y121.815 E.00942
;WIDTH:0.46159
G1 X114.72 Y121.789 E.00967
;WIDTH:0.49538
G1 X114.429 Y121.762 E.01045
;WIDTH:0.499999
G1 X114.069 Y121.664 E.0135
G1 X113.642 Y121.414 E.01787
G1 X113.247 Y121.066 E.01901
G1 X112.893 Y120.543 E.02278
G1 X112.716 Y120.008 E.02035
;WIDTH:0.478043
G1 X112.7 Y119.726 E.0097
;WIDTH:0.448821
G1 X112.685 Y119.445 E.00905
;WIDTH:0.459799
G1 X112.715 Y119.139 E.0101
;WIDTH:0.499999
G1 X112.746 Y118.834 E.01108
G3 X113.165 Y118.019 I4.152 J1.621 E.03318
G3 X113.868 Y117.44 I2.572 J2.405 E.03295
G1 X114.398 Y117.227 E.02064
G1 X114.618 Y117.18 E.00814
G1 X115.182 Y117.156 E.02036
G1 X115.719 Y117.255 E.01971
G1 X116.303 Y117.543 E.02352
G1 X116.489 Y117.681 E.00837
G1 X116.881 Y118.089 E.02041
G3 X117.286 Y118.957 I-2.889 J1.879 E.03471
;WIDTH:0.486251
G1 X117.3 Y119.272 E.01102
;WIDTH:0.458188
G1 X117.315 Y119.586 E.01032
;WIDTH:0.45674
G1 X117.3 Y119.814 E.00749
;WIDTH:0.483355
G1 X117.284 Y120.043 E.00797
;WIDTH:0.499999
G3 X116.881 Y120.911 I-3.221 J-.971 E.03468
G1 X116.489 Y121.319 E.02042
G1 X116.149 Y121.534 E.01454
G1 X115.812 Y121.678 E.01323
G1 X115.975 Y121.101 F9000
;TYPE:Outer wall
G1 F1800
G1 X115.688 Y121.255 E.01173
G3 X115.519 Y121.326 I-1.529 J-3.421 E.00664
G1 X114.958 Y121.397 E.02041
G1 X114.329 Y121.275 E.02313
G1 X113.944 Y121.071 E.01576
G1 X113.549 Y120.723 E.01901
G1 X113.324 Y120.391 E.01446
G1 X113.137 Y119.86 E.02034
G1 X113.103 Y119.461 E.01446
G1 X113.196 Y118.911 E.02013
G1 X113.499 Y118.339 E.02338
G3 X114.038 Y117.864 I2.843 J2.684 E.02597
G1 X114.564 Y117.652 E.02049
G1 X115.201 Y117.613 E.02304
G1 X115.593 Y117.697 E.01448
G1 X116.097 Y117.951 E.02038
G1 X116.551 Y118.405 E.02316
G1 X116.827 Y118.984 E.02316
G1 X116.894 Y119.622 E.02313
G1 X116.826 Y120.016 E.01446
G1 X116.594 Y120.53 E.02036
G1 X116.16 Y121.002 E.02314
G1 X116.01 Y121.082 E.00615
G1 E-1.2 F2400
;WIPE_START
G1 F9000
G1 X115.688 Y121.255
G1 X115.519 Y121.326
G1 X114.958 Y121.397
G1 X114.329 Y121.275
G1 X114.112 Y121.16
;WIPE_END
G1 X117.697 Y119.36 Z.6
G1 Z.2
G1 E1.2 F1800
;TYPE:Inner wall
;WIDTH:0.483355
G1 X117.694 Y119.217 E.00497
;WIDTH:0.486251
G1 X117.712 Y118.991 E.00794
;WIDTH:0.499999
G1 X117.893 Y118.456 E.0204
G1 X118.006 Y118.254 E.00837
G1 X118.361 Y117.815 E.02039
G1 X118.753 Y117.499 E.01817
G1 X119.392 Y117.229 E.02504
G1 X119.618 Y117.18 E.00836
G1 X120.183 Y117.156 E.0204
G1 X120.413 Y117.186 E.00837
G1 X120.954 Y117.351 E.02042
G1 X121.161 Y117.456 E.00837
G1 X121.614 Y117.791 E.02037
G1 X121.919 Y118.134 E.01656
G1 X122.243 Y118.796 E.02661
G1 X122.301 Y119.02 E.00837
G1 X122.349 Y119.583 E.02039
G1 X122.293 Y120.041 E.01666
G1 X122.011 Y120.718 E.0265
G1 X121.74 Y121.088 E.01656
G1 X121.214 Y121.505 E.02421
G1 X120.851 Y121.68 E.01457
G1 X120.601 Y121.742 E.0093
;WIDTH:0.474491
G1 X120.351 Y121.804 E.00878
;WIDTH:0.451803
G1 X119.621 Y121.796 E.02359
;WIDTH:0.499999
G1 X119.175 Y121.707 E.01641
G1 X118.564 Y121.357 E.02543
G1 X118.388 Y121.215 E.00816
G1 X118.008 Y120.748 E.02174
G1 X117.894 Y120.544 E.00844
G1 X117.713 Y120.008 E.02041
;WIDTH:0.483355
G1 X117.698 Y119.4 E.02116
G1 X118.136 Y119.832 F9000
;TYPE:Outer wall
;WIDTH:0.499999
G1 F1800
G1 X118.123 Y119.217 E.0222
G1 X118.324 Y118.609 E.02315
G1 X118.717 Y118.102 E.02314
G1 X119.039 Y117.864 E.01446
G1 X119.562 Y117.653 E.02037
G1 X120.202 Y117.613 E.02315
G1 X120.82 Y117.788 E.02317
G1 X121.342 Y118.159 E.02313
G1 X121.594 Y118.47 E.01446
G1 X121.827 Y118.984 E.02036
G1 X121.894 Y119.622 E.02314
G1 X121.826 Y120.016 E.01446
G1 X121.594 Y120.53 E.02034
G1 X121.342 Y120.841 E.01446
G1 X120.889 Y121.177 E.02038
G1 X120.279 Y121.377 E.02316
G1 X119.639 Y121.363 E.02313
G1 X119.256 Y121.246 E.01446
G1 X118.781 Y120.954 E.02013
G1 X118.363 Y120.46 E.02338
G1 X118.141 Y119.871 E.0227
G1 E-1.2 F2400
;WIPE_START
G1 F9000
G1 X118.123 Y119.217
G1 X118.324 Y118.609
G1 X118.717 Y118.102
G1 X118.768 Y118.064
