;TIME:4843.27
;Filament used:5.59243m
;Layer height:0.200
; HEADER_BLOCK_START
; generated by Creality_Print V6.1.0.2041 on 2025-04-09 at 09:48:05
; total layer number: 364
; filament_density: 1.24
; filament_diameter: 1.75
; max_z_height: 72.80
; HEADER_BLOCK_END

; MINX = 70.00
; MINY = 100.00
; MINZ = 0.00
; MAXX = 150.00
; MAXY = 120.00
; MAXZ = 72.70

; THUMBNAIL_BLOCK_START

;
; THUMBNAIL_BLOCK_END

; THUMBNAIL_BLOCK_START

;
; THUMBNAIL_BLOCK_END

; external perimeters extrusion width = 0.42mm
; perimeters extrusion width = 0.45mm
; infill extrusion width = 0.45mm
; solid infill extrusion width = 0.42mm
; top infill extrusion width = 0.42mm
; first layer extrusion width = 0.50mm

; EXECUTABLE_BLOCK_START
M73 P0 R80
M201 X5000 Y5000 Z500 E5000
M203 X500 Y500 Z30 E100
M204 P5000 R2500 T5000 ; sets acceleration (P, T) and retract acceleration (R), mm/sec^2
M205 X10.00 Y10.00 Z0.40 E5.00 ; sets the jerk limits, mm/sec
;TYPE:Custom
M220 S100 ;Reset Feedrate 
M221 S100 ;Reset Flowrate 
 
M140 S60 ;Set final bed temp 
G28 ;Home 
 
G92 E0 ;Reset Extruder 
G1 Z2.0 F3000 ;Move Z Axis up 
M104 S230 ;Set final nozzle temp 
G1 X-2.1 Y20 Z0.28 F5000.0 ;Move to start position 
M190 S60 ;Wait for bed temp to stabilize 
M109 S230 ;Wait for nozzle temp to stabilize 
G1 X-2.1 Y145.0 Z0.28 F1500.0 E15 ;Draw the first line 
G1 X-2.4 Y145.0 Z0.28 F5000.0 ;Move to side a little 
G1 X-2.4 Y20 Z0.28 F1500.0 E30 ;Draw the second line 
G92 E0  ;Reset Extruder 
G1 E-1.0000 F1800 ;Retract a bit 
G1 Z2.0 F3000 ;Move Z Axis up 
G1 E0.0000 F1800
G90
G21
M83 ; use relative distances for extrusion
" "
G1 E-1.2 F2400
M106 S0
;LAYER_CHANGE
;Z:0.2
;HEIGHT:0.2
;BEFORE_LAYER_CHANGE
;0.2
G92 E0

;_SET_FAN_SPEED_CHANGING_LAYER
M204 P500
M205 X10 Y10
M204 T500
G1 Z.4 F9000
G1 X59.896 Y83.872
G1 Z.2
G1 E1.2 F1800
;TYPE:Skirt
;WIDTH:0.5
G1 F3000
G1 X62.205 Y82.364 E.09955
G1 X63.758 Y81.523 E.06378
G1 X65.821 Y80.596 E.08167
G1 X67.954 Y79.842 E.08167
G1 X70.627 Y79.165 E.09955
G1 X72.861 Y78.813 E.08167
G1 X74.621 Y78.668 E.06378
G1 X140.625 Y78.631 E2.38313
G1 X143.714 Y78.813 E.11172
G1 X145.948 Y79.165 E.08167
G1 X148.146 Y79.701 E.08167
G1 X150.292 Y80.416 E.08167
G1 X152.371 Y81.306 E.08166
G1 X154.37 Y82.364 E.08167
G1 X156.275 Y83.584 E.08167
G1 X158.072 Y84.957 E.08167
G1 X159.75 Y86.474 E.08166
G1 X161.297 Y88.124 E.08167
G1 X162.703 Y89.896 E.08167
G1 X163.957 Y91.779 E.08167
G1 X165.051 Y93.758 E.08167
G1 X165.979 Y95.821 E.08168
G1 X166.732 Y97.954 E.08165
G1 X167.308 Y100.142 E.08168
G1 X167.761 Y102.861 E.09954
G1 X167.928 Y105.117 E.08167
G1 X167.907 Y115.379 E.37051
G1 X167.7 Y117.631 E.08167
G1 X167.308 Y119.858 E.08166
G1 X166.874 Y121.571 E.06379
G1 X166.159 Y123.717 E.08165
G1 X165.269 Y125.796 E.08168
G1 X164.211 Y127.795 E.08166
G1 X162.991 Y129.7 E.08167
G1 X161.618 Y131.498 E.08167
G1 X160.101 Y133.175 E.08167
G1 X158.072 Y135.043 E.09955
G1 X156.275 Y136.416 E.08167
G1 X154.37 Y137.636 E.08167
G1 X152.371 Y138.694 E.08167
G1 X150.292 Y139.584 E.08166
G1 X148.621 Y140.158 E.06378
G1 X145.948 Y140.835 E.09955
G1 X144.206 Y141.125 E.06378
G1 X141.954 Y141.332 E.08166
G1 X76 Y141.371 E2.38132
G1 X72.861 Y141.187 E.11353
G1 X70.627 Y140.835 E.08167
G1 X67.954 Y140.158 E.09955
G1 X66.283 Y139.584 E.06378
G1 X64.204 Y138.694 E.08167
G1 X61.779 Y137.382 E.09955
G1 X60.3 Y136.416 E.06378
G1 X58.503 Y135.043 E.08167
G1 X56.474 Y133.175 E.09956
G1 X54.957 Y131.498 E.08166
G1 X53.872 Y130.104 E.06378
G1 X52.364 Y127.795 E.09956
G1 X51.306 Y125.796 E.08167
G1 X50.416 Y123.717 E.08166
G1 X49.842 Y122.046 E.06378
G1 X49.267 Y119.859 E.08167
G1 X48.813 Y117.139 E.09955
G1 X48.629 Y114 E.11353
G1 X48.647 Y105.117 E.32074
G1 X48.813 Y102.861 E.08167
G1 X49.267 Y100.141 E.09955
G1 X49.842 Y97.954 E.08167
G1 X50.416 Y96.283 E.06378
G1 X51.306 Y94.204 E.08166
G1 X52.364 Y92.205 E.08167
G1 X53.872 Y89.896 E.09955
G1 X54.957 Y88.502 E.06378
G1 X56.474 Y86.825 E.08167
G1 X58.124 Y85.278 E.08167
G1 X59.865 Y83.897 E.08022
G1 X60.152 Y84.272 F9000
G1 F3000
G1 X60.566 Y83.956 E.01881
G1 X62.439 Y82.757 E.0803
G1 X63.959 Y81.934 E.06241
G1 X66.449 Y80.842 E.09819
G1 X68.56 Y80.139 E.08031
G1 X70.721 Y79.613 E.0803
G1 X72.425 Y79.328 E.06241
G1 X75.136 Y79.104 E.09819
G1 X140.625 Y79.088 E2.36456
G1 X143.657 Y79.267 E.10967
G1 X145.854 Y79.613 E.08031
G1 X148.015 Y80.139 E.0803
G1 X150.126 Y80.842 E.08031
G1 X152.17 Y81.716 E.0803
G1 X154.136 Y82.757 E.08031
G1 X156.009 Y83.956 E.08031
G1 X157.777 Y85.306 E.0803
G1 X159.427 Y86.797 E.0803
G1 X160.948 Y88.42 E.08031
G1 X162.331 Y90.162 E.08031
G1 X163.818 Y92.439 E.09819
G1 X164.859 Y94.404 E.0803
G1 X165.733 Y96.45 E.08032
G1 X166.436 Y98.559 E.08029
G1 X166.962 Y100.721 E.08032
G1 X167.308 Y102.918 E.08029
G1 X167.471 Y105.136 E.08031
G1 X167.451 Y115.36 E.36915
G1 X167.247 Y117.575 E.08031
G1 X166.86 Y119.765 E.08029
G1 X166.436 Y121.441 E.06243
G1 X165.733 Y123.55 E.08029
G1 X164.859 Y125.596 E.08032
G1 X163.818 Y127.561 E.0803
G1 X162.619 Y129.434 E.08031
G1 X160.948 Y131.581 E.09819
G1 X159.427 Y133.203 E.0803
G1 X157.777 Y134.694 E.0803
G1 X156.413 Y135.756 E.06241
G1 X154.562 Y136.989 E.08031
G1 X152.616 Y138.066 E.08031
G1 X150.126 Y139.158 E.09819
G1 X148.491 Y139.72 E.06241
G1 X146.34 Y140.285 E.0803
G1 X144.149 Y140.672 E.08031
G1 X141.439 Y140.896 E.09819
G1 X76 Y140.914 E2.36275
G1 X72.918 Y140.733 E.11148
G1 X70.235 Y140.285 E.0982
G1 X68.084 Y139.72 E.0803
G1 X66.449 Y139.158 E.06241
G1 X63.959 Y138.066 E.09819
G1 X62.013 Y136.989 E.0803
G1 X60.566 Y136.044 E.06241
G1 X58.42 Y134.374 E.09819
G1 X57.148 Y133.203 E.06242
G1 X55.626 Y131.581 E.0803
G1 X53.956 Y129.434 E.09819
G1 X52.757 Y127.561 E.0803
G1 X51.934 Y126.041 E.06241
G1 X50.842 Y123.551 E.09819
G1 X50.139 Y121.44 E.08031
G1 X49.613 Y119.279 E.08031
G1 X49.267 Y117.082 E.0803
G1 X49.124 Y115.36 E.06241
G1 X49.124 Y104.64 E.38704
G1 X49.267 Y102.918 E.06241
G1 X49.613 Y100.721 E.0803
G1 X50.139 Y98.559 E.08031
G1 X50.842 Y96.449 E.08031
G1 X51.934 Y93.959 E.09819
G1 X53.011 Y92.013 E.08031
G1 X54.244 Y90.162 E.0803
G1 X55.306 Y88.798 E.06241
G1 X57.148 Y86.797 E.09819
G1 X58.798 Y85.306 E.08031
G1 X60.12 Y84.296 E.06005
G1 X60.391 Y84.645 F9000
G1 F3000
G1 X60.428 Y84.616 E.00168
G1 X62.247 Y83.403 E.07894
G1 X64.16 Y82.345 E.07894
G1 X66.615 Y81.267 E.09683
G1 X68.69 Y80.577 E.07894
G1 X70.814 Y80.06 E.07894
G1 X72.482 Y79.782 E.06105
G1 X75.155 Y79.56 E.09683
G1 X140.625 Y79.545 E2.36388
G1 X143.601 Y79.721 E.10763
G1 X145.761 Y80.06 E.07894
G1 X147.885 Y80.577 E.07894
G1 X149.959 Y81.267 E.07894
G1 X151.97 Y82.127 E.07894
G1 X153.902 Y83.149 E.07894
G1 X155.744 Y84.328 E.07895
G1 X157.482 Y85.655 E.07894
G1 X159.104 Y87.12 E.07893
G1 X160.6 Y88.715 E.07894
G1 X161.959 Y90.428 E.07894
G1 X163.425 Y92.673 E.09682
G1 X164.448 Y94.605 E.07894
G1 X165.307 Y96.616 E.07895
G1 X165.998 Y98.69 E.07892
G1 X166.515 Y100.815 E.07896
G1 X166.854 Y102.974 E.07893
G1 X167.014 Y105.155 E.07894
G1 X166.994 Y115.341 E.36778
G1 X166.793 Y117.518 E.07894
G1 X166.413 Y119.671 E.07893
G1 X165.998 Y121.31 E.06106
G1 X165.307 Y123.384 E.07892
G1 X164.448 Y125.395 E.07895
G1 X163.425 Y127.327 E.07894
G1 X162.247 Y129.169 E.07894
G1 X160.6 Y131.285 E.09683
G1 X159.104 Y132.88 E.07894
G1 X157.482 Y134.345 E.07894
G1 X156.147 Y135.384 E.06105
G1 X154.328 Y136.597 E.07895
G1 X152.415 Y137.655 E.07894
G1 X149.959 Y138.733 E.09682
G1 X148.36 Y139.282 E.06105
G1 X146.246 Y139.838 E.07894
G1 X144.093 Y140.218 E.07894
G1 X141.42 Y140.44 E.09682
G1 X76 Y140.457 E2.36206
G1 X72.974 Y140.279 E.10944
G1 X70.329 Y139.838 E.09683
G1 X68.215 Y139.282 E.07894
G1 X66.615 Y138.733 E.06105
G1 X64.16 Y137.655 E.09683
G1 X62.247 Y136.597 E.07894
G1 X60.831 Y135.672 E.06105
G1 X58.715 Y134.025 E.09682
G1 X57.471 Y132.88 E.06105
G1 X55.975 Y131.285 E.07894
G1 X54.328 Y129.169 E.09683
G1 X53.149 Y127.327 E.07894
G1 X52.345 Y125.84 E.06105
G1 X51.267 Y123.385 E.09682
G1 X50.577 Y121.31 E.07894
G1 X50.06 Y119.186 E.07894
G1 X49.721 Y117.026 E.07894
G1 X49.581 Y115.341 E.06105
G1 X49.581 Y104.659 E.38567
G1 X49.721 Y102.974 E.06105
G1 X50.06 Y100.814 E.07894
G1 X50.577 Y98.69 E.07894
G1 X51.267 Y96.615 E.07894
G1 X52.345 Y94.16 E.09682
G1 X53.403 Y92.247 E.07894
G1 X54.616 Y90.428 E.07894
G1 X55.655 Y89.093 E.06105
G1 X57.471 Y87.12 E.09682
G1 X59.093 Y85.655 E.07894
G1 X60.359 Y84.669 E.05792
; printing object Torre_Temperatura_PLA_230-190ºC.stl id:0 copy 0
G1 E-1.2 F2400
;WIPE_START
G1 F9000
G1 X60.428 Y84.616
G1 X62.02 Y83.555
;WIPE_END
G1 X66.531 Y89.711 Z.6
G1 X74.816 Y101.015 Z.6
G1 Z.2
G1 E1.2 F1800
;TYPE:Inner wall
;WIDTH:0.499999
G1 X74.955 Y100.98 E.0052
G3 X75.568 Y100.876 I1.622 J7.716 E.02245
G1 X76.504 Y100.857 E.03381
G1 X140.591 Y100.859 E2.31392
G3 X141.823 Y101.012 I-.321 J7.612 E.04486
G1 X142.64 Y101.293 E.03118
G3 X143.721 Y101.934 I-3.326 J6.845 E.04545
G3 X144.623 Y102.83 I-4.959 J5.89 E.04598
G3 X145.277 Y103.921 I-6.254 J4.492 E.04598
G1 X145.558 Y104.738 E.03118
G1 X145.7 Y105.59 E.03118
G1 X145.718 Y106.125 E.01931
G1 X145.718 Y113.875 E.27985
G1 X145.7 Y114.41 E.01931
G1 X145.558 Y115.262 E.03118
G1 X145.282 Y116.065 E.03065
G1 X144.878 Y116.812 E.03065
G1 X144.357 Y117.481 E.03065
G1 X143.732 Y118.056 E.03065
G1 X143.021 Y118.521 E.03065
G1 X142.244 Y118.862 E.03065
G3 X141.014 Y119.123 I-2.19 J-7.292 E.04545
G1 X76.125 Y119.143 E2.34287
G1 X75.59 Y119.125 E.01933
G3 X74.344 Y118.868 I.93 J-7.643 E.04598
G3 X73.2 Y118.312 I2.778 J-7.181 E.04598
G1 X72.519 Y117.782 E.03118
G1 X71.943 Y117.157 E.03067
G1 X71.479 Y116.447 E.03062
G1 X71.138 Y115.669 E.03067
G1 X70.93 Y114.846 E.03065
G1 X70.857 Y113.969 E.03179
G1 X70.877 Y105.576 E.30301
G3 X71.132 Y104.344 I7.559 J.923 E.04548
G1 X71.479 Y103.553 E.03118
G1 X71.944 Y102.843 E.03065
G3 X72.83 Y101.952 I5.819 J4.904 E.04545
G1 X73.553 Y101.479 E.03118
G1 X74.331 Y101.138 E.03065
G1 X74.777 Y101.025 E.01661
G1 X74.182 Y100.704 F9000
;TYPE:Outer wall
G1 F1800
G3 X75.535 Y100.42 I2.445 J8.267 E.04997
G1 X76.5 Y100.4 E.03484
G1 X140.611 Y100.402 E2.31479
G3 X141.944 Y100.571 I-.365 J8.245 E.04859
G1 X142.824 Y100.873 E.03358
G3 X144.01 Y101.578 I-3.663 J7.507 E.04988
G3 X144.99 Y102.557 I-5.413 J6.403 E.05007
G3 X145.701 Y103.746 I-6.82 J4.879 E.05007
G1 X146.003 Y104.626 E.03358
G1 X146.156 Y105.543 E.03358
G1 X146.175 Y106.125 E.02102
G1 X146.175 Y113.875 E.27985
G1 X146.156 Y114.457 E.02102
G1 X146.003 Y115.374 E.03358
G1 X145.702 Y116.249 E.03339
G1 X145.262 Y117.062 E.03339
G1 X144.694 Y117.792 E.03339
G1 X144.014 Y118.418 E.03339
G1 X143.24 Y118.924 E.03339
G1 X142.393 Y119.296 E.03339
G3 X141.042 Y119.58 I-2.391 J-8.008 E.04989
G1 X76.125 Y119.6 E2.34389
G1 X75.543 Y119.581 E.02104
G3 X74.187 Y119.298 I1.029 J-8.321 E.05007
G3 X72.942 Y118.69 I3.041 J-7.815 E.05007
G1 X72.208 Y118.119 E.03358
G1 X71.581 Y117.439 E.0334
G1 X71.076 Y116.665 E.03336
G1 X70.704 Y115.818 E.0334
G1 X70.477 Y114.922 E.03339
G1 X70.4 Y113.987 E.03386
G1 X70.42 Y105.538 E.30506
G3 X70.702 Y104.187 I8.292 J1.027 E.04989
G1 X71.076 Y103.335 E.03358
G1 X71.582 Y102.561 E.03339
G3 X72.557 Y101.584 I6.378 J5.394 E.04988
G1 X73.335 Y101.076 E.03358
G1 X74.145 Y100.72 E.03194
G1 E-1.2 F2400
;WIPE_START
G1 F9000
G1 X74.843 Y100.537
G1 X75.535 Y100.42
G1 X76.112 Y100.408
;WIPE_END
G1 Z.6
G1 X142.993 Y101.64
M73 P0 R79
M73 P0 R79
G1 Z.6
G1 Z.2
G1 E1.2 F1800
;TYPE:Bottom surface
;WIDTH:0.500842
G1 F4800
G1 X144.12 Y102.767 E.05767
G1 X144.348 Y103.036 E.01274
G1 X144.805 Y103.735 E.03023
G3 X145.066 Y104.36 I-2.374 J1.357 E.02454
G1 X142.215 Y101.509 E.14583
G2 X141.323 Y101.265 I-1.427 J3.466 E.03351
G1 X145.293 Y105.235 E.20308
G3 X145.372 Y105.962 I-2.875 J.68 E.02651
G1 X140.616 Y101.205 E.24333
G1 X139.965 Y101.202 E.02355
G1 X145.375 Y106.612 E.27676
G1 X145.375 Y107.26 E.02343
G1 X139.317 Y101.202 E.30989
G1 X138.67 Y101.202 E.02343
G1 X145.375 Y107.907 E.34302
G1 X145.375 Y108.555 E.02343
G1 X138.022 Y101.202 E.37615
G1 X137.374 Y101.202 E.02343
G1 X145.375 Y109.202 E.40928
G1 X145.375 Y109.85 E.02343
G1 X136.727 Y101.202 E.44241
G1 X136.079 Y101.202 E.02343
G1 X145.375 Y110.498 E.47553
G1 X145.375 Y111.145 E.02343
G1 X135.431 Y101.202 E.50866
G1 X134.784 Y101.202 E.02343
G1 X145.375 Y111.793 E.54179
G1 X145.375 Y112.44 E.02343
G1 X134.136 Y101.202 E.57492
G1 X133.489 Y101.202 E.02343
G1 X145.375 Y113.088 E.60805
G1 X145.375 Y113.736 E.02343
M73 P1 R79
M73 P1 R79
G1 X132.841 Y101.202 E.64118
G1 X132.193 Y101.202 E.02343
G1 X145.359 Y114.367 E.67348
G1 X145.267 Y114.923 E.02038
G1 X131.546 Y101.202 E.70192
G1 X130.898 Y101.202 E.02343
G1 X145.135 Y115.438 E.72829
G1 X144.969 Y115.92 E.01844
G1 X130.251 Y101.202 E.75295
G1 X129.603 Y101.202 E.02343
G1 X144.743 Y116.341 E.77449
G3 X144.497 Y116.743 I-1.327 J-.536 E.01712
G1 X128.955 Y101.202 E.79504
G1 X128.308 Y101.202 E.02343
G1 X144.213 Y117.107 E.81367
G3 X143.897 Y117.439 I-1.151 J-.782 E.01664
G1 X127.66 Y101.202 E.83062
G1 X127.012 Y101.202 E.02343
G1 X143.56 Y117.749 E.8465
G1 X143.175 Y118.011 E.01686
G1 X126.365 Y101.201 E.85992
G1 X125.717 Y101.201 E.02343
G1 X142.772 Y118.256 E.87244
G1 X142.322 Y118.453 E.01778
G1 X125.07 Y101.201 E.88254
G1 X124.422 Y101.201 E.02343
G1 X141.833 Y118.612 E.89067
G1 X141.313 Y118.74 E.01936
G1 X123.774 Y101.201 E.8972
G1 X123.127 Y101.201 E.02343
G1 X140.705 Y118.78 E.89925
G1 X140.058 Y118.78 E.02342
G1 X122.479 Y101.201 E.89926
G1 X121.831 Y101.201 E.02343
G1 X139.411 Y118.781 E.89927
G1 X138.763 Y118.781 E.02342
G1 X121.184 Y101.201 E.89929
G1 X120.536 Y101.201 E.02343
G1 X138.116 Y118.781 E.8993
G1 X137.468 Y118.781 E.02342
G1 X119.889 Y101.201 E.89931
G1 X119.241 Y101.201 E.02343
G1 X136.821 Y118.781 E.89932
G1 X136.174 Y118.782 E.02342
G1 X118.593 Y101.201 E.89933
G1 X117.946 Y101.201 E.02343
G1 X135.526 Y118.782 E.89934
G1 X134.879 Y118.782 E.02342
G1 X117.298 Y101.201 E.89935
G1 X116.65 Y101.201 E.02343
G1 X134.231 Y118.782 E.89937
G1 X133.584 Y118.782 E.02342
G1 X116.003 Y101.201 E.89938
G1 X115.355 Y101.201 E.02343
G1 X132.937 Y118.783 E.89939
G1 X132.289 Y118.783 E.02342
G1 X114.708 Y101.201 E.8994
G1 X114.06 Y101.201 E.02343
G1 X131.642 Y118.783 E.89941
G1 X130.994 Y118.783 E.02342
G1 X113.412 Y101.201 E.89942
G1 X112.765 Y101.201 E.02343
G1 X130.347 Y118.783 E.89943
G1 X129.7 Y118.784 E.02342
G1 X112.117 Y101.201 E.89944
G1 X111.47 Y101.201 E.02343
G1 X129.052 Y118.784 E.89946
G1 X128.405 Y118.784 E.02342
G1 X110.822 Y101.201 E.89947
G1 X110.174 Y101.201 E.02343
G1 X127.757 Y118.784 E.89948
G1 X127.11 Y118.784 E.02342
G1 X109.527 Y101.201 E.89949
G1 X108.879 Y101.201 E.02343
G1 X126.463 Y118.785 E.8995
G1 X125.815 Y118.785 E.02342
G1 X108.231 Y101.201 E.89951
G1 X107.584 Y101.201 E.02343
G1 X125.168 Y118.785 E.89952
G1 X124.52 Y118.785 E.02342
G1 X106.936 Y101.201 E.89953
G1 X106.289 Y101.201 E.02343
G1 X123.873 Y118.785 E.89955
G1 X123.226 Y118.786 E.02342
G1 X105.641 Y101.201 E.89956
G1 X104.993 Y101.201 E.02343
G1 X122.578 Y118.786 E.89957
G1 X121.931 Y118.786 E.02342
G1 X104.346 Y101.201 E.89958
G1 X103.698 Y101.201 E.02343
G1 X121.283 Y118.786 E.89959
G1 X120.636 Y118.786 E.02342
G1 X103.05 Y101.201 E.8996
G1 X102.403 Y101.201 E.02343
G1 X119.989 Y118.787 E.89961
G1 X119.341 Y118.787 E.02342
G1 X101.755 Y101.201 E.89962
G1 X101.108 Y101.201 E.02343
G1 X118.694 Y118.787 E.89964
G1 X118.046 Y118.787 E.02342
G1 X100.46 Y101.201 E.89965
G1 X99.812 Y101.201 E.02343
G1 X117.399 Y118.787 E.89966
G1 X116.752 Y118.788 E.02342
G1 X99.165 Y101.201 E.89967
G1 X98.517 Y101.201 E.02343
G1 X116.104 Y118.788 E.89968
G1 X115.457 Y118.788 E.02342
G1 X97.87 Y101.201 E.89969
G1 X97.222 Y101.201 E.02343
G1 X114.809 Y118.788 E.8997
G1 X114.162 Y118.788 E.02342
G1 X96.574 Y101.201 E.89972
G1 X95.927 Y101.201 E.02343
G1 X113.515 Y118.789 E.89973
G1 X112.867 Y118.789 E.02342
G1 X95.279 Y101.2 E.89974
G1 X94.631 Y101.2 E.02343
G1 X112.22 Y118.789 E.89975
G1 X111.572 Y118.789 E.02342
G1 X93.984 Y101.2 E.89976
G1 X93.336 Y101.2 E.02343
G1 X110.925 Y118.789 E.89977
G1 X110.278 Y118.79 E.02342
G1 X92.689 Y101.2 E.89978
G1 X92.041 Y101.2 E.02343
G1 X109.63 Y118.79 E.89979
G1 X108.983 Y118.79 E.02342
G1 X91.393 Y101.2 E.89981
