;TIME:2213.25
;Filament used:2.51388m
;Layer height:0.200
; HEADER_BLOCK_START
; generated by Creality_Print V6.0.4.1793 on 2025-03-09 at 23:17:47
; total layer number: 180
; filament_density: 1.24
; filament_diameter: 1.75
; max_z_height: 12.00
; HEADER_BLOCK_END

; MINX = 39.08
; MINY = 41.00
; MINZ = 0.00
; MAXX = 180.92
; MAXY = 179.00
; MAXZ = 12.00

; THUMBNAIL_BLOCK_START

;
; THUMBNAIL_BLOCK_END

; THUMBNAIL_BLOCK_START

;
; THUMBNAIL_BLOCK_END

; external perimeters extrusion width = 0.42mm
; perimeters extrusion width = 0.45mm
; infill extrusion width = 0.45mm
; solid infill extrusion width = 0.42mm
; top infill extrusion width = 0.42mm
; first layer extrusion width = 0.50mm

; external perimeters extrusion width = 0.42mm
; perimeters extrusion width = 0.45mm
; infill extrusion width = 0.45mm
; solid infill extrusion width = 0.42mm
; top infill extrusion width = 0.42mm
; first layer extrusion width = 0.50mm

; external perimeters extrusion width = 0.42mm
; perimeters extrusion width = 0.45mm
; infill extrusion width = 0.45mm
; solid infill extrusion width = 0.42mm
; top infill extrusion width = 0.42mm
; first layer extrusion width = 0.50mm

; EXECUTABLE_BLOCK_START
M73 P0 R36
M201 X5000 Y5000 Z500 E5000
M203 X500 Y500 Z30 E100
M204 P5000 R2500 T5000 ; sets acceleration (P, T) and retract acceleration (R), mm/sec^2
M205 X10.00 Y10.00 Z0.40 E5.00 ; sets the jerk limits, mm/sec
;TYPE:Custom
M220 S100 ;Reset Feedrate 
M221 S100 ;Reset Flowrate 
 
M140 S60 ;Set final bed temp 
G28 ;Home 
 
G92 E0 ;Reset Extruder 
G1 Z2.0 F3000 ;Move Z Axis up 
M104 S205 ;Set final nozzle temp 
G1 X-2.1 Y20 Z0.28 F5000.0 ;Move to start position 
M190 S60 ;Wait for bed temp to stabilize 
M109 S205 ;Wait for nozzle temp to stabilize 
G1 X-2.1 Y145.0 Z0.28 F1500.0 E15 ;Draw the first line 
G1 X-2.4 Y145.0 Z0.28 F5000.0 ;Move to side a little 
G1 X-2.4 Y20 Z0.28 F1500.0 E30 ;Draw the second line 
G92 E0  ;Reset Extruder 
G1 E-1.0000 F1800 ;Retract a bit 
G1 Z2.0 F3000 ;Move Z Axis up 
G1 E0.0000 F1800
G90
G21
M83 ; use relative distances for extrusion
" "
G1 E-1.2 F2400
M106 S0
;LAYER_CHANGE
;Z:0.2
;HEIGHT:0.2
;BEFORE_LAYER_CHANGE
;0.2
G92 E0

;_SET_FAN_SPEED_CHANGING_LAYER
M204 P500
M205 X10 Y10
M204 T500
G1 Z.4 F9000
G1 X23.053 Y23.702
G1 Z.2
G1 E1.2 F1800
;TYPE:Skirt
;WIDTH:0.5
G1 F3000
G1 X26.364 Y20.553 E.16496
G1 X30.172 Y18.03 E.16496
G1 X34.362 Y16.207 E.16496
G1 X38.805 Y15.142 E.16496
G1 X42.655 Y14.857 E.13937
G1 X61.425 Y14.857 E.67771
G1 X65.976 Y15.256 E.16496
G1 X70.388 Y16.442 E.16496
G1 X74.527 Y18.378 E.16496
G1 X78.265 Y21.004 E.16496
G1 X81.489 Y24.241 E.16496
G1 X84.1 Y27.99 E.16496
G1 X85.767 Y31.467 E.1392
G1 X89.342 Y40.595 E.35397
G1 X90.63 Y44.979 E.16496
G1 X91.142 Y50.129 E.18685
G1 X91.142 Y55.866 E.20715
G1 X90.743 Y60.417 E.16496
G1 X89.344 Y65.394 E.18667
G1 X85.769 Y74.528 E.35414
G1 X83.738 Y78.621 E.16496
G1 X81.026 Y82.298 E.16496
G1 X77.715 Y85.446 E.16496
G1 X73.907 Y87.97 E.16496
G1 X69.717 Y89.792 E.16496
G1 X65.274 Y90.857 E.16496
G1 X61.425 Y91.142 E.13937
G1 X42.655 Y91.142 E.67771
G1 X38.103 Y90.743 E.16496
G1 X33.691 Y89.557 E.16496
G1 X29.552 Y87.622 E.16496
G1 X25.814 Y84.995 E.16496
G1 X22.59 Y81.758 E.16496
G1 X19.979 Y78.009 E.16496
G1 X18.312 Y74.533 E.1392
G1 X14.737 Y65.404 E.35397
G1 X13.449 Y61.02 E.16496
G1 X12.937 Y55.871 E.18685
G1 X12.937 Y50.134 E.20715
G1 X13.336 Y45.582 E.16496
G1 X14.735 Y40.605 E.18667
G1 X18.31 Y31.471 E.35414
G1 X20.341 Y27.379 E.16496
G1 X23.029 Y23.734 E.16352
G1 X23.401 Y24.009 F9000
G1 F3000
G1 X23.449 Y23.945 E.00291
G1 X26.742 Y20.837 E.16351
G1 X30.531 Y18.356 E.16351
G1 X34.696 Y16.578 E.16351
G1 X39.109 Y15.56 E.16351
G1 X42.655 Y15.314 E.12833
G1 X61.425 Y15.314 E.67771
G1 X65.936 Y15.713 E.16351
G1 X70.306 Y16.899 E.16351
G1 X74.401 Y18.833 E.16351
G1 X78.092 Y21.457 E.16351
G1 X81.265 Y24.688 E.16351
G1 X83.822 Y28.426 E.16351
G1 X85.341 Y31.633 E.12815
G1 X88.916 Y40.762 E.35397
G1 X90.19 Y45.108 E.16351
G1 X90.685 Y50.129 E.18215
G1 X90.685 Y55.866 E.20715
G1 X90.286 Y60.377 E.16351
G1 X88.918 Y65.228 E.18198
G1 X85.343 Y74.361 E.35414
G1 X83.327 Y78.417 E.16351
G1 X80.63 Y82.055 E.16351
G1 X77.337 Y85.163 E.16351
G1 X73.548 Y87.644 E.16351
G1 X69.383 Y89.421 E.16351
G1 X64.97 Y90.439 E.16351
G1 X61.425 Y90.685 E.12833
G1 X42.655 Y90.685 E.67771
G1 X38.144 Y90.286 E.16351
G1 X33.773 Y89.101 E.16351
G1 X29.678 Y87.166 E.16351
G1 X25.987 Y84.543 E.16351
G1 X22.814 Y81.312 E.16351
G1 X20.257 Y77.574 E.16351
G1 X18.738 Y74.366 E.12815
G1 X15.163 Y65.237 E.35397
G1 X13.889 Y60.891 E.16351
G1 X13.394 Y55.871 E.18215
G1 X13.394 Y50.134 E.20715
G1 X13.793 Y45.623 E.16351
G1 X15.161 Y40.772 E.18198
G1 X18.736 Y31.638 E.35414
G1 X20.752 Y27.583 E.16351
G1 X23.377 Y24.041 E.15916
G1 X23.747 Y24.318 F9000
G1 F3000
G1 X23.844 Y24.188 E.00583
G1 X27.12 Y21.121 E.16205
G1 X30.889 Y18.683 E.16205
G1 X35.029 Y16.951 E.16205
G1 X39.411 Y15.981 E.16205
G1 X42.655 Y15.771 E.11736
G1 X61.425 Y15.771 E.67771
G1 X65.895 Y16.171 E.16205
M73 P1 R36
M73 P1 R36
G1 X70.224 Y17.356 E.16205
G1 X74.274 Y19.289 E.16205
G1 X77.918 Y21.909 E.16205
G1 X81.039 Y25.134 E.16205
G1 X83.54 Y28.86 E.16205
G1 X84.916 Y31.8 E.11719
G1 X88.491 Y40.929 E.35397
G1 X89.749 Y45.237 E.16205
G1 X90.228 Y50.129 E.17747
G1 X90.228 Y55.866 E.20715
G1 X89.829 Y60.336 E.16205
G1 X88.493 Y65.061 E.17729
G1 X84.918 Y74.195 E.35414
G1 X82.916 Y78.212 E.16205
G1 X80.235 Y81.811 E.16205
G1 X76.959 Y84.878 E.16205
G1 X73.191 Y87.316 E.16205
G1 X69.05 Y89.048 E.16205
G1 X64.668 Y90.019 E.16205
G1 X61.425 Y90.228 E.11736
G1 X42.655 Y90.228 E.67771
G1 X38.184 Y89.829 E.16205
G1 X33.855 Y88.644 E.16205
G1 X29.805 Y86.711 E.16205
G1 X26.161 Y84.09 E.16205
G1 X23.04 Y80.866 E.16205
G1 X20.539 Y77.139 E.16205
G1 X19.163 Y74.199 E.11719
G1 X15.588 Y65.071 E.35397
G1 X14.33 Y60.763 E.16205
G1 X13.851 Y55.871 E.17747
G1 X13.851 Y50.134 E.20715
G1 X14.25 Y45.663 E.16205
G1 X15.586 Y40.938 E.17729
G1 X19.161 Y31.805 E.35414
G1 X21.163 Y27.787 E.16205
G1 X23.723 Y24.35 E.15478
; printing object Underware_Connectors.stl id:13715442450502254592 copy 0
G1 E-1.2 F2400
;WIPE_START
G1 F9000
G1 X23.844 Y24.188
G1 X25.157 Y22.959
;WIPE_END
G1 X30.795 Y28.103 Z.6
G1 X60.699 Y55.384 Z.6
G1 Z.2
G1 E1.2 F1800
;TYPE:Inner wall
;WIDTH:0.499999
G1 X60.571 Y55.719 E.01298
G1 X60.568 Y64.142 E.30412
G1 X59.162 Y64.142 E.05073
G1 X59.097 Y64.002 E.00558
G1 X58.903 Y63.836 E.00926
G1 X56.812 Y62.79 E.08441
G1 X56.505 Y62.718 E.01137
G1 X53.076 Y62.718 E.12381
G1 X52.977 Y62.45 E.0103
G2 X52.568 Y62.167 I-.643 J.49 E.01826
G1 X51.669 Y62.143 E.03246
G1 X51.348 Y62.226 E.01198
G1 X51.166 Y62.358 E.00811
G1 X51.003 Y62.718 E.01426
G1 X47.574 Y62.718 E.12381
G1 X47.267 Y62.79 E.01137
G1 X45.078 Y63.885 E.08839
G1 X44.917 Y64.142 E.01098
G1 X43.511 Y64.142 E.05073
G1 X43.508 Y55.724 E.30395
G1 X43.41 Y55.432 E.01114
G1 X43.141 Y55.178 E.01335
G1 X42.654 Y55.011 E.01859
G1 X42.322 Y55.08 E.01224
G1 X41.978 Y55.367 E.01617
G1 X41.528 Y55.106 E.01879
G1 X41.184 Y55.014 E.01285
G1 X40.458 Y55.014 E.02621
G2 X39.937 Y55.209 I.108 J1.084 E.02033
G3 X39.938 Y50.923 I1030.316 J-1.892 E.15474
G1 X40.702 Y50.491 E.0317
G1 X40.877 Y50.491 E.00633
G1 X41.582 Y50.899 E.02937
G1 X41.983 Y50.991 E.01486
G1 X42.605 Y50.989 E.02248
G1 X42.948 Y50.919 E.01262
G1 X43.355 Y50.639 E.01783
G1 X43.504 Y50.287 E.01379
G1 X43.512 Y41.857 E.30439
G1 X44.917 Y41.857 E.05073
G1 X44.982 Y41.997 E.00558
G1 X45.176 Y42.164 E.00926
G1 X47.267 Y43.209 E.08441
G1 X47.574 Y43.282 E.01137
G1 X51.003 Y43.282 E.12381
G1 X51.102 Y43.549 E.0103
G2 X51.506 Y43.832 I.652 J-.498 E.01808
G2 X52.585 Y43.832 I.539 J-6 E.03903
G1 X52.889 Y43.659 E.01262
G1 X52.977 Y43.549 E.00508
G1 X53.076 Y43.282 E.0103
G1 X56.505 Y43.282 E.12381
G1 X56.812 Y43.209 E.01137
G1 X59.001 Y42.115 E.08839
G1 X59.162 Y41.857 E.01098
G1 X60.568 Y41.857 E.05073
G1 X60.571 Y50.354 E.30679
G1 X60.683 Y50.675 E.01229
G1 X60.98 Y50.921 E.01391
G1 X61.107 Y50.963 E.00482
G1 X62.106 Y50.985 E.0361
G1 X62.463 Y50.894 E.0133
G1 X63.097 Y50.529 E.02643
G3 X63.422 Y50.529 I.162 J.282 E.0123
G1 X64.106 Y50.916 E.02837
G1 X64.142 Y50.963 E.00215
G1 X64.142 Y55.185 E.15242
G1 X63.997 Y55.101 E.00605
G1 X63.654 Y55.009 E.01283
G1 X62.928 Y55.009 E.0262
G1 X62.587 Y55.1 E.01277
G1 X62.112 Y55.373 E.01977
G1 X61.811 Y55.097 E.01474
G1 X61.47 Y55.003 E.01278
G1 X61.009 Y55.136 E.01732
G1 X60.72 Y55.351 E.013
G1 X61.447 Y55.461 F9000
;TYPE:Outer wall
G1 F1800
G1 X61.091 Y55.615 E.014
G1 X61.025 Y55.776 E.0063
G1 X61.025 Y64.6 E.31857
G1 X58.825 Y64.6 E.07943
G1 X58.825 Y64.449 E.00544
G1 X58.698 Y64.244 E.00868
G1 X56.559 Y63.175 E.08635
G1 X52.645 Y63.175 E.14133
G1 X52.645 Y62.828 E.01252
G1 X52.541 Y62.637 E.00786
G1 X52.416 Y62.6 E.0047
G1 X51.663 Y62.6 E.02718
G1 X51.538 Y62.637 E.0047
G1 X51.435 Y62.828 E.00786
G1 X51.435 Y63.175 E.01252
G1 X47.52 Y63.175 E.14133
G1 X45.381 Y64.244 E.08635
G1 X45.255 Y64.449 E.00868
G1 X45.255 Y64.6 E.00544
G1 X43.055 Y64.6 E.07943
G1 X43.054 Y55.766 E.31893
G1 X42.974 Y55.607 E.00643
G1 X42.617 Y55.465 E.01386
G1 X42.453 Y55.532 E.00642
G1 X42.049 Y55.936 E.02063
G2 X41.184 Y55.471 I-3.529 J5.52 E.03548
G1 X40.458 Y55.471 E.02621
G1 X40.344 Y55.501 E.00426
G1 X39.666 Y55.892 E.02825
G1 X39.48 Y55.705 E.00953
G1 X39.48 Y50.534 E.18673
G1 X39.765 Y50.503 E.01035
G1 X40.58 Y50.034 E.03397
G1 X41 Y50.034 E.01516
G1 X41.81 Y50.503 E.0338
G2 X42.696 Y50.529 I.574 J-4.422 E.03202
G1 X42.997 Y50.356 E.01254
G1 X43.055 Y50.204 E.00587
G1 X43.055 Y41.4 E.31787
G1 X45.255 Y41.4 E.07943
G1 X45.255 Y41.551 E.00544
G1 X45.381 Y41.755 E.00868
G1 X47.52 Y42.825 E.08635
G1 X51.435 Y42.825 E.14133
G1 X51.435 Y43.171 E.01252
G1 X51.538 Y43.363 E.00786
G1 X51.663 Y43.4 E.0047
G1 X52.416 Y43.4 E.02718
G1 X52.541 Y43.363 E.0047
G1 X52.645 Y43.171 E.00786
G1 X52.645 Y42.825 E.01252
G1 X56.559 Y42.825 E.14133
G1 X58.698 Y41.755 E.08635
G1 X58.825 Y41.551 E.00868
G1 X58.825 Y41.4 E.00544
G1 X61.025 Y41.4 E.07943
G1 X61.025 Y50.3 E.32135
G1 X61.091 Y50.461 E.0063
G1 X61.253 Y50.529 E.00633
G1 X62.097 Y50.529 E.03046
G1 X62.235 Y50.498 E.00511
G1 X63.05 Y50.028 E.03398
G1 X63.47 Y50.028 E.01514
G1 X64.28 Y50.498 E.03382
G1 X64.6 Y50.529 E.01158
G1 X64.6 Y55.7 E.18672
G1 X64.424 Y55.875 E.00896
G1 X63.769 Y55.496 E.02733
G1 X63.654 Y55.466 E.00428
G1 X62.928 Y55.466 E.0262
G1 X62.814 Y55.496 E.00426
G1 X62.041 Y55.941 E.03222
G1 X61.58 Y55.491 E.02325
G1 X61.486 Y55.47 E.0035
G1 E-1.2 F2400
;WIPE_START
G1 F9000
G1 X61.091 Y55.615
G1 X61.025 Y55.776
G1 X61.025 Y57.181
;WIPE_END
G1 X60.707 Y49.555 Z.6
G1 X60.431 Y42.921 Z.6
G1 Z.2
G1 E1.2 F1800
;TYPE:Bottom surface
;WIDTH:0.501178
G1 F4800
G1 X59.71 Y42.2 E.03692
G1 X59.365 Y42.2 E.01247
G3 X59.223 Y42.361 I-.296 J-.117 E.00795
G1 X60.225 Y43.363 E.0513
G1 X60.225 Y44.012 E.02347
G1 X58.807 Y42.593 E.07261
G1 X58.373 Y42.808 E.01752
G1 X60.226 Y44.66 E.09484
G1 X60.226 Y45.308 E.02347
G1 X57.939 Y43.022 E.11706
G1 X57.505 Y43.236 E.01752
G1 X60.226 Y45.957 E.13929
G1 X60.226 Y46.605 E.02347
G1 X57.072 Y43.45 E.16151
G3 X56.584 Y43.611 I-.539 J-.815 E.01879
G1 X60.227 Y47.253 E.18646
G1 X60.227 Y47.902 E.02347
G1 X55.95 Y43.624 E.21897
G1 X55.302 Y43.624 E.02346
G1 X60.227 Y48.55 E.25215
G1 X60.227 Y49.198 E.02347
G1 X54.654 Y43.624 E.28534
G1 X54.005 Y43.624 E.02346
G1 X60.433 Y50.052 E.32907
G1 E-1.2 F2400
;WIPE_START
G1 F9000
G1 X59.019 Y48.638
;WIPE_END
G1 X63.043 Y50.718 Z.6
G1 Z.2
G1 E1.2 F1800
G1 F4800
G1 X63.8 Y51.474 E.03872
G1 X63.8 Y52.122 E.02346
G1 X62.783 Y51.105 E.05206
G3 X62.322 Y51.292 I-.653 J-.949 E.01816
G1 X63.8 Y52.77 E.07567
G1 X63.8 Y53.419 E.02346
G1 X61.488 Y51.107 E.11836
G1 E-1.2 F2400
;WIPE_START
G1 F9000
G1 X62.902 Y52.521
;WIPE_END
G1 X64.005 Y54.272 Z.6
G1 Z.2
G1 E1.2 F1800
G1 F4800
G1 X53.357 Y43.624 E.5451
G1 X53.314 Y43.624 E.00156
G1 X53.292 Y43.685 E.00235
G1 X53.094 Y43.935 E.01153
G1 X53.049 Y43.964 E.00194
G1 X63.773 Y54.688 E.54898
G1 X63.666 Y54.666 E.00396
G1 X63.103 Y54.666 E.02038
G1 X52.61 Y44.174 E.53713
G1 X51.987 Y44.198 E.02259
G1 X62.54 Y54.751 E.54024
G1 X62.163 Y54.95 E.01542
G2 X61.901 Y54.76 I-.997 J1.102 E.01175
G1 X51.244 Y44.103 E.54554
G1 X50.983 Y43.934 E.01126
G1 X50.787 Y43.685 E.01147
G1 X50.765 Y43.624 E.00234
G1 X50.117 Y43.624 E.02345
G1 X61.209 Y54.716 E.56781
G2 X60.739 Y54.894 I.251 J1.369 E.01829
G1 X49.469 Y43.624 E.57694
G1 X48.821 Y43.624 E.02346
G1 X60.406 Y55.21 E.59308
G1 X60.267 Y55.512 E.01204
G1 X60.233 Y55.684 E.00637
G1 X48.173 Y43.624 E.61739
G1 X47.515 Y43.615 E.0238
G1 X60.228 Y56.328 E.65079
G1 X60.228 Y56.975 E.02345
G1 X46.405 Y43.153 E.70763
G1 X45.125 Y42.521 E.05167
G1 X60.227 Y57.623 E.77315
G1 X60.227 Y58.271 E.02345
G1 X44.156 Y42.2 E.82274
G1 X43.854 Y42.2 E.01091
M73 P2 R36
M73 P2 R36
G1 X43.854 Y42.546 E.01255
G1 X60.227 Y58.919 E.83816
G1 X60.227 Y59.567 E.02345
G1 X43.854 Y43.194 E.83815
G1 X43.854 Y43.843 E.02346
G1 X60.226 Y60.214 E.83813
G1 X60.226 Y60.862 E.02345
G1 X43.854 Y44.491 E.83812
G1 X43.854 Y45.139 E.02346
G1 X60.226 Y61.51 E.8381
G1 X60.226 Y62.158 E.02345
G1 X43.854 Y45.787 E.83809
G1 X43.854 Y46.435 E.02346
G1 X60.225 Y62.806 E.83808
G1 X60.225 Y63.454 E.02345
G1 X43.854 Y47.083 E.83806
G1 X43.854 Y47.731 E.02346
G1 X59.923 Y63.8 E.82261
G1 X59.365 Y63.8 E.02019
G1 X59.264 Y63.664 E.00612
G2 X58.953 Y63.477 I-.947 J1.221 E.01317
G1 X43.854 Y48.379 E.77293
G1 X43.854 Y49.027 E.02346
G1 X57.657 Y62.829 E.70658
G1 X56.955 Y62.479 E.0284
G1 X56.626 Y62.387 E.01237
G1 X56.566 Y62.387 E.00215
G1 X43.853 Y49.674 E.65084
G1 X43.845 Y50.313 E.02316
G1 X55.916 Y62.385 E.61797
G1 X55.265 Y62.382 E.02355
G1 X43.667 Y50.784 E.59376
G3 X43.323 Y51.088 I-.808 J-.567 E.01677
G1 X54.615 Y62.38 E.57806
G1 X53.965 Y62.378 E.02355
G1 X42.88 Y51.293 E.56748
G1 X42.77 Y51.327 E.00416
G1 X42.27 Y51.331 E.01809
G1 X52.86 Y61.922 E.54215
G2 X52.585 Y61.824 I-.262 J.303 E.01082
G1 X52.102 Y61.812 E.01749
G1 X41.536 Y51.245 E.54092
G1 X41.418 Y51.2 E.00459
G1 X40.79 Y50.837 E.02627
G1 X40.593 Y50.95 E.00823
G1 X51.482 Y61.839 E.55746
G2 X51.023 Y62.028 I.183 J1.099 E.01813
G1 X40.279 Y51.285 E.54998
G1 X40.279 Y51.933 E.02346
G1 X50.722 Y62.375 E.53457
G1 X50.073 Y62.375 E.02346
G1 X43.851 Y56.153 E.31855
G1 X43.851 Y56.801 E.02347
G1 X49.425 Y62.375 E.28536
G1 X48.777 Y62.375 E.02346
G1 X43.852 Y57.449 E.25216
G1 X43.852 Y58.098 E.02347
G1 X48.129 Y62.375 E.21897
G1 X47.495 Y62.388 E.02298
M73 P2 R35
M73 P2 R35
G1 X43.852 Y58.746 E.18647
G1 X43.852 Y59.394 E.02347
G1 X47.007 Y62.549 E.16152
G1 X46.573 Y62.764 E.01752
G1 X43.853 Y60.043 E.13929
G1 X43.853 Y60.691 E.02347
G1 X46.14 Y62.978 E.11707
G1 X45.706 Y63.192 E.01752
G1 X43.853 Y61.339 E.09484
G1 X43.853 Y61.988 E.02347
G1 X45.272 Y63.406 E.07262
G2 X44.856 Y63.638 I.732 J1.803 E.01729
G1 X43.854 Y62.636 E.0513
G1 X43.854 Y63.284 E.02347
G1 X44.575 Y64.005 E.03691
G1 E-1.2 F2400
;WIPE_START
G1 F9000
G1 X43.854 Y63.284
G1 X43.854 Y62.636
G1 X44.088 Y62.871
;WIPE_END
G1 X42.67 Y55.371 Z.6
G1 X42.576 Y54.878 Z.6
G1 Z.2
G1 E1.2 F1800
G1 F4800
G1 X40.279 Y52.581 E.11759
G1 X40.279 Y53.229 E.02346
G1 X41.962 Y54.911 E.08611
G1 X41.928 Y54.943 E.00169
G2 X41.073 Y54.671 I-.823 J1.106 E.03306
G1 X40.279 Y53.877 E.04064
G1 X40.279 Y54.525 E.02346
G1 X40.631 Y54.877 E.01799
G1 E-1.2 F2400
;WIPE_START
G1 F9000
G1 X40.279 Y54.525
G1 X40.279 Y53.877
G1 X40.884 Y54.482
;WIPE_END
G1 X44.741 Y47.896 Z.6
G1 X47.332 Y43.472 Z.6
G1 Z.2
G1 E1.2 F1800
;TYPE:Gap infill
;WIDTH:0.164926
G1 X47.235 Y43.511 E.00101
;WIDTH:0.194742
G1 X47.213 Y43.518 E.00028
;WIDTH:0.19199
G1 X47.111 Y43.445 E.00147
;WIDTH:0.154302
G1 X47.009 Y43.372 E.0011
;WIDTH:0.135458
G1 X46.908 Y43.299 E.00091
G1 E-1.2 F2400
;WIPE_START
G1 F9000
G1 X47.009 Y43.372
;WIPE_END
G1 X42.943 Y49.831 Z.6
G1 X42.067 Y51.222 Z.6
G1 Z.2
G1 E1.2 F1800
;WIDTH:0.160191
G1 X41.979 Y51.279 E.00097
G1 X41.856 Y51.219 E.00127
G1 E-1.2 F2400
;WIPE_START
G1 F9000
G1 X41.979 Y51.279
G1 X42.067 Y51.222
;WIPE_END
G1 X48.205 Y55.758 Z.6
G1 X58.443 Y63.325 Z.6
G1 Z.2
G1 E1.2 F1800
;WIDTH:0.12
G1 X58.302 Y63.223 E.00106
;WIDTH:0.164459
G1 X58.16 Y63.12 E.00168
