;TIME:747.10
;Filament used:0.83716m
;Layer height:0.200
; HEADER_BLOCK_START
; generated by Creality_Print V6.0.4.1793 on 2025-03-09 at 23:18:33
; total layer number: 60
; filament_density: 1.24
; filament_diameter: 1.75
; max_z_height: 12.00
; HEADER_BLOCK_END

; MINX = 97.04
; MINY = 98.00
; MINZ = 0.00
; MAXX = 122.96
; MAXY = 122.00
; MAXZ = 12.00

; THUMBNAIL_BLOCK_START

;
; THUMBNAIL_BLOCK_END

; THUMBNAIL_BLOCK_START

;
; THUMBNAIL_BLOCK_END

; external perimeters extrusion width = 0.42mm
; perimeters extrusion width = 0.45mm
; infill extrusion width = 0.45mm
; solid infill extrusion width = 0.42mm
; top infill extrusion width = 0.42mm
; first layer extrusion width = 0.50mm

; EXECUTABLE_BLOCK_START
M73 P0 R12
M201 X5000 Y5000 Z500 E5000
M203 X500 Y500 Z30 E100
M204 P5000 R2500 T5000 ; sets acceleration (P, T) and retract acceleration (R), mm/sec^2
M205 X10.00 Y10.00 Z0.40 E5.00 ; sets the jerk limits, mm/sec
;TYPE:Custom
M220 S100 ;Reset Feedrate 
M221 S100 ;Reset Flowrate 
 
M140 S60 ;Set final bed temp 
G28 ;Home 
 
G92 E0 ;Reset Extruder 
G1 Z2.0 F3000 ;Move Z Axis up 
M104 S205 ;Set final nozzle temp 
G1 X-2.1 Y20 Z0.28 F5000.0 ;Move to start position 
M190 S60 ;Wait for bed temp to stabilize 
M109 S205 ;Wait for nozzle temp to stabilize 
G1 X-2.1 Y145.0 Z0.28 F1500.0 E15 ;Draw the first line 
G1 X-2.4 Y145.0 Z0.28 F5000.0 ;Move to side a little 
G1 X-2.4 Y20 Z0.28 F1500.0 E30 ;Draw the second line 
G92 E0  ;Reset Extruder 
G1 E-1.0000 F1800 ;Retract a bit 
M73 P1 R12
M73 P1 R12
G1 Z2.0 F3000 ;Move Z Axis up 
G1 E0.0000 F1800
G90
G21
M83 ; use relative distances for extrusion
" "
G1 E-1.2 F2400
M106 S0
;LAYER_CHANGE
;Z:0.2
;HEIGHT:0.2
;BEFORE_LAYER_CHANGE
;0.2
G92 E0

;_SET_FAN_SPEED_CHANGING_LAYER
M204 P500
M205 X10 Y10
M204 T500
G1 Z.4 F9000
G1 X81.013 Y80.702
G1 Z.2
G1 E1.2 F1800
;TYPE:Skirt
;WIDTH:0.5
G1 F3000
G1 X84.324 Y77.554 E.16496
G1 X88.133 Y75.03 E.16496
G1 X92.322 Y73.208 E.16496
G1 X96.765 Y72.142 E.16496
G1 X100.615 Y71.857 E.13937
G1 X119.385 Y71.857 E.67771
G1 X123.936 Y72.257 E.16496
G1 X128.349 Y73.442 E.16496
G1 X132.487 Y75.378 E.16496
G1 X136.226 Y78.004 E.16496
G1 X139.45 Y81.242 E.16496
G1 X142.061 Y84.991 E.16496
G1 X143.728 Y88.467 E.1392
G1 X147.303 Y97.596 E.35397
G1 X148.59 Y101.979 E.16496
G1 X149.103 Y107.129 E.18685
G1 X149.103 Y112.866 E.20715
G1 X148.703 Y117.417 E.16496
G1 X147.304 Y122.395 E.18667
G1 X143.729 Y131.528 E.35414
G1 X141.699 Y135.621 E.16496
G1 X138.987 Y139.298 E.16496
G1 X135.676 Y142.446 E.16496
G1 X131.867 Y144.97 E.16496
G1 X127.678 Y146.792 E.16496
G1 X123.235 Y147.858 E.16496
G1 X119.385 Y148.143 E.13937
G1 X100.615 Y148.143 E.67771
G1 X96.064 Y147.743 E.16496
M73 P2 R12
M73 P2 R12
G1 X91.651 Y146.558 E.16496
G1 X87.513 Y144.622 E.16496
G1 X83.774 Y141.996 E.16496
G1 X80.55 Y138.758 E.16496
G1 X77.939 Y135.009 E.16496
G1 X76.272 Y131.533 E.1392
G1 X72.697 Y122.404 E.35397
G1 X71.41 Y118.021 E.16496
G1 X70.897 Y112.871 E.18685
G1 X70.897 Y107.134 E.20715
G1 X71.297 Y102.583 E.16496
G1 X72.696 Y97.605 E.18667
G1 X76.271 Y88.472 E.35414
G1 X78.301 Y84.379 E.16496
G1 X80.99 Y80.734 E.16352
G1 X81.361 Y81.01 F9000
G1 F3000
G1 X81.409 Y80.945 E.00291
G1 X84.703 Y77.837 E.16351
G1 X88.491 Y75.356 E.16351
G1 X92.657 Y73.579 E.16351
G1 X97.069 Y72.56 E.16351
G1 X100.615 Y72.315 E.12833
G1 X119.385 Y72.315 E.67771
G1 X123.896 Y72.714 E.16351
G1 X128.267 Y73.899 E.16351
G1 X132.361 Y75.833 E.16351
G1 X136.053 Y78.457 E.16351
G1 X139.226 Y81.688 E.16351
G1 X141.782 Y85.426 E.16351
G1 X143.302 Y88.634 E.12815
G1 X146.877 Y97.762 E.35397
G1 X148.15 Y102.108 E.16351
G1 X148.646 Y107.129 E.18215
G1 X148.646 Y112.866 E.20715
G1 X148.246 Y117.377 E.16351
G1 X146.879 Y122.228 E.18198
G1 X143.304 Y131.362 E.35414
G1 X141.288 Y135.417 E.16351
G1 X138.591 Y139.055 E.16351
G1 X135.297 Y142.163 E.16351
G1 X131.509 Y144.644 E.16351
G1 X127.343 Y146.421 E.16351
G1 X122.931 Y147.44 E.16351
G1 X119.385 Y147.685 E.12833
G1 X100.615 Y147.685 E.67771
G1 X96.104 Y147.286 E.16351
G1 X91.733 Y146.101 E.16351
G1 X87.639 Y144.167 E.16351
G1 X83.947 Y141.543 E.16351
G1 X80.774 Y138.312 E.16351
G1 X78.218 Y134.574 E.16351
G1 X76.698 Y131.366 E.12815
G1 X73.123 Y122.238 E.35397
G1 X71.85 Y117.892 E.16351
G1 X71.354 Y112.871 E.18215
G1 X71.354 Y107.134 E.20715
G1 X71.754 Y102.623 E.16351
G1 X73.121 Y97.772 E.18198
G1 X76.696 Y88.638 E.35414
G1 X78.712 Y84.583 E.16351
G1 X81.337 Y81.042 E.15916
G1 X81.708 Y81.318 F9000
G1 F3000
G1 X81.804 Y81.188 E.00583
G1 X85.081 Y78.121 E.16205
G1 X88.849 Y75.683 E.16205
G1 X92.99 Y73.952 E.16205
G1 X97.371 Y72.981 E.16205
G1 X100.615 Y72.772 E.11736
G1 X119.385 Y72.772 E.67771
M73 P3 R12
M73 P3 R12
G1 X123.855 Y73.171 E.16205
G1 X128.184 Y74.356 E.16205
G1 X132.234 Y76.289 E.16205
G1 X135.878 Y78.909 E.16205
G1 X139 Y82.134 E.16205
G1 X141.501 Y85.861 E.16205
G1 X142.876 Y88.8 E.11719
G1 X146.451 Y97.929 E.35397
G1 X147.71 Y102.237 E.16205
G1 X148.189 Y107.129 E.17747
G1 X148.189 Y112.866 E.20715
G1 X147.789 Y117.336 E.16205
G1 X146.453 Y122.061 E.17729
G1 X142.878 Y131.195 E.35414
G1 X140.877 Y135.212 E.16205
G1 X138.196 Y138.812 E.16205
G1 X134.919 Y141.879 E.16205
G1 X131.151 Y144.317 E.16205
G1 X127.01 Y146.048 E.16205
G1 X122.629 Y147.019 E.16205
G1 X119.385 Y147.228 E.11736
G1 X100.615 Y147.228 E.67771
G1 X96.145 Y146.829 E.16205
G1 X91.816 Y145.644 E.16205
G1 X87.766 Y143.711 E.16205
G1 X84.122 Y141.091 E.16205
G1 X81 Y137.866 E.16205
G1 X78.499 Y134.139 E.16205
G1 X77.124 Y131.2 E.11719
G1 X73.549 Y122.071 E.35397
G1 X72.29 Y117.763 E.16205
G1 X71.811 Y112.871 E.17747
G1 X71.811 Y107.134 E.20715
G1 X72.211 Y102.664 E.16205
G1 X73.547 Y97.939 E.17729
G1 X77.122 Y88.805 E.35414
G1 X79.123 Y84.788 E.16205
G1 X81.684 Y81.35 E.15478
; printing object Underware_Connectors.stl id:13715442450502254592 copy 0
G1 E-1.2 F2400
;WIPE_START
G1 F9000
G1 X81.804 Y81.188
G1 X83.117 Y79.959
;WIPE_END
G1 X88.756 Y85.103 Z.6
G1 X118.66 Y112.384 Z.6
G1 Z.2
M73 P3 R11
M73 P3 R11
G1 E1.2 F1800
;TYPE:Inner wall
;WIDTH:0.499999
G1 X118.531 Y112.72 E.01298
G1 X118.528 Y121.143 E.30412
G1 X117.123 Y121.143 E.05073
G1 X117.058 Y121.003 E.00558
G1 X116.863 Y120.836 E.00926
G1 X114.772 Y119.79 E.08441
G1 X114.465 Y119.718 E.01137
G1 X111.036 Y119.718 E.12381
G1 X110.937 Y119.451 E.0103
G2 X110.528 Y119.167 I-.643 J.49 E.01826
G1 X109.63 Y119.143 E.03246
G1 X109.309 Y119.227 E.01198
G1 X109.127 Y119.358 E.00811
G1 X108.964 Y119.718 E.01426
G1 X105.535 Y119.718 E.12381
G1 X105.228 Y119.79 E.01137
G1 X103.038 Y120.885 E.08839
G1 X102.877 Y121.143 E.01098
G1 X101.472 Y121.143 E.05073
G1 X101.469 Y112.725 E.30395
G1 X101.371 Y112.432 E.01114
G1 X101.101 Y112.179 E.01335
G1 X100.614 Y112.012 E.01859
G1 X100.282 Y112.08 E.01224
G1 X99.939 Y112.367 E.01617
G1 X99.489 Y112.107 E.01879
G1 X99.145 Y112.014 E.01285
G1 X98.419 Y112.014 E.02621
G2 X97.897 Y112.209 I.108 J1.084 E.02033
G3 X97.898 Y107.923 I1030.316 J-1.892 E.15474
G1 X98.663 Y107.492 E.0317
G1 X98.838 Y107.492 E.00633
G1 X99.542 Y107.899 E.02937
G1 X99.943 Y107.991 E.01486
G1 X100.566 Y107.99 E.02248
G1 X100.908 Y107.919 E.01262
G1 X101.315 Y107.639 E.01783
G1 X101.465 Y107.288 E.01379
M73 P4 R11
M73 P4 R11
G1 X101.472 Y98.857 E.30439
G1 X102.877 Y98.857 E.05073
G1 X102.942 Y98.997 E.00558
G1 X103.137 Y99.164 E.00926
G1 X105.228 Y100.21 E.08441
G1 X105.535 Y100.282 E.01137
G1 X108.964 Y100.282 E.12381
G1 X109.063 Y100.549 E.0103
G2 X109.466 Y100.833 I.652 J-.498 E.01808
G2 X110.546 Y100.833 I.539 J-6 E.03903
G1 X110.85 Y100.66 E.01262
G1 X110.937 Y100.549 E.00508
G1 X111.036 Y100.282 E.0103
G1 X114.465 Y100.282 E.12381
G1 X114.772 Y100.21 E.01137
G1 X116.962 Y99.115 E.08839
G1 X117.123 Y98.857 E.01098
G1 X118.528 Y98.857 E.05073
G1 X118.531 Y107.354 E.30679
G1 X118.644 Y107.675 E.01229
G1 X118.94 Y107.922 E.01391
G1 X119.067 Y107.963 E.00482
G1 X120.067 Y107.986 E.0361
G1 X120.424 Y107.894 E.0133
G1 X121.058 Y107.529 E.02643
G3 X121.383 Y107.529 I.162 J.282 E.0123
G1 X122.067 Y107.916 E.02837
G1 X122.103 Y107.964 E.00215
G1 X122.103 Y112.185 E.15242
G1 X121.958 Y112.101 E.00605
G1 X121.615 Y112.009 E.01283
G1 X120.889 Y112.009 E.0262
G1 X120.547 Y112.1 E.01277
G1 X120.072 Y112.373 E.01977
G1 X119.772 Y112.097 E.01474
G1 X119.43 Y112.003 E.01278
G1 X118.969 Y112.136 E.01732
G1 X118.68 Y112.351 E.013
G1 X119.407 Y112.461 F9000
;TYPE:Outer wall
G1 F1800
G1 X119.052 Y112.615 E.014
G1 X118.985 Y112.777 E.0063
G1 X118.985 Y121.6 E.31857
G1 X116.785 Y121.6 E.07943
G1 X116.785 Y121.449 E.00544
G1 X116.659 Y121.245 E.00868
G1 X114.519 Y120.175 E.08635
G1 X110.605 Y120.175 E.14133
G1 X110.605 Y119.829 E.01252
G1 X110.501 Y119.637 E.00786
G1 X110.376 Y119.6 E.0047
G1 X109.624 Y119.6 E.02718
G1 X109.499 Y119.637 E.0047
G1 X109.395 Y119.829 E.00786
G1 X109.395 Y120.175 E.01252
G1 X105.481 Y120.175 E.14133
G1 X103.341 Y121.245 E.08635
G1 X103.215 Y121.449 E.00868
G1 X103.215 Y121.6 E.00544
G1 X101.015 Y121.6 E.07943
G1 X101.015 Y112.767 E.31893
G1 X100.935 Y112.608 E.00643
G1 X100.578 Y112.465 E.01386
G1 X100.413 Y112.532 E.00642
G1 X100.009 Y112.937 E.02063
G2 X99.145 Y112.471 I-3.529 J5.52 E.03548
G1 X98.419 Y112.471 E.02621
G1 X98.305 Y112.502 E.00426
G1 X97.627 Y112.892 E.02825
G1 X97.44 Y112.706 E.00953
G1 X97.44 Y107.534 E.18673
G1 X97.725 Y107.503 E.01035
G1 X98.541 Y107.035 E.03397
G1 X98.96 Y107.035 E.01516
G1 X99.771 Y107.503 E.0338
G2 X100.656 Y107.529 I.574 J-4.422 E.03202
G1 X100.957 Y107.356 E.01254
G1 X101.015 Y107.204 E.00587
G1 X101.015 Y98.4 E.31787
G1 X103.215 Y98.4 E.07943
G1 X103.215 Y98.551 E.00544
G1 X103.341 Y98.755 E.00868
G1 X105.481 Y99.825 E.08635
G1 X109.395 Y99.825 E.14133
G1 X109.395 Y100.171 E.01252
G1 X109.499 Y100.363 E.00786
G1 X109.624 Y100.4 E.0047
G1 X110.376 Y100.4 E.02718
G1 X110.501 Y100.363 E.0047
G1 X110.605 Y100.171 E.00786
G1 X110.605 Y99.825 E.01252
G1 X114.519 Y99.825 E.14133
G1 X116.659 Y98.755 E.08635
G1 X116.785 Y98.551 E.00868
G1 X116.785 Y98.4 E.00544
G1 X118.985 Y98.4 E.07943
G1 X118.985 Y107.3 E.32135
G1 X119.052 Y107.462 E.0063
G1 X119.214 Y107.529 E.00633
G1 X120.057 Y107.529 E.03046
G1 X120.195 Y107.498 E.00511
G1 X121.011 Y107.028 E.03398
G1 X121.43 Y107.028 E.01514
G1 X122.241 Y107.498 E.03382
G1 X122.56 Y107.529 E.01158
G1 X122.56 Y112.7 E.18672
G1 X122.384 Y112.876 E.00896
G1 X121.729 Y112.497 E.02733
G1 X121.615 Y112.466 E.00428
G1 X120.889 Y112.466 E.0262
G1 X120.775 Y112.497 E.00426
G1 X120.001 Y112.941 E.03222
G1 X119.541 Y112.492 E.02325
G1 X119.446 Y112.47 E.0035
G1 E-1.2 F2400
;WIPE_START
G1 F9000
G1 X119.052 Y112.615
G1 X118.985 Y112.777
G1 X118.985 Y114.182
;WIPE_END
G1 X118.667 Y106.556 Z.6
G1 X118.391 Y99.921 Z.6
G1 Z.2
G1 E1.2 F1800
;TYPE:Bottom surface
;WIDTH:0.501178
G1 F4800
G1 X117.67 Y99.2 E.03692
G1 X117.326 Y99.2 E.01247
G3 X117.184 Y99.362 I-.296 J-.117 E.00795
G1 X118.186 Y100.364 E.0513
G1 X118.186 Y101.012 E.02347
G1 X116.768 Y99.594 E.07261
G1 X116.334 Y99.808 E.01752
G1 X118.186 Y101.66 E.09484
G1 X118.186 Y102.309 E.02347
G1 X115.9 Y100.022 E.11706
G1 X115.466 Y100.236 E.01752
M73 P5 R11
M73 P5 R11
G1 X118.187 Y102.957 E.13929
G1 X118.187 Y103.605 E.02347
G1 X115.032 Y100.45 E.16151
G3 X114.545 Y100.611 I-.539 J-.815 E.01879
G1 X118.187 Y104.254 E.18646
G1 X118.187 Y104.902 E.02347
G1 X113.91 Y100.625 E.21897
G1 X113.262 Y100.625 E.02346
G1 X118.188 Y105.55 E.25215
G1 X118.188 Y106.199 E.02347
G1 X112.614 Y100.625 E.28534
G1 X111.966 Y100.625 E.02346
G1 X118.394 Y107.053 E.32907
G1 E-1.2 F2400
;WIPE_START
G1 F9000
G1 X116.98 Y105.638
;WIPE_END
G1 X121.004 Y107.718 Z.6
G1 Z.2
G1 E1.2 F1800
G1 F4800
G1 X121.76 Y108.475 E.03872
G1 X121.76 Y109.123 E.02346
G1 X120.743 Y108.106 E.05206
G3 X120.282 Y108.293 I-.653 J-.949 E.01816
G1 X121.76 Y109.771 E.07567
G1 X121.76 Y110.419 E.02346
G1 X119.448 Y108.107 E.11836
G1 E-1.2 F2400
;WIPE_START
G1 F9000
G1 X120.862 Y109.521
;WIPE_END
G1 X121.966 Y111.273 Z.6
G1 Z.2
G1 E1.2 F1800
G1 F4800
G1 X111.318 Y100.625 E.5451
G1 X111.275 Y100.625 E.00156
G1 X111.252 Y100.686 E.00235
G1 X111.055 Y100.935 E.01153
G1 X111.01 Y100.965 E.00194
G1 X121.733 Y111.688 E.54898
G1 X121.626 Y111.666 E.00396
G1 X121.063 Y111.666 E.02038
G1 X110.571 Y101.174 E.53713
G1 X109.948 Y101.199 E.02259
G1 X120.501 Y111.752 E.54024
G1 X120.123 Y111.95 E.01542
G2 X119.861 Y111.76 I-.997 J1.102 E.01175
G1 X109.205 Y101.104 E.54554
G1 X108.944 Y100.934 E.01126
G1 X108.748 Y100.685 E.01147
G1 X108.725 Y100.625 E.00234
G1 X108.077 Y100.625 E.02345
G1 X119.169 Y111.716 E.56781
G2 X118.699 Y111.895 I.251 J1.369 E.01829
G1 X107.429 Y100.625 E.57694
G1 X106.781 Y100.625 E.02346
G1 X118.367 Y112.21 E.59308
G1 X118.227 Y112.512 E.01204
G1 X118.193 Y112.685 E.00637
G1 X106.133 Y100.625 E.61739
G1 X105.476 Y100.615 E.0238
G1 X118.188 Y113.328 E.65079
G1 X118.188 Y113.976 E.02345
G1 X104.365 Y100.153 E.70763
G1 X103.085 Y99.521 E.05167
G1 X118.188 Y114.624 E.77315
G1 X118.188 Y115.271 E.02345
G1 X102.116 Y99.2 E.82274
G1 X101.815 Y99.2 E.01091
M73 P6 R11
M73 P6 R11
G1 X101.815 Y99.547 E.01255
G1 X118.187 Y115.919 E.83816
G1 X118.187 Y116.567 E.02345
G1 X101.815 Y100.195 E.83815
G1 X101.815 Y100.843 E.02346
G1 X118.187 Y117.215 E.83813
G1 X118.187 Y117.863 E.02345
G1 X101.815 Y101.491 E.83812
G1 X101.815 Y102.139 E.02346
G1 X118.186 Y118.51 E.8381
G1 X118.186 Y119.158 E.02345
G1 X101.815 Y102.787 E.83809
G1 X101.815 Y103.435 E.02346
G1 X118.186 Y119.806 E.83808
G1 X118.185 Y120.454 E.02345
G1 X101.815 Y104.083 E.83806
G1 X101.815 Y104.731 E.02346
G1 X117.884 Y120.8 E.82261
G1 X117.326 Y120.8 E.02019
G1 X117.224 Y120.665 E.00612
G2 X116.913 Y120.478 I-.947 J1.221 E.01317
G1 X101.815 Y105.379 E.77293
G1 X101.815 Y106.027 E.02346
G1 X115.617 Y119.83 E.70658
G1 X114.915 Y119.479 E.0284
G1 X114.586 Y119.388 E.01237
G1 X114.527 Y119.387 E.00215
G1 X101.813 Y106.674 E.65084
G1 X101.805 Y107.314 E.02316
G1 X113.876 Y119.385 E.61797
G1 X113.226 Y119.383 E.02355
G1 X101.628 Y107.784 E.59376
G3 X101.284 Y108.089 I-.808 J-.567 E.01677
G1 X112.575 Y119.38 E.57806
G1 X111.925 Y119.378 E.02355
G1 X100.84 Y108.293 E.56748
G1 X100.73 Y108.328 E.00416
G1 X100.231 Y108.332 E.01809
G1 X110.821 Y118.922 E.54215
G2 X110.546 Y118.824 I-.262 J.303 E.01082
G1 X110.063 Y118.812 E.01749
G1 X99.497 Y108.246 E.54092
G1 X99.378 Y108.2 E.00459
M73 P7 R11
M73 P7 R11
G1 X98.75 Y107.837 E.02627
G1 X98.553 Y107.95 E.00823
G1 X109.442 Y118.84 E.55746
G2 X108.983 Y119.028 I.183 J1.099 E.01813
G1 X98.24 Y108.285 E.54998
G1 X98.24 Y108.933 E.02346
G1 X108.682 Y119.375 E.53457
G1 X108.034 Y119.375 E.02346
G1 X101.812 Y113.153 E.31855
G1 X101.812 Y113.801 E.02347
G1 X107.386 Y119.375 E.28536
G1 X106.738 Y119.375 E.02346
G1 X101.812 Y114.45 E.25216
G1 X101.812 Y115.098 E.02347
G1 X106.09 Y119.375 E.21897
G1 X105.455 Y119.389 E.02298
G1 X101.813 Y115.746 E.18647
G1 X101.813 Y116.395 E.02347
G1 X104.968 Y119.55 E.16152
G1 X104.534 Y119.764 E.01752
G1 X101.813 Y117.043 E.13929
G1 X101.813 Y117.691 E.02347
G1 X104.1 Y119.978 E.11707
G1 X103.666 Y120.192 E.01752
G1 X101.814 Y118.34 E.09484
G1 X101.814 Y118.988 E.02347
G1 X103.232 Y120.406 E.07262
G2 X102.816 Y120.638 I.732 J1.803 E.01729
G1 X101.814 Y119.636 E.0513
G1 X101.814 Y120.285 E.02347
G1 X102.535 Y121.006 E.03691
G1 E-1.2 F2400
;WIPE_START
G1 F9000
G1 X101.814 Y120.285
G1 X101.814 Y119.636
G1 X102.049 Y119.871
;WIPE_END
G1 X100.63 Y112.372 Z.6
G1 X100.537 Y111.878 Z.6
G1 Z.2
G1 E1.2 F1800
G1 F4800
G1 X98.24 Y109.581 E.11759
G1 X98.24 Y110.229 E.02346
G1 X99.922 Y111.911 E.08611
G1 X99.888 Y111.943 E.00169
G2 X99.034 Y111.671 I-.823 J1.106 E.03306
G1 X98.24 Y110.877 E.04064
G1 X98.24 Y111.525 E.02346
G1 X98.591 Y111.877 E.01799
G1 E-1.2 F2400
;WIPE_START
G1 F9000
G1 X98.24 Y111.525
G1 X98.24 Y110.877
G1 X98.844 Y111.482
;WIPE_END
G1 X102.702 Y104.896 Z.6
G1 X105.292 Y100.473 Z.6
G1 Z.2
G1 E1.2 F1800
;TYPE:Gap infill
;WIDTH:0.164926
G1 X105.195 Y100.511 E.00101
;WIDTH:0.194742
G1 X105.173 Y100.518 E.00028
;WIDTH:0.19199
G1 X105.072 Y100.445 E.00147
;WIDTH:0.154302
G1 X104.97 Y100.372 E.0011
;WIDTH:0.135458
G1 X104.868 Y100.299 E.00091
G1 E-1.2 F2400
;WIPE_START
G1 F9000
G1 X104.97 Y100.372
;WIPE_END
