;TIME:2043.48
;Filament used:1.45780m
;Layer height:0.200
; HEADER_BLOCK_START
; generated by Creality_Print V6.0.4.1793 on 2025-03-05 at 22:26:32
; total layer number: 588
; filament_density: 1.24
; filament_diameter: 1.75
; max_z_height: 19.60
; HEADER_BLOCK_END

; MINX = 9.50
; MINY = 42.02
; MINZ = 0.00
; MAXX = 210.50
; MAXY = 177.99
; MAXZ = 19.50

; THUMBNAIL_BLOCK_START

;
; THUMBNAIL_BLOCK_END

; THUMBNAIL_BLOCK_START

;
; THUMBNAIL_BLOCK_END

; external perimeters extrusion width = 0.42mm
; perimeters extrusion width = 0.45mm
; infill extrusion width = 0.45mm
; solid infill extrusion width = 0.42mm
; top infill extrusion width = 0.42mm
; first layer extrusion width = 0.50mm

; external perimeters extrusion width = 0.42mm
; perimeters extrusion width = 0.45mm
; infill extrusion width = 0.45mm
; solid infill extrusion width = 0.42mm
; top infill extrusion width = 0.42mm
; first layer extrusion width = 0.50mm

; external perimeters extrusion width = 0.42mm
; perimeters extrusion width = 0.45mm
; infill extrusion width = 0.45mm
; solid infill extrusion width = 0.42mm
; top infill extrusion width = 0.42mm
; first layer extrusion width = 0.50mm

; external perimeters extrusion width = 0.42mm
; perimeters extrusion width = 0.45mm
; infill extrusion width = 0.45mm
; solid infill extrusion width = 0.42mm
; top infill extrusion width = 0.42mm
; first layer extrusion width = 0.50mm

; external perimeters extrusion width = 0.42mm
; perimeters extrusion width = 0.45mm
; infill extrusion width = 0.45mm
; solid infill extrusion width = 0.42mm
; top infill extrusion width = 0.42mm
; first layer extrusion width = 0.50mm

; external perimeters extrusion width = 0.42mm
; perimeters extrusion width = 0.45mm
; infill extrusion width = 0.45mm
; solid infill extrusion width = 0.42mm
; top infill extrusion width = 0.42mm
; first layer extrusion width = 0.50mm

; EXECUTABLE_BLOCK_START
M73 P0 R34
M201 X5000 Y5000 Z500 E5000
M203 X500 Y500 Z30 E100
M204 P5000 R2500 T5000 ; sets acceleration (P, T) and retract acceleration (R), mm/sec^2
M205 X10.00 Y10.00 Z0.40 E5.00 ; sets the jerk limits, mm/sec
;TYPE:Custom
M220 S100 ;Reset Feedrate 
M221 S100 ;Reset Flowrate 
 
M140 S60 ;Set final bed temp 
G28 ;Home 
 
G92 E0 ;Reset Extruder 
G1 Z2.0 F3000 ;Move Z Axis up 
M104 S205 ;Set final nozzle temp 
G1 X-2.1 Y20 Z0.28 F5000.0 ;Move to start position 
M190 S60 ;Wait for bed temp to stabilize 
M109 S205 ;Wait for nozzle temp to stabilize 
G1 X-2.1 Y145.0 Z0.28 F1500.0 E15 ;Draw the first line 
G1 X-2.4 Y145.0 Z0.28 F5000.0 ;Move to side a little 
M73 P0 R33
M73 P0 R33
G1 X-2.4 Y20 Z0.28 F1500.0 E30 ;Draw the second line 
G92 E0  ;Reset Extruder 
G1 E-1.0000 F1800 ;Retract a bit 
G1 Z2.0 F3000 ;Move Z Axis up 
G1 E0.0000 F1800
G90
G21
M83 ; use relative distances for extrusion
" "
G1 E-1.2 F2400
M106 S0
;LAYER_CHANGE
;Z:0.2
;HEIGHT:0.2
;BEFORE_LAYER_CHANGE
;0.2
G92 E0

;_SET_FAN_SPEED_CHANGING_LAYER
M204 P500
M205 X10 Y10
; printing object visagra.STL id:19140762277838929 copy 0
M204 T500
G1 Z.4 F9000
G1 X10.669 Y37.926
G1 Z.2
G1 E1.2 F1800
;TYPE:Brim
;WIDTH:0.5
G1 X11.378 Y37.744 E.02645
G1 X11.953 Y37.646 E.02105
G1 X12.703 Y37.583 E.02717
G1 X13.295 Y37.583 E.02138
G1 X14.029 Y37.643 E.02658
G1 X14.58 Y37.735 E.02019
G1 X15.284 Y37.913 E.02621
G1 X15.829 Y38.098 E.02079
G1 X16.504 Y38.393 E.02657
G1 X17.011 Y38.665 E.02078
G1 X17.628 Y39.066 E.02657
G1 X18.083 Y39.419 E.02078
G1 X18.625 Y39.916 E.02657
G1 X19.016 Y40.339 E.02078
G1 X19.469 Y40.918 E.02656
G1 X19.785 Y41.399 E.02076
G1 X20.137 Y42.045 E.02657
G1 X20.369 Y42.572 E.02081
G1 X20.61 Y43.268 E.02659
G1 X20.753 Y43.826 E.02078
G1 X20.875 Y44.55 E.02651
G1 X20.941 Y45.511 E.03478
G1 X20.941 Y61.507 E.57754
G1 X20.879 Y62.443 E.03387
G1 X20.76 Y63.161 E.0263
G1 X20.62 Y63.72 E.02079
G1 X20.383 Y64.415 E.02653
G1 X20.069 Y65.123 E.02797
G1 X19.792 Y65.613 E.02031
G1 X19.485 Y66.083 E.02027
G1 X19.04 Y66.656 E.02621
G1 X18.651 Y67.081 E.02079
G1 X18.111 Y67.581 E.02657
G1 X17.657 Y67.935 E.02078
G1 X17.042 Y68.339 E.02657
G1 X16.536 Y68.614 E.02078
G1 X15.863 Y68.911 E.02657
G1 X15.319 Y69.1 E.02078
G1 X14.606 Y69.282 E.02657
G1 X14.038 Y69.378 E.02078
G1 X13.305 Y69.44 E.02657
G1 X12.729 Y69.442 E.02078
G1 X11.996 Y69.383 E.02657
G1 X11.428 Y69.289 E.02078
G1 X10.714 Y69.11 E.02657
G1 X10.169 Y68.924 E.02078
G1 X9.494 Y68.63 E.02657
G1 X8.987 Y68.358 E.02078
G1 X8.37 Y67.956 E.02657
G1 X7.915 Y67.604 E.02078
G1 X7.373 Y67.107 E.02657
G1 X6.982 Y66.684 E.02078
G1 X6.529 Y66.104 E.02657
G1 X6.213 Y65.623 E.02078
G1 X5.861 Y64.977 E.02657
G1 X5.628 Y64.45 E.02078
G1 X5.388 Y63.755 E.02657
G1 X5.245 Y63.197 E.02078
G1 X5.123 Y62.473 E.0265
G1 X5.057 Y61.512 E.03478
G1 X5.057 Y45.519 E.57743
G1 X5.122 Y44.559 E.03474
G1 X5.24 Y43.849 E.02601
G1 X5.378 Y43.3 E.02043
G1 X5.614 Y42.609 E.02637
G1 X5.838 Y42.094 E.02029
G1 X6.18 Y41.455 E.02616
G1 X6.5 Y40.96 E.02127
G1 X6.958 Y40.367 E.02707
G1 X7.347 Y39.942 E.02079
G1 X7.888 Y39.442 E.02663
G1 X8.343 Y39.086 E.02084
G1 X8.958 Y38.683 E.02657
G1 X9.463 Y38.408 E.02073
G1 X10.132 Y38.112 E.02643
G1 X10.631 Y37.94 E.01906
G1 X10.781 Y38.372 F9000
G1 F1800
G1 X10.806 Y38.363 E.00097
G1 X11.468 Y38.193 E.02468
G1 X12.005 Y38.101 E.01967
G1 X12.716 Y38.04 E.02578
G1 X13.282 Y38.04 E.02041
G1 X13.966 Y38.097 E.02481
G1 X14.481 Y38.182 E.01884
G1 X15.149 Y38.35 E.02486
G1 X15.658 Y38.523 E.01943
G1 X16.298 Y38.802 E.02521
G1 X16.772 Y39.056 E.01942
G1 X17.358 Y39.436 E.02521
G1 X17.783 Y39.765 E.01942
G1 X18.306 Y40.245 E.02562
G1 X18.671 Y40.64 E.01942
G1 X19.101 Y41.19 E.02519
G1 X19.395 Y41.639 E.01939
G1 X19.728 Y42.252 E.02521
G1 X19.946 Y42.745 E.01944
G1 X20.17 Y43.395 E.02482
G1 X20.306 Y43.927 E.01983
G1 X20.42 Y44.597 E.02455
G1 X20.484 Y45.531 E.03381
G1 X20.484 Y61.487 E.5761
G1 X20.425 Y62.383 E.03243
G1 X20.313 Y63.063 E.02485
G1 X20.18 Y63.595 E.01984
G1 X19.955 Y64.254 E.02513
G1 X19.663 Y64.912 E.02597
G1 X19.399 Y65.379 E.01938
G1 X19.109 Y65.822 E.01912
G1 X18.694 Y66.357 E.02446
G1 X18.323 Y66.762 E.01984
G1 X17.818 Y67.228 E.0248
G1 X17.386 Y67.567 E.01983
G1 X16.812 Y67.944 E.0248
G1 X16.339 Y68.201 E.01942
G1 X15.701 Y68.483 E.02521
G1 X15.182 Y68.663 E.01983
G1 X14.505 Y68.835 E.02521
G1 X13.975 Y68.925 E.01942
G1 X13.291 Y68.983 E.0248
G1 X12.753 Y68.985 E.01942
G1 X12.057 Y68.929 E.02521
G1 X11.526 Y68.842 E.01942
G1 X10.849 Y68.673 E.02521
G1 X10.34 Y68.5 E.01942
G1 X9.689 Y68.216 E.02562
G1 X9.216 Y67.961 E.01942
G1 X8.631 Y67.58 E.02521
G1 X8.206 Y67.25 E.01942
G1 X7.692 Y66.778 E.02521
G1 X7.327 Y66.383 E.01942
G1 X6.897 Y65.833 E.02521
G1 X6.602 Y65.383 E.01942
G1 X6.269 Y64.77 E.02521
G1 X6.052 Y64.277 E.01942
G1 X5.828 Y63.628 E.0248
G1 X5.692 Y63.096 E.01983
G1 X5.578 Y62.426 E.02455
G1 X5.514 Y61.492 E.03381
G1 X5.514 Y45.539 E.57598
G1 X5.576 Y44.619 E.0333
G1 X5.687 Y43.948 E.02457
G1 X5.819 Y43.425 E.01948
G1 X6.043 Y42.769 E.02501
G1 X6.252 Y42.288 E.01893
G1 X6.572 Y41.692 E.02441
G1 X6.87 Y41.229 E.01989
G1 X7.304 Y40.666 E.02568
G1 X7.675 Y40.261 E.01982
G1 X8.181 Y39.794 E.02485
G1 X8.614 Y39.455 E.01988
G1 X9.198 Y39.072 E.0252
G1 X9.67 Y38.816 E.01937
G1 X10.295 Y38.54 E.02467
G1 X10.743 Y38.385 E.01714
G1 X10.893 Y38.817 F9000
G1 F1800
G1 X10.944 Y38.8 E.00194
G1 X11.559 Y38.642 E.02292
G1 X12.058 Y38.556 E.01829
G1 X12.73 Y38.498 E.02437
G1 X13.268 Y38.498 E.01944
G1 X13.904 Y38.55 E.02304
G1 X14.382 Y38.629 E.01749
G1 X15.014 Y38.787 E.02351
G1 X15.488 Y38.948 E.01807
G1 X16.094 Y39.211 E.02384
G1 X16.534 Y39.447 E.01805
G1 X17.088 Y39.806 E.02384
G1 X17.484 Y40.112 E.01804
G1 X17.987 Y40.573 E.02465
G1 X18.326 Y40.94 E.01804
G1 X18.732 Y41.461 E.02383
G1 X19.005 Y41.879 E.01802
G1 X19.32 Y42.459 E.02384
G1 X19.521 Y42.917 E.01808
G1 X19.733 Y43.532 E.02346
G1 X19.86 Y44.027 E.01846
G1 X19.964 Y44.644 E.0226
G1 X20.027 Y45.552 E.03284
G1 X20.027 Y61.467 E.57466
G1 X19.971 Y62.324 E.03101
G1 X19.866 Y62.964 E.0234
G1 X19.739 Y63.471 E.01887
G1 X19.526 Y64.093 E.02373
G1 X19.257 Y64.7 E.02398
G1 X19.006 Y65.145 E.01844
G1 X18.733 Y65.56 E.01795
G1 X18.348 Y66.057 E.02272
G1 X17.994 Y66.443 E.01889
G1 X17.526 Y66.876 E.02303
G1 X17.123 Y67.191 E.01846
G1 X16.581 Y67.548 E.02344
G1 X16.132 Y67.793 E.01846
G1 X15.539 Y68.055 E.02342
G1 X15.045 Y68.226 E.01886
G1 X14.405 Y68.389 E.02383
G1 X13.912 Y68.471 E.01805
G1 X13.276 Y68.525 E.02304
G1 X12.776 Y68.527 E.01805
G1 X12.118 Y68.475 E.02384
G1 X11.624 Y68.395 E.01805
G1 X10.984 Y68.235 E.02384
G1 X10.51 Y68.075 E.01804
G1 X9.884 Y67.802 E.02465
G1 X9.445 Y67.565 E.01804
G1 X8.892 Y67.204 E.02384
G1 X8.497 Y66.897 E.01805
G1 X8.011 Y66.45 E.02384
G1 X7.672 Y66.083 E.01805
G1 X7.266 Y65.562 E.02384
G1 X6.992 Y65.143 E.01805
G1 X6.677 Y64.563 E.02384
G1 X6.476 Y64.105 E.01805
G1 X6.265 Y63.491 E.02344
G1 X6.138 Y62.996 E.01846
G1 X6.034 Y62.379 E.0226
G1 X5.971 Y61.471 E.03284
G1 X5.971 Y45.559 E.57452
G1 X6.03 Y44.679 E.03187
G1 X6.134 Y44.047 E.02313
G1 X6.259 Y43.549 E.01853
G1 X6.472 Y42.929 E.02365
G1 X6.667 Y42.483 E.01759
G1 X6.963 Y41.929 E.02268
G1 X7.241 Y41.498 E.01852
G1 X7.651 Y40.965 E.02428
G1 X8.004 Y40.58 E.01885
G1 X8.473 Y40.146 E.02307
G1 X8.886 Y39.824 E.01892
G1 X9.438 Y39.462 E.02383
G1 X9.876 Y39.225 E.01801
G1 X10.457 Y38.968 E.02291
G1 X10.855 Y38.83 E.01522
G1 X11.005 Y39.263 F9000
G1 F1800
G1 X11.081 Y39.236 E.0029
G1 X11.649 Y39.09 E.02117
G1 X12.11 Y39.01 E.01691
G1 X12.744 Y38.955 E.02296
G1 X13.255 Y38.955 E.01846
G1 X13.843 Y39.004 E.02128
G1 X14.284 Y39.076 E.01614
G1 X14.879 Y39.225 E.02217
G1 X15.318 Y39.373 E.01671
G1 X15.889 Y39.621 E.02248
G1 X16.297 Y39.838 E.01668
G1 X16.819 Y40.177 E.02248
G1 X17.185 Y40.458 E.01666
G1 X17.668 Y40.901 E.02367
G1 X17.981 Y41.241 E.01666
G1 X18.363 Y41.732 E.02246
G1 X18.615 Y42.118 E.01666
G1 X18.912 Y42.665 E.02248
G1 X19.097 Y43.09 E.01672
G1 X19.297 Y43.668 E.0221
G1 X19.413 Y44.127 E.0171
G1 X19.509 Y44.692 E.02066
G1 X19.57 Y45.572 E.03187
G1 X19.57 Y61.448 E.57322
G1 X19.517 Y62.266 E.02959
G1 X19.419 Y62.866 E.02194
G1 X19.299 Y63.347 E.0179
G1 X19.098 Y63.931 E.02232
G1 X18.851 Y64.488 E.02201
G1 X18.613 Y64.911 E.0175
G1 X18.358 Y65.299 E.01677
G1 X18.001 Y65.758 E.02098
G1 X17.666 Y66.124 E.01794
G1 X17.233 Y66.524 E.02126
M73 P1 R33
M73 P1 R33
G1 X16.861 Y66.816 E.0171
G1 X16.35 Y67.153 E.02208
G1 X15.925 Y67.385 E.01751
G1 X15.376 Y67.627 E.02164
G1 X14.908 Y67.789 E.01789
G1 X14.305 Y67.942 E.02245
G1 X13.849 Y68.018 E.0167
G1 X13.261 Y68.068 E.02131
G1 X12.799 Y68.07 E.01669
G1 X12.178 Y68.022 E.02248
G1 X11.722 Y67.948 E.01668
G1 X11.118 Y67.798 E.02248
G1 X10.681 Y67.65 E.01666
G1 X10.08 Y67.388 E.02367
G1 X9.674 Y67.168 E.01666
G1 X9.153 Y66.828 E.02248
G1 X8.788 Y66.544 E.01668
G1 X8.33 Y66.122 E.02248
G1 X8.017 Y65.782 E.01668
G1 X7.635 Y65.291 E.02248
G1 X7.382 Y64.904 E.01668
G1 X7.086 Y64.356 E.02248
G1 X6.901 Y63.933 E.01669
G1 X6.701 Y63.355 E.02209
G1 X6.585 Y62.896 E.0171
G1 X6.489 Y62.331 E.02066
G1 X6.428 Y61.451 E.03187
G1 X6.428 Y45.579 E.57306
G1 X6.484 Y44.738 E.03045
G1 X6.581 Y44.145 E.02168
G1 X6.7 Y43.674 E.01756
G1 X6.9 Y43.09 E.02228
G1 X7.081 Y42.678 E.01624
G1 X7.355 Y42.166 E.02097
G1 X7.612 Y41.766 E.01715
G1 X7.998 Y41.264 E.02287
G1 X8.332 Y40.899 E.01787
G1 X8.765 Y40.499 E.02129
G1 X9.157 Y40.192 E.01795
G1 X9.677 Y39.852 E.02245
G1 X10.083 Y39.633 E.01665
G1 X10.619 Y39.396 E.02116
G1 X10.967 Y39.276 E.0133
G1 X11.117 Y39.708 F9000
G1 F1800
G1 X11.218 Y39.673 E.00387
G1 X11.74 Y39.539 E.01944
G1 X12.164 Y39.465 E.01554
G1 X12.758 Y39.413 E.02154
G1 X13.242 Y39.413 E.01748
G1 X13.781 Y39.457 E.01954
G1 X14.186 Y39.523 E.0148
G1 X14.745 Y39.663 E.02082
G1 X15.148 Y39.798 E.01535
G1 X15.685 Y40.03 E.02112
G1 X16.059 Y40.23 E.01531
G1 X16.551 Y40.547 E.02112
G1 X16.886 Y40.805 E.01527
G1 X17.349 Y41.229 E.02268
G1 X17.635 Y41.541 E.01527
G1 X17.994 Y42.002 E.0211
G1 X18.225 Y42.357 E.01529
G1 X18.503 Y42.872 E.02112
G1 X18.673 Y43.261 E.01535
G1 X18.86 Y43.805 E.02075
G1 X18.966 Y44.227 E.01574
G1 X19.053 Y44.739 E.01874
G1 X19.113 Y45.593 E.0309
G1 X19.113 Y61.429 E.57178
G1 X19.062 Y62.208 E.02819
G1 X18.972 Y62.768 E.02048
G1 X18.858 Y63.222 E.01692
G1 X18.67 Y63.769 E.0209
G1 X18.445 Y64.277 E.02005
G1 X18.22 Y64.677 E.01655
G1 X17.982 Y65.037 E.01558
G1 X17.655 Y65.458 E.01926
G1 X17.337 Y65.805 E.01699
G1 X16.941 Y66.172 E.01951
G1 X16.598 Y66.442 E.01574
G1 X16.12 Y66.757 E.0207
G1 X15.717 Y66.977 E.01655
G1 X15.214 Y67.199 E.01986
G1 X14.771 Y67.352 E.01692
G1 X14.206 Y67.495 E.02106
G1 X13.787 Y67.564 E.01534
G1 X13.246 Y67.61 E.01959
G1 X12.821 Y67.613 E.01534
G1 X12.238 Y67.568 E.02112
G1 X11.819 Y67.501 E.01531
G1 X11.252 Y67.36 E.02112
G1 X10.851 Y67.225 E.01527
G1 X10.275 Y66.974 E.02268
G1 X9.904 Y66.772 E.01527
G1 X9.414 Y66.452 E.02112
G1 X9.08 Y66.191 E.01531
G1 X8.65 Y65.795 E.02112
G1 X8.363 Y65.482 E.01532
G1 X8.004 Y65.02 E.02112
G1 X7.773 Y64.665 E.01531
G1 X7.495 Y64.15 E.02112
G1 X7.325 Y63.761 E.01532
G1 X7.138 Y63.218 E.02073
G1 X7.032 Y62.796 E.01574
G1 X6.945 Y62.284 E.01874
G1 X6.885 Y61.43 E.0309
G1 X6.885 Y45.599 E.5716
G1 X6.938 Y44.797 E.02904
G1 X7.028 Y44.244 E.02022
G1 X7.14 Y43.798 E.01659
G1 X7.329 Y43.251 E.0209
G1 X7.495 Y42.873 E.0149
G1 X7.747 Y42.403 E.01928
G1 X7.983 Y42.034 E.01579
G1 X8.344 Y41.563 E.02146
G1 X8.66 Y41.218 E.01689
G1 X9.057 Y40.851 E.01951
G1 X9.428 Y40.561 E.01698
G1 X9.916 Y40.243 E.02105
G1 X10.289 Y40.042 E.0153
G1 X10.781 Y39.824 E.01943
G1 X11.079 Y39.721 E.01138
G1 X11.23 Y40.168 F9000
G1 F1800
G1 X11.639 Y40.031 E.0156
G1 X12.526 Y39.885 E.03245
G1 X13.562 Y39.893 E.03739
G1 X14.499 Y40.067 E.03442
G1 X15.266 Y40.34 E.0294
G1 X15.978 Y40.715 E.02907
G1 X16.819 Y41.355 E.03815
G1 X17.587 Y42.216 E.04164
G1 X17.966 Y42.822 E.02582
G1 X18.258 Y43.45 E.025
G1 X18.54 Y44.43 E.03681
G1 X18.656 Y45.539 E.04026
G1 X18.656 Y61.483 E.57568
G1 X18.519 Y62.699 E.0442
G1 X18.25 Y63.589 E.03356
G1 X17.836 Y64.425 E.03367
G1 X17.291 Y65.181 E.03367
G1 X16.628 Y65.838 E.03367
G1 X15.866 Y66.376 E.03367
G1 X15.027 Y66.782 E.03367
G1 X14.132 Y67.043 E.03367
G1 X13.207 Y67.155 E.03361
G1 X12.294 Y67.116 E.03302
G1 X11.615 Y66.988 E.02496
G1 X10.95 Y66.776 E.02518
G1 X9.901 Y66.229 E.04271
G1 X8.997 Y65.497 E.04202
G1 X8.543 Y64.983 E.02477
G1 X8.147 Y64.404 E.02533
G1 X7.748 Y63.588 E.03278
G1 X7.458 Y62.594 E.03738
G1 X7.342 Y61.484 E.0403
G1 X7.342 Y45.54 E.57567
G1 X7.481 Y44.312 E.04462
G1 X7.747 Y43.436 E.03307
G1 X8.146 Y42.624 E.03265
G1 X8.632 Y41.931 E.03057
G1 X9.281 Y41.261 E.03366
G1 X9.947 Y40.761 E.03009
G1 X10.769 Y40.324 E.03362
G1 X11.192 Y40.181 E.01612
G1 X11.34 Y40.61 F9000
G1 F1800
G1 X11.708 Y40.482 E.01406
G1 X12.516 Y40.342 E.02961
G1 X13.471 Y40.341 E.0345
G1 X14.34 Y40.495 E.03185
G1 X15.044 Y40.739 E.02692
G1 X15.775 Y41.125 E.02983
G1 X16.472 Y41.653 E.03156
G1 X17.195 Y42.453 E.03894
G1 X17.548 Y43.007 E.02372
G1 X17.848 Y43.652 E.02569
G1 X18.103 Y44.564 E.03418
G1 X18.199 Y45.532 E.03512
G1 X18.199 Y61.491 E.57621
G1 X18.084 Y62.56 E.03883
G1 X17.843 Y63.381 E.03089
G1 X17.469 Y64.152 E.03096
G1 X16.973 Y64.852 E.03096
G1 X16.369 Y65.461 E.03096
G1 X15.673 Y65.962 E.03096
G1 X14.904 Y66.341 E.03096
G1 X14.083 Y66.589 E.03096
G1 X13.234 Y66.698 E.03094
G1 X12.388 Y66.669 E.03055
G1 X11.691 Y66.537 E.02562
G1 X11.082 Y66.338 E.02312
G1 X10.196 Y65.88 E.03602
G1 X9.347 Y65.203 E.03919
G1 X8.88 Y64.674 E.02549
G1 X8.52 Y64.141 E.02321
G1 X8.155 Y63.38 E.03046
G1 X7.895 Y62.459 E.03456
G1 X7.799 Y61.491 E.03512
G1 X7.799 Y45.533 E.5762
G1 X7.917 Y44.452 E.03923
G1 X8.155 Y43.643 E.03044
G1 X8.517 Y42.891 E.03014
G1 X8.957 Y42.254 E.02797
G1 X9.551 Y41.63 E.03109
G1 X10.156 Y41.167 E.02753
G1 X10.909 Y40.759 E.03091
G1 X11.302 Y40.623 E.01504
G1 X11.446 Y41.052 F9000
G1 F1800
G1 X11.863 Y40.913 E.01586
G1 X12.601 Y40.791 E.02701
G1 X13.478 Y40.799 E.03169
G1 X14.186 Y40.925 E.02594
G1 X14.822 Y41.139 E.02424
G1 X15.572 Y41.534 E.03061
G1 X16.202 Y42.021 E.02874
G1 X16.804 Y42.688 E.03244
G1 X17.167 Y43.26 E.02447
G1 X17.436 Y43.851 E.02343
G1 X17.647 Y44.599 E.02807
G1 X17.742 Y45.525 E.03362
G1 X17.742 Y61.498 E.57672
