;TIME:352.24
;Filament used:0.24197m
;Layer height:0.200
; HEADER_BLOCK_START
; generated by Creality_Print V6.0.4.1793 on 2025-03-05 at 22:27:02
; total layer number: 98
; filament_density: 1.24
; filament_diameter: 1.75
; max_z_height: 19.60
; HEADER_BLOCK_END

; MINX = 106.50
; MINY = 98.52
; MINZ = 0.00
; MAXX = 113.50
; MAXY = 121.50
; MAXZ = 19.50

; THUMBNAIL_BLOCK_START

;
; THUMBNAIL_BLOCK_END

; THUMBNAIL_BLOCK_START

;
; THUMBNAIL_BLOCK_END

; external perimeters extrusion width = 0.42mm
; perimeters extrusion width = 0.45mm
; infill extrusion width = 0.45mm
; solid infill extrusion width = 0.42mm
; top infill extrusion width = 0.42mm
; first layer extrusion width = 0.50mm

; EXECUTABLE_BLOCK_START
M73 P0 R5
M201 X5000 Y5000 Z500 E5000
M203 X500 Y500 Z30 E100
M204 P5000 R2500 T5000 ; sets acceleration (P, T) and retract acceleration (R), mm/sec^2
M205 X10.00 Y10.00 Z0.40 E5.00 ; sets the jerk limits, mm/sec
;TYPE:Custom
M220 S100 ;Reset Feedrate 
M221 S100 ;Reset Flowrate 
 
M140 S60 ;Set final bed temp 
G28 ;Home 
 
G92 E0 ;Reset Extruder 
G1 Z2.0 F3000 ;Move Z Axis up 
M104 S205 ;Set final nozzle temp 
G1 X-2.1 Y20 Z0.28 F5000.0 ;Move to start position 
M190 S60 ;Wait for bed temp to stabilize 
M109 S205 ;Wait for nozzle temp to stabilize 
G1 X-2.1 Y145.0 Z0.28 F1500.0 E15 ;Draw the first line 
G1 X-2.4 Y145.0 Z0.28 F5000.0 ;Move to side a little 
M73 P1 R5
M73 P1 R5
G1 X-2.4 Y20 Z0.28 F1500.0 E30 ;Draw the second line 
G92 E0  ;Reset Extruder 
G1 E-1.0000 F1800 ;Retract a bit 
M73 P2 R5
M73 P2 R5
G1 Z2.0 F3000 ;Move Z Axis up 
G1 E0.0000 F1800
G90
G21
M83 ; use relative distances for extrusion
" "
G1 E-1.2 F2400
M73 P3 R5
M106 S0
;LAYER_CHANGE
;Z:0.2
;HEIGHT:0.2
;BEFORE_LAYER_CHANGE
;0.2
G92 E0

;_SET_FAN_SPEED_CHANGING_LAYER
M204 P500
M205 X10 Y10
; printing object visagra.STL id:4950968922774962175 copy 0
M204 T500
M73 P3 R5
G1 Z.4 F9000
G1 X105.371 Y124.454
G1 Z.2
G1 E1.2 F1800
;TYPE:Brim
;WIDTH:0.5
G1 X104.916 Y124.101 E.02078
G1 X104.374 Y123.604 E.02657
G1 X103.983 Y123.182 E.02078
G1 X103.53 Y122.602 E.02657
G1 X103.214 Y122.121 E.02078
G1 X102.862 Y121.474 E.02657
G1 X102.629 Y120.948 E.02078
G1 X102.389 Y120.252 E.02657
G1 X102.246 Y119.694 E.02078
G1 X102.124 Y118.971 E.0265
G1 X102.058 Y118.01 E.03478
G1 X102.058 Y102.017 E.57743
G1 X102.123 Y101.057 E.03474
G1 X102.241 Y100.346 E.02601
G1 X102.379 Y99.798 E.02043
G1 X102.615 Y99.107 E.02637
G1 X102.839 Y98.591 E.02029
G1 X103.181 Y97.953 E.02616
G1 X103.501 Y97.458 E.02127
G1 X103.959 Y96.864 E.02707
G1 X104.348 Y96.44 E.02079
G1 X104.889 Y95.939 E.02663
G1 X105.344 Y95.584 E.02084
G1 X105.959 Y95.18 E.02657
G1 X106.464 Y94.906 E.02073
G1 X107.133 Y94.61 E.02643
G1 X107.67 Y94.424 E.0205
G1 X108.379 Y94.242 E.02645
G1 X108.954 Y94.144 E.02105
G1 X109.704 Y94.08 E.02717
G1 X110.296 Y94.08 E.02138
G1 X111.03 Y94.141 E.02658
G1 X111.581 Y94.233 E.02019
G1 X112.285 Y94.41 E.02621
G1 X112.83 Y94.596 E.02079
G1 X113.505 Y94.89 E.02657
G1 X114.012 Y95.163 E.02078
G1 X114.629 Y95.564 E.02657
G1 X115.084 Y95.916 E.02078
G1 X115.626 Y96.414 E.02657
G1 X116.017 Y96.836 E.02078
G1 X116.47 Y97.416 E.02656
G1 X116.786 Y97.896 E.02076
G1 X117.138 Y98.543 E.02657
G1 X117.37 Y99.07 E.02081
G1 X117.611 Y99.766 E.02659
G1 X117.754 Y100.324 E.02078
G1 X117.876 Y101.047 E.02651
G1 X117.942 Y102.008 E.03478
G1 X117.942 Y118.004 E.57754
G1 X117.88 Y118.94 E.03387
M73 P4 R5
M73 P4 R5
G1 X117.761 Y119.659 E.0263
G1 X117.621 Y120.217 E.02079
G1 X117.384 Y120.913 E.02653
G1 X117.07 Y121.621 E.02797
G1 X116.793 Y122.111 E.02031
G1 X116.486 Y122.581 E.02027
G1 X116.041 Y123.154 E.02621
G1 X115.652 Y123.578 E.02079
G1 X115.112 Y124.078 E.02657
G1 X114.658 Y124.433 E.02078
G1 X114.043 Y124.837 E.02657
G1 X113.537 Y125.112 E.02078
G1 X112.864 Y125.409 E.02657
G1 X112.32 Y125.597 E.02078
G1 X111.607 Y125.779 E.02657
G1 X111.039 Y125.875 E.02078
G1 X110.306 Y125.938 E.02657
G1 X109.73 Y125.939 E.02078
G1 X108.997 Y125.88 E.02657
G1 X108.429 Y125.787 E.02078
G1 X107.715 Y125.608 E.02657
G1 X107.17 Y125.422 E.02078
G1 X106.495 Y125.128 E.02657
G1 X105.988 Y124.855 E.02078
G1 X105.405 Y124.476 E.02513
G1 X105.655 Y124.092 F9000
G1 F1800
G1 X105.632 Y124.078 E.00098
G1 X105.207 Y123.748 E.01942
G1 X104.693 Y123.276 E.02521
G1 X104.328 Y122.881 E.01942
G1 X103.898 Y122.33 E.02521
G1 X103.603 Y121.881 E.01942
G1 X103.27 Y121.267 E.02521
G1 X103.053 Y120.775 E.01942
G1 X102.829 Y120.126 E.0248
G1 X102.693 Y119.594 E.01983
G1 X102.579 Y118.923 E.02455
G1 X102.515 Y117.989 E.03381
G1 X102.515 Y102.037 E.57598
G1 X102.577 Y101.117 E.0333
G1 X102.688 Y100.445 E.02457
G1 X102.82 Y99.922 E.01948
G1 X103.044 Y99.267 E.02501
G1 X103.253 Y98.786 E.01893
G1 X103.573 Y98.19 E.02441
G1 X103.871 Y97.727 E.01989
G1 X104.305 Y97.164 E.02568
G1 X104.676 Y96.759 E.01982
G1 X105.182 Y96.292 E.02485
G1 X105.615 Y95.952 E.01988
G1 X106.199 Y95.57 E.0252
G1 X106.671 Y95.314 E.01937
G1 X107.296 Y95.038 E.02467
G1 X107.807 Y94.861 E.01955
G1 X108.469 Y94.691 E.02468
G1 X109.006 Y94.598 E.01967
G1 X109.717 Y94.538 E.02578
G1 X110.283 Y94.538 E.02041
G1 X110.967 Y94.594 E.02481
G1 X111.482 Y94.68 E.01884
G1 X112.15 Y94.848 E.02486
G1 X112.659 Y95.021 E.01943
G1 X113.299 Y95.299 E.02521
G1 X113.773 Y95.554 E.01942
G1 X114.359 Y95.934 E.02521
G1 X114.784 Y96.263 E.01942
G1 X115.307 Y96.742 E.02562
G1 X115.672 Y97.137 E.01942
G1 X116.102 Y97.687 E.02519
G1 X116.396 Y98.136 E.01939
G1 X116.729 Y98.75 E.02521
G1 X116.946 Y99.243 E.01944
G1 X117.171 Y99.892 E.02482
G1 X117.307 Y100.424 E.01983
G1 X117.421 Y101.094 E.02455
G1 X117.485 Y102.029 E.03381
G1 X117.485 Y117.985 E.5761
G1 X117.426 Y118.881 E.03243
G1 X117.314 Y119.56 E.02485
G1 X117.181 Y120.093 E.01984
G1 X116.956 Y120.752 E.02513
G1 X116.664 Y121.409 E.02597
G1 X116.4 Y121.876 E.01938
G1 X116.11 Y122.319 E.01912
G1 X115.695 Y122.854 E.02446
G1 X115.323 Y123.259 E.01984
G1 X114.819 Y123.726 E.0248
G1 X114.387 Y124.064 E.01983
G1 X113.813 Y124.441 E.0248
G1 X113.34 Y124.699 E.01942
G1 X112.702 Y124.981 E.02521
G1 X112.183 Y125.16 E.01983
G1 X111.506 Y125.333 E.02521
G1 X110.976 Y125.422 E.01942
G1 X110.292 Y125.48 E.0248
G1 X109.754 Y125.482 E.01942
G1 X109.058 Y125.427 E.02521
G1 X108.527 Y125.34 E.01942
G1 X107.85 Y125.17 E.02521
G1 X107.341 Y124.997 E.01942
G1 X106.69 Y124.714 E.02562
G1 X106.217 Y124.458 E.01942
G1 X105.688 Y124.114 E.02279
G1 X105.938 Y123.731 F9000
G1 F1800
G1 X105.893 Y123.701 E.00195
G1 X105.498 Y123.395 E.01805
G1 X105.012 Y122.948 E.02384
G1 X104.673 Y122.58 E.01805
G1 X104.267 Y122.059 E.02384
M73 P5 R5
M73 P5 R5
G1 X103.993 Y121.641 E.01805
G1 X103.678 Y121.06 E.02384
G1 X103.477 Y120.603 E.01805
G1 X103.266 Y119.989 E.02344
G1 X103.139 Y119.493 E.01846
G1 X103.035 Y118.876 E.0226
G1 X102.972 Y117.969 E.03284
G1 X102.972 Y102.057 E.57452
G1 X103.031 Y101.176 E.03187
G1 X103.135 Y100.544 E.02313
G1 X103.26 Y100.047 E.01853
G1 X103.472 Y99.427 E.02365
G1 X103.668 Y98.981 E.01759
G1 X103.964 Y98.427 E.02268
G1 X104.242 Y97.996 E.01852
G1 X104.652 Y97.463 E.02428
G1 X105.005 Y97.078 E.01885
G1 X105.474 Y96.644 E.02307
G1 X105.887 Y96.321 E.01892
G1 X106.439 Y95.96 E.02383
G1 X106.877 Y95.722 E.01801
G1 X107.458 Y95.466 E.02291
G1 X107.945 Y95.297 E.0186
G1 X108.56 Y95.139 E.02292
G1 X109.059 Y95.053 E.01829
G1 X109.731 Y94.995 E.02437
G1 X110.269 Y94.995 E.01944
G1 X110.905 Y95.048 E.02304
G1 X111.383 Y95.127 E.01749
G1 X112.015 Y95.285 E.02351
G1 X112.489 Y95.446 E.01807
G1 X113.095 Y95.709 E.02384
G1 X113.535 Y95.945 E.01805
G1 X114.089 Y96.304 E.02384
G1 X114.485 Y96.609 E.01804
G1 X114.988 Y97.07 E.02465
G1 X115.327 Y97.438 E.01804
G1 X115.733 Y97.958 E.02383
G1 X116.006 Y98.376 E.01802
G1 X116.321 Y98.957 E.02384
G1 X116.522 Y99.415 E.01808
G1 X116.734 Y100.029 E.02346
G1 X116.861 Y100.525 E.01846
G1 X116.965 Y101.142 E.0226
G1 X117.028 Y102.049 E.03284
G1 X117.028 Y117.965 E.57466
G1 X116.972 Y118.822 E.03101
G1 X116.867 Y119.462 E.0234
G1 X116.74 Y119.969 E.01887
G1 X116.527 Y120.59 E.02373
G1 X116.258 Y121.197 E.02398
G1 X116.007 Y121.642 E.01844
G1 X115.734 Y122.058 E.01795
G1 X115.349 Y122.555 E.02272
G1 X114.995 Y122.941 E.01889
G1 X114.527 Y123.374 E.02303
G1 X114.124 Y123.689 E.01846
G1 X113.582 Y124.046 E.02344
G1 X113.133 Y124.29 E.01846
G1 X112.54 Y124.553 E.02342
G1 X112.046 Y124.724 E.01886
G1 X111.406 Y124.886 E.02383
G1 X110.913 Y124.969 E.01805
G1 X110.277 Y125.023 E.02304
G1 X109.777 Y125.025 E.01805
G1 X109.119 Y124.973 E.02384
G1 X108.625 Y124.893 E.01805
G1 X107.985 Y124.733 E.02384
G1 X107.511 Y124.573 E.01804
G1 X106.885 Y124.3 E.02465
G1 X106.446 Y124.062 E.01804
G1 X105.971 Y123.753 E.02045
G1 X106.222 Y123.37 F9000
G1 F1800
G1 X106.154 Y123.325 E.00293
G1 X105.789 Y123.041 E.01668
G1 X105.331 Y122.62 E.02248
G1 X105.018 Y122.28 E.01668
G1 X104.636 Y121.788 E.02248
G1 X104.383 Y121.402 E.01668
G1 X104.087 Y120.854 E.02248
G1 X103.902 Y120.431 E.01669
G1 X103.702 Y119.852 E.02209
G1 X103.586 Y119.393 E.0171
G1 X103.49 Y118.829 E.02066
G1 X103.429 Y117.948 E.03187
G1 X103.429 Y102.077 E.57306
G1 X103.485 Y101.235 E.03045
G1 X103.582 Y100.643 E.02168
G1 X103.701 Y100.171 E.01756
G1 X103.901 Y99.588 E.02228
G1 X104.082 Y99.176 E.01624
G1 X104.356 Y98.664 E.02097
G1 X104.613 Y98.264 E.01715
G1 X104.999 Y97.762 E.02287
G1 X105.333 Y97.397 E.01787
G1 X105.766 Y96.996 E.02129
G1 X106.158 Y96.69 E.01795
G1 X106.678 Y96.35 E.02245
G1 X107.084 Y96.131 E.01665
M73 P6 R5
M73 P6 R5
G1 X107.62 Y95.894 E.02116
G1 X108.082 Y95.734 E.01765
G1 X108.65 Y95.588 E.02117
G1 X109.111 Y95.508 E.01691
G1 X109.745 Y95.453 E.02296
G1 X110.256 Y95.453 E.01846
G1 X110.844 Y95.501 E.02128
G1 X111.285 Y95.574 E.01614
G1 X111.88 Y95.722 E.02217
G1 X112.319 Y95.871 E.01671
G1 X112.89 Y96.118 E.02248
G1 X113.298 Y96.336 E.01668
G1 X113.82 Y96.674 E.02248
G1 X114.186 Y96.956 E.01666
G1 X114.669 Y97.399 E.02367
G1 X114.982 Y97.738 E.01666
G1 X115.364 Y98.229 E.02246
G1 X115.616 Y98.616 E.01666
G1 X115.913 Y99.163 E.02248
G1 X116.098 Y99.587 E.01672
G1 X116.298 Y100.166 E.0221
G1 X116.414 Y100.625 E.0171
G1 X116.51 Y101.189 E.02066
G1 X116.571 Y102.07 E.03187
G1 X116.571 Y117.946 E.57322
G1 X116.518 Y118.763 E.02959
G1 X116.42 Y119.363 E.02194
G1 X116.3 Y119.844 E.0179
G1 X116.099 Y120.429 E.02232
G1 X115.852 Y120.986 E.02201
G1 X115.614 Y121.408 E.0175
G1 X115.359 Y121.796 E.01677
G1 X115.002 Y122.255 E.02098
G1 X114.667 Y122.622 E.01794
G1 X114.234 Y123.021 E.02126
G1 X113.862 Y123.314 E.0171
G1 X113.351 Y123.65 E.02208
G1 X112.926 Y123.882 E.01751
G1 X112.377 Y124.125 E.02164
G1 X111.909 Y124.287 E.01789
G1 X111.306 Y124.439 E.02245
G1 X110.85 Y124.515 E.0167
G1 X110.262 Y124.565 E.02131
G1 X109.8 Y124.568 E.01669
G1 X109.179 Y124.519 E.02248
G1 X108.723 Y124.445 E.01668
G1 X108.119 Y124.295 E.02248
G1 X107.682 Y124.148 E.01666
G1 X107.081 Y123.886 E.02367
G1 X106.675 Y123.666 E.01666
G1 X106.255 Y123.392 E.01811
G1 X106.506 Y123.009 F9000
G1 F1800
G1 X106.415 Y122.95 E.0039
G1 X106.081 Y122.689 E.01531
G1 X105.651 Y122.292 E.02112
G1 X105.364 Y121.98 E.01532
G1 X105.005 Y121.518 E.02112
G1 X104.774 Y121.162 E.01531
G1 X104.496 Y120.648 E.02112
G1 X104.326 Y120.259 E.01532
G1 X104.139 Y119.716 E.02073
G1 X104.033 Y119.293 E.01574
G1 X103.946 Y118.781 E.01874
G1 X103.886 Y117.928 E.0309
G1 X103.886 Y102.097 E.5716
G1 X103.939 Y101.294 E.02904
G1 X104.029 Y100.741 E.02022
G1 X104.141 Y100.296 E.01659
G1 X104.33 Y99.749 E.0209
G1 X104.496 Y99.371 E.0149
G1 X104.748 Y98.9 E.01928
G1 X104.984 Y98.532 E.01579
G1 X105.345 Y98.06 E.02146
G1 X105.661 Y97.715 E.01689
G1 X106.058 Y97.349 E.01951
G1 X106.429 Y97.059 E.01698
G1 X106.917 Y96.74 E.02105
G1 X107.29 Y96.539 E.0153
G1 X107.782 Y96.322 E.01943
G1 X108.219 Y96.17 E.0167
G1 X108.741 Y96.037 E.01944
G1 X109.165 Y95.963 E.01554
G1 X109.759 Y95.91 E.02154
G1 X110.243 Y95.91 E.01748
G1 X110.782 Y95.955 E.01954
G1 X111.187 Y96.021 E.0148
G1 X111.746 Y96.16 E.02082
G1 X112.149 Y96.296 E.01535
G1 X112.686 Y96.528 E.02112
G1 X113.06 Y96.727 E.01531
G1 X113.552 Y97.045 E.02112
G1 X113.887 Y97.302 E.01527
G1 X114.35 Y97.727 E.02268
G1 X114.636 Y98.038 E.01527
G1 X114.995 Y98.5 E.0211
G1 X115.226 Y98.855 E.01529
G1 X115.504 Y99.369 E.02112
G1 X115.674 Y99.759 E.01535
G1 X115.861 Y100.302 E.02075
G1 X115.967 Y100.725 E.01574
G1 X116.054 Y101.236 E.01874
G1 X116.114 Y102.09 E.0309
G1 X116.114 Y117.926 E.57178
G1 X116.063 Y118.705 E.02819
G1 X115.973 Y119.265 E.02048
G1 X115.859 Y119.72 E.01692
G1 X115.671 Y120.267 E.0209
G1 X115.446 Y120.775 E.02005
G1 X115.221 Y121.174 E.01655
M73 P7 R5
M73 P7 R5
G1 X114.983 Y121.535 E.01558
G1 X114.656 Y121.956 E.01926
G1 X114.338 Y122.303 E.01699
G1 X113.942 Y122.67 E.01951
G1 X113.599 Y122.939 E.01574
G1 X113.121 Y123.255 E.0207
G1 X112.718 Y123.474 E.01655
G1 X112.215 Y123.697 E.01986
G1 X111.772 Y123.85 E.01692
G1 X111.207 Y123.993 E.02106
G1 X110.788 Y124.062 E.01534
G1 X110.247 Y124.108 E.01959
G1 X109.822 Y124.111 E.01534
G1 X109.239 Y124.065 E.02112
G1 X108.82 Y123.998 E.01531
G1 X108.253 Y123.858 E.02112
G1 X107.852 Y123.723 E.01527
G1 X107.276 Y123.472 E.02268
G1 X106.905 Y123.27 E.01527
G1 X106.539 Y123.031 E.01577
G1 X106.832 Y122.669 F9000
G1 F1800
G1 X105.998 Y121.995 E.03872
G1 X105.544 Y121.48 E.02477
G1 X105.148 Y120.901 E.02533
G1 X104.749 Y120.086 E.03278
G1 X104.459 Y119.092 E.03738
G1 X104.343 Y117.982 E.0403
G1 X104.343 Y102.038 E.57567
G1 X104.482 Y100.81 E.04462
G1 X104.748 Y99.934 E.03307
G1 X105.147 Y99.122 E.03265
G1 X105.633 Y98.429 E.03057
G1 X106.282 Y97.759 E.03366
G1 X106.948 Y97.258 E.03009
G1 X107.77 Y96.821 E.03362
G1 X108.64 Y96.528 E.03316
G1 X109.527 Y96.382 E.03245
G1 X110.563 Y96.391 E.03739
G1 X111.5 Y96.564 E.03442
G1 X112.266 Y96.837 E.02936
G1 X112.971 Y97.207 E.02874
G1 X113.819 Y97.852 E.03847
G1 X114.588 Y98.714 E.04169
G1 X114.967 Y99.32 E.02582
G1 X115.259 Y99.948 E.025
G1 X115.541 Y100.927 E.03681
G1 X115.657 Y102.036 E.04026
G1 X115.657 Y117.98 E.57568
G1 X115.52 Y119.197 E.0442
G1 X115.251 Y120.087 E.03356
G1 X114.837 Y120.922 E.03367
G1 X114.292 Y121.679 E.03367
G1 X113.629 Y122.335 E.03367
G1 X112.867 Y122.874 E.03367
G1 X112.028 Y123.279 E.03367
G1 X111.133 Y123.541 E.03367
G1 X110.208 Y123.652 E.03361
G1 X109.295 Y123.613 E.03302
G1 X108.616 Y123.485 E.02496
G1 X107.951 Y123.273 E.02518
G1 X106.902 Y122.727 E.04271
G1 X106.863 Y122.694 E.00185
G1 X107.147 Y122.337 F9000
G1 F1800
G1 X106.348 Y121.701 E.03689
G1 X105.881 Y121.172 E.02549
G1 X105.521 Y120.638 E.02321
G1 X105.156 Y119.878 E.03046
G1 X104.896 Y118.957 E.03456
G1 X104.8 Y117.989 E.03512
G1 X104.8 Y102.03 E.5762
G1 X104.918 Y100.95 E.03923
G1 X105.156 Y100.141 E.03044
G1 X105.518 Y99.389 E.03014
G1 X105.958 Y98.751 E.02797
G1 X106.552 Y98.128 E.03109
M73 P8 R5
M73 P8 R5
G1 X107.157 Y97.664 E.02753
G1 X107.91 Y97.256 E.03091
G1 X108.709 Y96.98 E.03054
G1 X109.517 Y96.839 E.02961
G1 X110.472 Y96.839 E.0345
G1 X111.341 Y96.993 E.03185
G1 X112.045 Y97.237 E.02689
G1 X112.768 Y97.617 E.0295
G1 X113.472 Y98.149 E.03187
G1 X114.196 Y98.95 E.03899
G1 X114.549 Y99.504 E.02372
G1 X114.849 Y100.15 E.02569
G1 X115.104 Y101.061 E.03418
G1 X115.2 Y102.029 E.03512
G1 X115.2 Y117.988 E.57621
G1 X115.085 Y119.057 E.03883
G1 X114.844 Y119.878 E.03089
G1 X114.47 Y120.65 E.03096
G1 X113.974 Y121.35 E.03096
G1 X113.37 Y121.958 E.03096
G1 X112.674 Y122.459 E.03096
G1 X111.905 Y122.839 E.03096
G1 X111.084 Y123.086 E.03096
G1 X110.235 Y123.196 E.03094
G1 X109.389 Y123.166 E.03055
G1 X108.692 Y123.035 E.02562
G1 X108.083 Y122.836 E.02312
G1 X107.197 Y122.377 E.03602
G1 X107.178 Y122.362 E.00086
G1 X107.4 Y121.967 F9000
G1 F1800
G1 X106.696 Y121.404 E.03255
G1 X106.265 Y120.923 E.0233
G1 X105.895 Y120.375 E.0239
G1 X105.565 Y119.674 E.02798
G1 X105.352 Y118.922 E.02821
G1 X105.257 Y117.995 E.03363
G1 X105.257 Y102.023 E.57671
G1 X105.354 Y101.085 E.03402
G1 X105.565 Y100.345 E.02779
G1 X105.892 Y99.652 E.02766
G1 X106.285 Y99.07 E.02537
G1 X106.821 Y98.497 E.02833
G1 X107.443 Y98.021 E.0283
G1 X108.133 Y97.655 E.02817
G1 X108.864 Y97.41 E.02784
G1 X109.602 Y97.289 E.02701
G1 X110.479 Y97.296 E.03169
G1 X111.187 Y97.423 E.02594
