;TIME:1663.09
;Filament used:1.14936m
;Layer height:0.200
; HEADER_BLOCK_START
; generated by Creality_Print V6.0.4.1793 on 2025-03-06 at 09:14:19
; total layer number: 490
; filament_density: 1.24
; filament_diameter: 1.75
; max_z_height: 19.60
; HEADER_BLOCK_END

; MINX = 42.01
; MINY = 9.50
; MINZ = 0.00
; MAXX = 177.98
; MAXY = 210.50
; MAXZ = 19.50

; THUMBNAIL_BLOCK_START

;
; THUMBNAIL_BLOCK_END

; THUMBNAIL_BLOCK_START

;
; THUMBNAIL_BLOCK_END

; external perimeters extrusion width = 0.42mm
; perimeters extrusion width = 0.45mm
; infill extrusion width = 0.45mm
; solid infill extrusion width = 0.42mm
; top infill extrusion width = 0.42mm
; first layer extrusion width = 0.50mm

; external perimeters extrusion width = 0.42mm
; perimeters extrusion width = 0.45mm
; infill extrusion width = 0.45mm
; solid infill extrusion width = 0.42mm
; top infill extrusion width = 0.42mm
; first layer extrusion width = 0.50mm

; external perimeters extrusion width = 0.42mm
; perimeters extrusion width = 0.45mm
; infill extrusion width = 0.45mm
; solid infill extrusion width = 0.42mm
; top infill extrusion width = 0.42mm
; first layer extrusion width = 0.50mm

; external perimeters extrusion width = 0.42mm
; perimeters extrusion width = 0.45mm
; infill extrusion width = 0.45mm
; solid infill extrusion width = 0.42mm
; top infill extrusion width = 0.42mm
; first layer extrusion width = 0.50mm

; external perimeters extrusion width = 0.42mm
; perimeters extrusion width = 0.45mm
; infill extrusion width = 0.45mm
; solid infill extrusion width = 0.42mm
; top infill extrusion width = 0.42mm
; first layer extrusion width = 0.50mm

; EXECUTABLE_BLOCK_START
M73 P0 R27
M201 X5000 Y5000 Z500 E5000
M203 X500 Y500 Z30 E100
M204 P5000 R2500 T5000 ; sets acceleration (P, T) and retract acceleration (R), mm/sec^2
M205 X10.00 Y10.00 Z0.40 E5.00 ; sets the jerk limits, mm/sec
;TYPE:Custom
M220 S100 ;Reset Feedrate 
M221 S100 ;Reset Flowrate 
 
M140 S60 ;Set final bed temp 
G28 ;Home 
 
G92 E0 ;Reset Extruder 
G1 Z2.0 F3000 ;Move Z Axis up 
M104 S205 ;Set final nozzle temp 
G1 X-2.1 Y20 Z0.28 F5000.0 ;Move to start position 
M190 S60 ;Wait for bed temp to stabilize 
M109 S205 ;Wait for nozzle temp to stabilize 
G1 X-2.1 Y145.0 Z0.28 F1500.0 E15 ;Draw the first line 
G1 X-2.4 Y145.0 Z0.28 F5000.0 ;Move to side a little 
G1 X-2.4 Y20 Z0.28 F1500.0 E30 ;Draw the second line 
G92 E0  ;Reset Extruder 
G1 E-1.0000 F1800 ;Retract a bit 
G1 Z2.0 F3000 ;Move Z Axis up 
G1 E0.0000 F1800
G90
G21
M83 ; use relative distances for extrusion
" "
G1 E-1.2 F2400
M106 S0
;LAYER_CHANGE
;Z:0.2
;HEIGHT:0.2
;BEFORE_LAYER_CHANGE
;0.2
G92 E0

;_SET_FAN_SPEED_CHANGING_LAYER
M204 P500
M205 X10 Y10
M204 T500
G1 Z.4 F9000
G1 X32.863 Y12.71
G1 Z.2
G1 E1.2 F1800
;TYPE:Skirt
;WIDTH:0.5
G1 F3000
G1 X32.987 Y11.205 E.05452
G1 X33.434 Y9.236 E.0729
G1 X34.248 Y7.242 E.07777
G1 X35.704 Y5.013 E.09612
G1 X37.152 Y3.511 E.07534
G1 X38.811 Y2.277 E.07464
G1 X40.64 Y1.336 E.07428
G1 X42.113 Y.826 E.05627
G1 X44.162 Y.435 E.07534
G1 X45.494 Y.356 E.04816
G1 X61.509 Y.357 E.57822
G1 X62.829 Y.436 E.04777
G1 X64.859 Y.821 E.07461
G1 X66.798 Y1.533 E.07457
G1 X68.618 Y2.566 E.07558
G1 X70.25 Y3.892 E.0759
G1 X71.629 Y5.457 E.0753
G1 X72.464 Y6.733 E.05509
G1 X73.346 Y8.624 E.07534
G1 X73.904 Y10.635 E.07534
G1 X74.124 Y12.71 E.07534
G1 X74 Y14.793 E.07534
G1 X73.534 Y16.827 E.07534
G1 X72.443 Y19.3 E.09759
G1 X71.264 Y21.008 E.07494
G1 X69.831 Y22.492 E.07448
G1 X68.176 Y23.721 E.07441
G1 X66.335 Y24.668 E.07477
G1 X64.881 Y25.171 E.05556
G1 X62.854 Y25.559 E.07451
G1 X61.493 Y25.642 E.04921
G1 X44.738 Y25.61 E.60496
G1 X42.113 Y25.172 E.09612
G1 X40.155 Y24.45 E.07534
G1 X38.343 Y23.415 E.07534
G1 X37.152 Y22.488 E.05452
G1 X35.748 Y21.036 E.0729
G1 X34.523 Y19.265 E.07777
G1 X33.641 Y17.374 E.07534
G1 X32.987 Y14.793 E.09612
G1 X32.865 Y12.75 E.0739
G1 X33.35 Y12.779 F9000
G1 F3000
G1 X33.438 Y11.28 E.05419
G1 X34.058 Y8.817 E.09173
G1 X34.925 Y6.951 E.07427
G1 X36.064 Y5.294 E.07261
G1 X37.036 Y4.238 E.05179
G1 X38.593 Y2.966 E.07261
G1 X40.826 Y1.753 E.09173
G1 X42.225 Y1.269 E.05345
G1 X44.2 Y.891 E.07261
G1 X45.494 Y.813 E.0468
G1 X61.509 Y.814 E.57822
G1 X62.791 Y.891 E.0464
G1 X64.747 Y1.265 E.0719
G1 X66.616 Y1.952 E.07187
G1 X68.37 Y2.95 E.07286
G1 X69.941 Y4.228 E.07313
G1 X71.269 Y5.738 E.0726
G1 X72.337 Y7.459 E.07315
G1 X73.101 Y9.32 E.07261
G1 X73.549 Y11.28 E.07261
G1 X73.667 Y12.71 E.05179
G1 X73.549 Y14.718 E.07262
G1 X73.101 Y16.678 E.07261
G1 X72.325 Y18.562 E.07357
G1 X71.257 Y20.275 E.07286
G1 X69.941 Y21.77 E.07192
G1 X68.397 Y23.03 E.07195
G1 X66.15 Y24.25 E.09233
G1 X64.768 Y24.728 E.05278
G1 X62.815 Y25.104 E.0718
G1 X61.493 Y25.185 E.04781
G1 X45.493 Y25.185 E.5777
G1 X44.2 Y25.107 E.04678
G1 X42.225 Y24.729 E.07261
G1 X40.868 Y24.263 E.05179
G1 X39.077 Y23.348 E.07262
G1 X37.461 Y22.151 E.07261
G1 X35.738 Y20.284 E.09174
G1 X34.65 Y18.539 E.07427
G1 X33.886 Y16.678 E.07262
G1 X33.438 Y14.718 E.07261
G1 X33.32 Y13.288 E.05179
G1 X33.348 Y12.818 E.01698
G1 X33.803 Y12.845 F9000
G1 F3000
G1 X33.889 Y11.356 E.05386
G1 X34.492 Y8.963 E.0891
G1 X35.327 Y7.168 E.07146
G1 X36.425 Y5.574 E.06989
G1 X37.345 Y4.575 E.04907
G1 X38.843 Y3.348 E.06989
G1 X41.012 Y2.171 E.0891
G1 X42.337 Y1.712 E.05064
G1 X44.238 Y1.346 E.06989
G1 X45.494 Y1.27 E.04543
G1 X61.509 Y1.271 E.57822
G1 X62.753 Y1.347 E.04503
M73 P1 R27
M73 P1 R27
G1 X64.635 Y1.708 E.0692
G1 X66.433 Y2.371 E.06918
G1 X68.121 Y3.333 E.07015
G1 X69.631 Y4.565 E.07036
G1 X70.908 Y6.019 E.06989
G1 X71.935 Y7.677 E.0704
G1 X72.669 Y9.468 E.06989
G1 X73.098 Y11.356 E.06989
G1 X73.21 Y12.71 E.04907
G1 X73.098 Y14.642 E.06989
G1 X72.669 Y16.53 E.06989
G1 X71.923 Y18.343 E.0708
G1 X70.897 Y19.993 E.07015
G1 X69.631 Y21.433 E.06923
G1 X68.147 Y22.648 E.06925
G1 X65.964 Y23.832 E.08966
G1 X64.656 Y24.285 E.05
G1 X62.776 Y24.648 E.0691
G1 X61.493 Y24.728 E.04641
G1 X44.814 Y24.699 E.60223
G1 X42.337 Y24.286 E.09067
G1 X40.522 Y23.613 E.06989
G1 X39.327 Y22.966 E.04907
G1 X37.771 Y21.815 E.06989
G1 X36.097 Y20.002 E.0891
G1 X35.051 Y18.321 E.07146
G1 X34.318 Y16.53 E.06989
G1 X33.889 Y14.642 E.06989
G1 X33.777 Y13.288 E.04907
G1 X33.8 Y12.885 E.01458
; printing object visagra.STL id:4927571312193601536 copy 0
G1 E-1.2 F2400
;WIPE_START
G1 F9000
G1 X33.889 Y11.356
G1 X34.003 Y10.902
;WIPE_END
G1 X41.603 Y11.611 Z.6
G1 X64.015 Y13.705 Z.6
G1 Z.2
G1 E1.2 F1800
;TYPE:Inner wall
;WIDTH:0.499999
G1 X63.983 Y13.851 E.00539
G1 X63.697 Y14.452 E.02402
G1 X63.272 Y14.938 E.02334
G1 X62.761 Y15.314 E.02287
G1 X62.14 Y15.55 E.02401
G1 X61.457 Y15.642 E.02488
G1 X46.964 Y15.642 E.5233
G1 X47.142 Y15.542 E.00739
G2 X47.442 Y10.678 I-1.676 J-2.545 E.20392
G1 X46.976 Y10.356 E.02046
G1 X61.611 Y10.357 E.52841
G1 X62.343 Y10.5 E.02694
G1 X62.935 Y10.799 E.02396
G1 X63.431 Y11.206 E.02313
G1 X63.808 Y11.748 E.02386
G1 X64.053 Y12.351 E.02349
G1 X64.124 Y13.217 E.03138
G1 X64.024 Y13.666 E.01661
G1 X64.582 Y13.255 F9000
;TYPE:Outer wall
G1 F1800
G3 X61.477 Y16.099 I-3.117 J-.286 E.16675
G1 X46.664 Y16.099 E.53481
;WIDTH:0.536782
G1 X46.408 Y16.081 E.01003
;WIDTH:0.573565
G2 X45.501 Y16.081 I-.451 J4.496 E.03809
;WIDTH:0.541002
G3 X44.475 Y15.904 I.053 J-3.371 E.04113
;WIDTH:0.536681
G1 X44.01 Y15.697 E.01983
;WIDTH:0.53651
G3 X43.215 Y15.069 I1.483 J-2.699 E.0397
;WIDTH:0.536384
G1 X42.905 Y14.666 E.01982
;WIDTH:0.53623
G1 X42.666 Y14.217 E.01982
;WIDTH:0.536046
G1 X42.504 Y13.735 E.01981
;WIDTH:0.535833
G1 X42.423 Y13.233 E.0198
;WIDTH:0.535593
G1 X42.426 Y12.724 E.01979
;WIDTH:0.535325
G1 X42.513 Y12.223 E.01978
;WIDTH:0.535026
G1 X42.681 Y11.743 E.01977
;WIDTH:0.534702
G1 X42.926 Y11.298 E.01976
;WIDTH:0.534351
G1 X43.241 Y10.898 E.01974
;WIDTH:0.533967
G1 X43.618 Y10.556 E.01973
;WIDTH:0.533559
G1 X44.048 Y10.279 E.01985
;WIDTH:0.5331
G1 X44.528 Y10.075 E.02018
;WIDTH:0.532599
G1 X45.045 Y9.956 E.0205
;WIDTH:0.549906
G2 X46.418 Y9.899 I-.595 J-30.841 E.05506
;WIDTH:0.499999
G1 X61.622 Y9.9 E.54894
G1 X62.248 Y10.004 E.02291
G3 X64.539 Y12.491 I-.804 J3.04 E.12891
G1 X64.579 Y13.215 E.02617
G1 E-1.2 F2400
;WIPE_START
G1 F9000
G1 X64.497 Y13.76
G1 X64.331 Y14.243
G1 X64.08 Y14.703
G1 X63.826 Y15.029
;WIPE_END
G1 X56.196 Y15.241 Z.6
G1 X46.119 Y15.52 Z.6
G1 Z.2
G1 E1.2 F1800
;WIDTH:0.558473
G1 X45.525 Y15.59 E.02436
;WIDTH:0.53578
G1 X44.872 Y15.512 E.0256
;WIDTH:0.529465
G1 X44.408 Y15.35 E.01887
;WIDTH:0.53651
G1 X43.909 Y15.042 E.02287
G1 X43.595 Y14.755 E.01661
;WIDTH:0.536384
G1 X43.332 Y14.419 E.01661
;WIDTH:0.53623
G1 X43.128 Y14.045 E.0166
;WIDTH:0.536046
G1 X42.988 Y13.643 E.0166
;WIDTH:0.535833
G1 X42.916 Y13.223 E.0166
;WIDTH:0.535593
G1 X42.914 Y12.796 E.01659
;WIDTH:0.535325
G1 X42.981 Y12.375 E.01658
;WIDTH:0.535026
G1 X43.117 Y11.971 E.01658
;WIDTH:0.534702
G1 X43.318 Y11.595 E.01657
;WIDTH:0.534351
G1 X43.536 Y11.304 E.01412
;WIDTH:0.533559
G3 X44.248 Y10.727 I1.949 J1.678 E.03571
;WIDTH:0.5331
G1 X44.65 Y10.549 E.01702
;WIDTH:0.532599
G1 X45.076 Y10.443 E.01699
;WIDTH:0.530579
G1 X45.5 Y10.413 E.01636
;WIDTH:0.538677
G1 X45.952 Y10.446 E.01776
G1 X46.37 Y10.578 E.01714
;WIDTH:0.499999
G3 X46.919 Y15.143 I-.893 J2.423 E.20476
;WIDTH:0.529236
G1 X46.545 Y15.328 E.01605
;WIDTH:0.558473
G1 X46.17 Y15.514 E.01701
G1 X46.158 Y15.515 E.00049
G1 E-1.2 F2400
;WIPE_START
G1 F9000
G1 X45.525 Y15.59
G1 X44.872 Y15.512
G1 X44.408 Y15.35
G1 X44.227 Y15.238
;WIPE_END
G1 X51.631 Y13.385 Z.6
G1 X62.421 Y10.683 Z.6
G1 Z.2
G1 E1.2 F1800
;TYPE:Bottom surface
;WIDTH:0.502505
G1 F4800
G1 X63.181 Y11.444 E.03903
G3 X63.758 Y12.671 I-1.632 J1.517 E.05002
G1 X61.818 Y10.73 E.09965
G2 X61.138 Y10.7 I-.52 J4.065 E.02474
G1 X63.759 Y13.322 E.13461
G3 X63.625 Y13.837 I-1.612 J-.145 E.01943
G1 X60.488 Y10.7 E.16108
G1 X59.838 Y10.7 E.0236
G1 X63.406 Y14.268 E.18319
G1 X63.178 Y14.559 E.01341
G1 X63.11 Y14.622 E.00337
G1 X59.188 Y10.7 E.20136
G1 X58.538 Y10.7 E.0236
G1 X62.75 Y14.912 E.21625
G3 X62.322 Y15.134 I-.893 J-1.199 E.01758
G1 X57.888 Y10.7 E.22764
G1 X57.238 Y10.7 E.0236
G1 X61.806 Y15.268 E.23456
G3 X61.187 Y15.299 I-.49 J-3.611 E.02253
G1 X56.588 Y10.7 E.23615
G1 X55.938 Y10.699 E.0236
G1 X60.537 Y15.299 E.23614
G1 X59.887 Y15.299 E.0236
G1 X55.288 Y10.699 E.23613
G1 X54.638 Y10.699 E.0236
G1 X59.237 Y15.298 E.23612
G1 X58.587 Y15.298 E.0236
G1 X53.988 Y10.699 E.23611
G1 X53.338 Y10.699 E.0236
G1 X57.936 Y15.298 E.2361
G1 X57.286 Y15.298 E.0236
G1 X52.688 Y10.699 E.23609
G1 X52.038 Y10.699 E.0236
G1 X56.636 Y15.297 E.23608
G1 X55.986 Y15.297 E.0236
G1 X51.388 Y10.699 E.23607
G1 X50.738 Y10.699 E.0236
G1 X55.336 Y15.297 E.23606
G1 X54.685 Y15.297 E.0236
G1 X50.088 Y10.699 E.23605
G1 X49.438 Y10.699 E.0236
G1 X54.035 Y15.296 E.23604
G1 X53.385 Y15.296 E.0236
G1 X48.788 Y10.699 E.23603
G1 X48.138 Y10.699 E.0236
G1 X52.735 Y15.296 E.23602
G1 X52.085 Y15.296 E.0236
G1 X48.674 Y11.885 E.17513
G3 X48.85 Y12.711 I-2.72 J1.012 E.03077
G1 X51.435 Y15.296 E.13271
G1 X50.784 Y15.295 E.0236
G1 X48.847 Y13.358 E.09947
G1 X48.743 Y13.904 E.02017
G1 X50.134 Y15.295 E.07143
G1 X49.484 Y15.295 E.0236
G1 X48.567 Y14.378 E.0471
G1 X48.336 Y14.797 E.01738
G1 X48.834 Y15.295 E.02555
G1 X48.184 Y15.294 E.0236
G1 X47.917 Y15.028 E.01369
G1 E-1.2 F2400
;WIPE_START
G1 F9000
G1 X48.184 Y15.294
G1 X48.834 Y15.295
G1 X48.336 Y14.797
G1 X48.466 Y14.561
;WIPE_END
G1 X48.6 Y11.661 Z.6
G1 Z.2
G1 E1.2 F1800
;TYPE:Gap infill
;WIDTH:0.235711
G1 X48.488 Y11.509 E.00288
;WIDTH:0.190857
G1 X48.375 Y11.358 E.00221
;WIDTH:0.145307
G1 X48.259 Y11.201 E.00157
;WIDTH:0.122275
G1 X48.133 Y11.055 E.00121
G1 E-1.2 F2400
;WIPE_START
G1 F9000
G1 X48.259 Y11.201
;WIPE_END
G1 X50.533 Y10.594 Z.6
G1 Z.2
G1 E1.2 F1800
;WIDTH:0.102389
G1 X50.383 Y10.669 E.00079
; stop printing object visagra.STL id:4927571312193601536 copy 0
;TIME_ELAPSED:30.839905

M106 S255
;LAYER_CHANGE
;Z:0.4
;HEIGHT:0.2
;BEFORE_LAYER_CHANGE
;0.4
G92 E0

G1 E-1.2 F2400
;WIPE_START
G1 F9000
G1 X50.533 Y10.594
;WIPE_END
;_SET_FAN_SPEED_CHANGING_LAYER
M204 P2500
; printing object visagra.STL id:4927571312193601536 copy 0
M204 T2500
G1 X57.98 Y12.264 Z.6
G1 X64.305 Y13.682 Z.6
G1 Z.4
G1 E1.2 F1800
M204 P2000
;TYPE:Inner wall
;WIDTH:0.449999
G1 F4096
G1 X64.293 Y13.708 E.00092
G3 X63.897 Y14.611 I-3.089 J-.815 E.03182
G1 X63.436 Y15.134 E.02243
G1 X62.908 Y15.523 E.0211
G1 X62.43 Y15.739 E.01686
G3 X61.467 Y15.897 I-.967 J-2.88 E.03152
G1 X46.651 Y15.897 E.4764
;WIDTH:0.490347
G1 X46.554 Y15.877 E.00352
;WIDTH:0.530695
G1 X46.457 Y15.857 E.00383
;WIDTH:0.571043
G1 X46.359 Y15.836 E.00415
;WIDTH:0.611391
G1 X46.262 Y15.816 E.00447
;WIDTH:0.651738
G1 X46.164 Y15.796 E.00479
G1 X46.214 Y15.768 E.00275
;WIDTH:0.622701
G1 X46.264 Y15.74 E.00262
;WIDTH:0.593663
G1 X46.511 Y15.602 E.01233
;WIDTH:0.545775
G1 X46.759 Y15.464 E.01126
;WIDTH:0.497887
G1 X47.007 Y15.326 E.01019
;WIDTH:0.449999
G2 X47.275 Y10.871 I-1.538 J-2.328 E.16632
G1 X46.804 Y10.552 E.01829
;WIDTH:0.493441
G1 X46.611 Y10.461 E.00759
;WIDTH:0.536882
G1 X46.418 Y10.37 E.00832
;WIDTH:0.580323
G1 X46.226 Y10.279 E.00905
;WIDTH:0.623764
G1 X46.033 Y10.188 E.00978
G1 X46.157 Y10.166 E.00577
;WIDTH:0.580323
G1 X46.281 Y10.145 E.00534
;WIDTH:0.536882
G1 X46.405 Y10.123 E.00491
;WIDTH:0.493441
G1 X46.529 Y10.101 E.00448
;WIDTH:0.449999
G1 X61.565 Y10.104 E.48352
G1 X62.191 Y10.198 E.02036
G1 X62.839 Y10.437 E.02219
G1 X63.275 Y10.716 E.01665
G1 X63.743 Y11.193 E.02149
G1 X64.034 Y11.629 E.01685
G3 X64.34 Y12.523 I-2.54 J1.37 E.0305
G1 X64.379 Y13.238 E.02305
G1 X64.312 Y13.643 E.01318
G1 X64.771 Y13.265 F9000
M204 P1000
;TYPE:Outer wall
;WIDTH:0.419999
G1 F3600
G1 X64.772 Y13.271 E.00016
G3 X63.896 Y15.244 I-3.309 J-.287 E.0655
G3 X62.56 Y16.11 I-2.615 J-2.57 E.04781
G1 X62.063 Y16.237 E.01527
G1 X61.484 Y16.289 E.01732
G1 X45.502 Y16.289 E.47605
G3 X43.881 Y10.137 I-.004 J-3.289 E.25751
G1 X44.427 Y9.888 E.01788
G3 X45.502 Y9.709 I1.073 J3.132 E.03261
G1 X61.651 Y9.712 E.48101
G1 X62.287 Y9.818 E.01921
G1 X62.778 Y9.984 E.01545
G1 X63.29 Y10.26 E.01732
G3 X64.378 Y11.443 I-2.069 J2.996 E.04826
G3 X64.727 Y12.461 I-2.885 J1.556 E.0322
G1 X64.769 Y13.225 E.02281
G1 E-1.2 F2400
;WIPE_START
G1 F9000
G1 X64.772 Y13.271
G1 X64.682 Y13.806
G1 X64.506 Y14.319
G1 X64.225 Y14.828
G1 X64.046 Y15.054
;WIPE_END
G1 X56.415 Y15.162 Z.8
G1 X46.079 Y15.309 Z.8
G1 Z.4
G1 E1.2 F1800
M73 P2 R27
M73 P2 R27
G1 F3600
G1 X46.07 Y15.312 E.00027
G1 X45.517 Y15.383 E.01661
G1 X44.916 Y15.312 E.01802
G1 X44.367 Y15.093 E.01761
G3 X43.509 Y14.31 I1.328 J-2.317 E.03488
G1 X43.219 Y13.715 E.0197
G1 X43.123 Y13.214 E.01521
G1 X43.119 Y12.823 E.01165
G3 X46.461 Y15.178 I2.375 J.178 E.29936
G1 X46.117 Y15.296 E.01083
G1 X46.164 Y15.796 F9000
M204 P2000
;TYPE:Inner wall
;WIDTH:0.651738
G1 F4096
G1 X45.87 Y15.815 E.01419
;WIDTH:0.613809
G1 X45.575 Y15.834 E.01331
;WIDTH:0.584124
G3 X44.574 Y15.678 I-.01 J-3.229 E.04351
;WIDTH:0.576286
G1 X44.145 Y15.49 E.01971
;WIDTH:0.576142
G1 X43.754 Y15.234 E.01971
;WIDTH:0.575944
G1 X43.409 Y14.918 E.0197
;WIDTH:0.575692
G1 X43.122 Y14.548 E.01969
;WIDTH:0.57913
G3 X42.747 Y13.695 I2.519 J-1.615 E.03967
;WIDTH:0.574588
G1 X42.67 Y13.233 E.01965
;WIDTH:0.574112
G1 X42.669 Y12.765 E.01964
;WIDTH:0.573574
G1 X42.746 Y12.303 E.01962
;WIDTH:0.572978
G1 X42.898 Y11.86 E.0196
;WIDTH:0.57233
G1 X43.12 Y11.448 E.01958
;WIDTH:0.571624
G1 X43.408 Y11.079 E.01955
;WIDTH:0.570858
G1 X43.755 Y10.759 E.01968
;WIDTH:0.569982
G1 X44.16 Y10.502 E.02
;WIDTH:0.568034
G3 X45.068 Y10.197 I1.301 J2.375 E.03993
;WIDTH:0.603834
G1 X45.91 Y10.178 E.03732
;WIDTH:0.623764
G1 X46.033 Y10.188 E.00564
G1 X49.082 Y11.236 F9000
M204 P2500
;TYPE:Internal solid infill
;WIDTH:0.493662
G1 F4096
G2 X49.09 Y11.319 I-.027 J.045 E.00819
G1 X50.053 Y10.871 F9000
;WIDTH:0.419999
G1 F4096
G1 X48.317 Y10.871 E.05171
G1 X48.687 Y11.477 E.02116
G1 X48.894 Y12.03 E.01759
G1 X50.025 Y10.899 E.04761
G1 X50.963 Y10.494 F9000
G1 F4096
G1 X47.417 Y10.493 E.10562
G1 X47.906 Y10.948 E.0199
G3 X48.647 Y12.81 I-2.435 J2.047 E.06072
G1 X50.935 Y10.522 E.09638
G1 X62.684 Y15.514 F9000
;WIDTH:0.426096
G1 F4096
G1 X63.424 Y14.774 E.03167
G2 X64.043 Y13.613 I-1.914 J-1.767 E.04028
G1 X62.115 Y15.541 E.08252
