;TIME:988.98
;Filament used:0.68742m
;Layer height:0.200
; HEADER_BLOCK_START
; generated by Creality_Print V6.0.4.1793 on 2025-03-10 at 13:50:50
; total layer number: 294
; filament_density: 1.24
; filament_diameter: 1.75
; max_z_height: 19.60
; HEADER_BLOCK_END

; MINX = 58.00
; MINY = 42.01
; MINZ = 0.00
; MAXX = 162.00
; MAXY = 177.98
; MAXZ = 19.50

; THUMBNAIL_BLOCK_START

;
; THUMBNAIL_BLOCK_END

; THUMBNAIL_BLOCK_START

;
; THUMBNAIL_BLOCK_END

; external perimeters extrusion width = 0.42mm
; perimeters extrusion width = 0.45mm
; infill extrusion width = 0.45mm
; solid infill extrusion width = 0.42mm
; top infill extrusion width = 0.42mm
; first layer extrusion width = 0.50mm

; external perimeters extrusion width = 0.42mm
; perimeters extrusion width = 0.45mm
; infill extrusion width = 0.45mm
; solid infill extrusion width = 0.42mm
; top infill extrusion width = 0.42mm
; first layer extrusion width = 0.50mm

; external perimeters extrusion width = 0.42mm
; perimeters extrusion width = 0.45mm
; infill extrusion width = 0.45mm
; solid infill extrusion width = 0.42mm
; top infill extrusion width = 0.42mm
; first layer extrusion width = 0.50mm

; EXECUTABLE_BLOCK_START
M73 P0 R16
M201 X5000 Y5000 Z500 E5000
M203 X500 Y500 Z30 E100
M204 P5000 R2500 T5000 ; sets acceleration (P, T) and retract acceleration (R), mm/sec^2
M205 X10.00 Y10.00 Z0.40 E5.00 ; sets the jerk limits, mm/sec
;TYPE:Custom
M220 S100 ;Reset Feedrate 
M221 S100 ;Reset Flowrate 
 
M140 S60 ;Set final bed temp 
G28 ;Home 
 
G92 E0 ;Reset Extruder 
G1 Z2.0 F3000 ;Move Z Axis up 
M104 S205 ;Set final nozzle temp 
G1 X-2.1 Y20 Z0.28 F5000.0 ;Move to start position 
M190 S60 ;Wait for bed temp to stabilize 
M109 S205 ;Wait for nozzle temp to stabilize 
G1 X-2.1 Y145.0 Z0.28 F1500.0 E15 ;Draw the first line 
G1 X-2.4 Y145.0 Z0.28 F5000.0 ;Move to side a little 
G1 X-2.4 Y20 Z0.28 F1500.0 E30 ;Draw the second line 
G92 E0  ;Reset Extruder 
G1 E-1.0000 F1800 ;Retract a bit 
M73 P1 R16
M73 P1 R16
G1 Z2.0 F3000 ;Move Z Axis up 
G1 E0.0000 F1800
G90
G21
M83 ; use relative distances for extrusion
" "
G1 E-1.2 F2400
M106 S0
;LAYER_CHANGE
;Z:0.2
;HEIGHT:0.2
;BEFORE_LAYER_CHANGE
;0.2
G92 E0

;_SET_FAN_SPEED_CHANGING_LAYER
M204 P500
M205 X10 Y10
M204 T500
G1 Z.4 F9000
G1 X57.672 Y73.534
G1 Z.2
G1 E1.2 F1800
;TYPE:Skirt
;WIDTH:0.5
G1 F3000
G1 X55.742 Y72.739 E.07534
G1 X53.97 Y71.638 E.07534
G1 X52.403 Y70.261 E.07534
G1 X51.084 Y68.645 E.0753
G1 X49.817 Y66.303 E.09612
G1 X49.184 Y64.314 E.07538
G1 X48.888 Y62.249 E.07534
G1 X48.888 Y44.738 E.63222
G1 X49.184 Y42.673 E.07534
G1 X50.041 Y40.173 E.09543
G1 X51.057 Y38.384 E.07428
G1 X52.011 Y37.152 E.05627
G1 X53.513 Y35.704 E.07534
G1 X55.742 Y34.248 E.09612
G1 X57.672 Y33.453 E.07534
G1 X59.706 Y32.987 E.07534
G1 X61.21 Y32.863 E.05452
G1 X63.293 Y32.987 E.07534
G1 X65.828 Y33.625 E.09437
G1 X67.257 Y34.248 E.05627
G1 X69.029 Y35.349 E.07534
G1 X70.596 Y36.726 E.07534
G1 X71.915 Y38.343 E.07534
G1 X73.182 Y40.684 E.09612
G1 X73.815 Y42.673 E.07534
G1 X74.111 Y44.738 E.07534
G1 X74.109 Y62.268 E.63292
G1 X73.811 Y64.33 E.07523
G1 X72.958 Y66.815 E.09485
G1 X71.932 Y68.618 E.07493
G1 X70.596 Y70.261 E.07643
G1 X69.029 Y71.638 E.07534
G1 X67.744 Y72.476 E.05537
G1 X65.857 Y73.352 E.07512
G1 X63.311 Y73.997 E.09483
G1 X61.241 Y74.124 E.07489
G1 X59.711 Y74 E.05542
G1 X57.711 Y73.543 E.0741
G1 X57.82 Y73.101 F9000
G1 F3000
G1 X55.96 Y72.337 E.07262
G1 X54.25 Y71.278 E.07261
G1 X52.739 Y69.951 E.07262
G1 X51.467 Y68.395 E.07258
G1 X50.235 Y66.12 E.09339
G1 X49.627 Y64.202 E.07265
G1 X49.344 Y62.211 E.07261
G1 X49.344 Y44.776 E.62949
G1 X49.627 Y42.785 E.07261
G1 X50.46 Y40.356 E.0927
G1 X51.441 Y38.632 E.07164
G1 X52.347 Y37.461 E.05345
G1 X53.794 Y36.064 E.07262
G1 X55.96 Y34.65 E.09339
G1 X57.82 Y33.886 E.07262
G1 X59.781 Y33.438 E.07261
G1 X61.21 Y33.32 E.05179
G1 X63.218 Y33.438 E.07261
G1 X65.682 Y34.058 E.09173
G1 X67.039 Y34.65 E.05345
G1 X68.749 Y35.709 E.07261
G1 X70.26 Y37.036 E.07261
G1 X71.533 Y38.593 E.07261
G1 X72.764 Y40.868 E.09339
G1 X73.372 Y42.785 E.07262
G1 X73.655 Y44.776 E.07261
G1 X73.654 Y62.229 E.63016
G1 X73.368 Y64.217 E.07252
G1 X72.54 Y66.631 E.09214
G1 X71.549 Y68.37 E.07225
G1 X70.26 Y69.951 E.07365
G1 X68.749 Y71.278 E.07261
G1 X67.528 Y72.073 E.0526
G1 X65.709 Y72.92 E.07243
G1 X63.236 Y73.546 E.09212
G1 X61.24 Y73.667 E.0722
G1 X59.786 Y73.549 E.05265
G1 X57.859 Y73.11 E.07137
G1 X57.969 Y72.669 F9000
G1 F3000
G1 X56.177 Y71.935 E.06989
G1 X54.531 Y70.917 E.06989
G1 X53.075 Y69.642 E.06989
G1 X51.849 Y68.145 E.06986
G1 X50.654 Y65.936 E.09067
G1 X50.07 Y64.09 E.06992
G1 X49.847 Y62.749 E.04907
G1 X49.771 Y61.493 E.04542
G1 X49.799 Y44.814 E.60223
G1 X50.07 Y42.897 E.06989
G1 X50.878 Y40.54 E.08998
G1 X51.825 Y38.88 E.06901
G1 X52.684 Y37.771 E.05064
G1 X54.075 Y36.425 E.06989
G1 X56.177 Y35.051 E.09067
G1 X57.969 Y34.318 E.06989
G1 X59.856 Y33.889 E.06989
G1 X61.21 Y33.777 E.04907
G1 X63.143 Y33.889 E.06989
G1 X65.536 Y34.492 E.0891
G1 X66.822 Y35.052 E.05064
G1 X68.468 Y36.07 E.06989
G1 X70.315 Y37.771 E.09067
G1 X71.466 Y39.327 E.06989
G1 X72.345 Y41.052 E.06989
G1 X72.929 Y42.897 E.06989
G1 X73.152 Y44.238 E.04907
G1 X73.228 Y45.493 E.04542
G1 X73.198 Y62.191 E.60286
G1 X72.925 Y64.105 E.06982
G1 X72.121 Y66.448 E.08944
G1 X71.165 Y68.121 E.06957
G1 X69.924 Y69.642 E.07087
G1 X68.468 Y70.917 E.06989
G1 X67.311 Y71.67 E.04984
G1 X65.561 Y72.487 E.06974
G1 X63.16 Y73.095 E.08942
G1 X61.238 Y73.21 E.06952
G1 X59.861 Y73.099 E.04988
G1 X58.008 Y72.678 E.06864
; printing object visagra.STL id:8171063952611762432 copy 0
G1 E-1.2 F2400
;WIPE_START
G1 F9000
G1 X56.177 Y71.935
G1 X56.156 Y71.922
;WIPE_END
G1 X57.106 Y64.349 Z.6
G1 X59.221 Y47.482 Z.6
G1 Z.2
G1 E1.2 F1800
;TYPE:Inner wall
;WIDTH:0.499999
G1 X59.274 Y47.546 E.003
G2 X63.821 Y47.442 I2.227 J-2.08 E.18535
G1 X64.142 Y46.976 E.02046
G1 X64.142 Y61.345 E.51881
G1 X64.102 Y61.937 E.02141
M73 P2 R16
M73 P2 R16
G1 X63.911 Y62.546 E.02304
G1 X63.582 Y63.116 E.02378
G1 X63.117 Y63.568 E.02342
G1 X62.55 Y63.915 E.02398
G1 X61.937 Y64.088 E.02301
G1 X61.282 Y64.124 E.02368
G1 X60.645 Y63.982 E.0236
G1 X60.056 Y63.704 E.02352
G1 X59.564 Y63.275 E.02356
G1 X59.178 Y62.751 E.0235
G1 X58.949 Y62.139 E.02357
G1 X58.857 Y61.458 E.02482
G1 X58.857 Y46.964 E.52334
G1 X58.956 Y47.142 E.00739
G1 X59.196 Y47.451 E.01411
G1 E-1.2 F2400
;WIPE_START
G1 F9000
G1 X59.274 Y47.546
G1 X59.651 Y47.895
G1 X60.083 Y48.173
G1 X60.557 Y48.374
G1 X60.883 Y48.451
;WIPE_END
G1 X58.977 Y46.119 Z.6
G1 Z.2
G1 E1.2 F1800
;TYPE:Outer wall
;WIDTH:0.558531
G1 X58.914 Y45.696 E.01745
;WIDTH:0.538149
G1 X58.949 Y45.069 E.02455
;WIDTH:0.536723
G3 X59.224 Y44.266 I2.552 J.424 E.03327
;WIDTH:0.53661
G1 X59.456 Y43.909 E.01661
;WIDTH:0.53651
G1 X59.744 Y43.595 E.01661
;WIDTH:0.536384
G1 X60.079 Y43.332 E.01661
;WIDTH:0.53623
G1 X60.453 Y43.128 E.0166
;WIDTH:0.536046
G1 X60.856 Y42.988 E.0166
;WIDTH:0.535833
G1 X61.276 Y42.916 E.0166
;WIDTH:0.536166
G3 X62.123 Y42.981 I.218 J2.681 E.03325
;WIDTH:0.535026
G1 X62.527 Y43.117 E.01658
;WIDTH:0.534702
G1 X62.904 Y43.318 E.01657
;WIDTH:0.53435
G1 X63.242 Y43.577 E.01656
;WIDTH:0.533967
G1 X63.534 Y43.889 E.01656
;WIDTH:0.533558
G1 X63.772 Y44.248 E.01668
;WIDTH:0.533734
G3 X64.057 Y45.076 I-2.307 J1.256 E.0341
;WIDTH:0.534536
G1 X64.092 Y45.514 E.01709
;WIDTH:0.548683
G1 X64.058 Y45.954 E.01761
G1 X63.757 Y46.732 E.03334
;WIDTH:0.499999
G3 X59.355 Y46.919 I-2.257 J-1.239 E.19085
;WIDTH:0.529265
G1 X59.17 Y46.545 E.01604
;WIDTH:0.558531
G1 X58.985 Y46.171 E.01701
G1 X58.983 Y46.159 E.00049
G1 E-1.2 F2400
;WIPE_START
G1 F9000
G1 X58.914 Y45.696
G1 X58.949 Y45.069
G1 X59.053 Y44.656
G1 X59.224 Y44.266
G1 X59.252 Y44.222
;WIPE_END
G1 X61.065 Y51.636 Z.6
G1 X63.939 Y63.393 Z.6
G1 Z.2
G1 E1.2 F1800
;WIDTH:0.499999
G3 X58.4 Y61.477 I-2.44 J-1.912 E.27736
G1 X58.4 Y46.77 E.53101
;WIDTH:0.537672
G1 X58.418 Y46.472 E.01165
;WIDTH:0.575345
G2 X58.419 Y45.501 I-5.412 J-.492 E.04093
;WIDTH:0.538149
G1 X58.466 Y44.967 E.02097
;WIDTH:0.536723
G1 X58.594 Y44.475 E.01983
;WIDTH:0.53661
G3 X59.083 Y43.586 I2.906 J1.019 E.0397
;WIDTH:0.53651
G1 X59.429 Y43.215 E.01983
;WIDTH:0.536384
G1 X59.833 Y42.905 E.01982
;WIDTH:0.53623
G1 X60.281 Y42.666 E.01982
;WIDTH:0.536046
G1 X60.763 Y42.504 E.01981
;WIDTH:0.535833
G1 X61.266 Y42.423 E.0198
;WIDTH:0.536166
G3 X62.275 Y42.513 I.232 J3.102 E.03967
;WIDTH:0.535026
G1 X62.755 Y42.681 E.01977
;WIDTH:0.534702
G1 X63.201 Y42.926 E.01976
;WIDTH:0.53435
G1 X63.6 Y43.241 E.01974
;WIDTH:0.533967
G1 X63.943 Y43.618 E.01973
;WIDTH:0.533558
G1 X64.22 Y44.048 E.01985
;WIDTH:0.533734
G3 X64.541 Y45.006 I-2.747 J1.456 E.03935
;WIDTH:0.534033
G1 X64.582 Y45.535 E.02058
;WIDTH:0.534536
G1 X64.6 Y46.418 E.0343
;WIDTH:0.499999
G1 X64.6 Y61.477 E.54369
G3 X63.964 Y63.362 I-3.1 J.004 E.07313
G1 E-1.2 F2400
;WIPE_START
G1 F9000
G1 X63.598 Y63.773
G1 X63.195 Y64.087
G1 X62.734 Y64.335
G1 X62.341 Y64.47
;WIPE_END
G1 X62.898 Y56.857 Z.6
G1 X63.552 Y47.903 Z.6
G1 Z.2
G1 E1.2 F1800
;TYPE:Bottom surface
;WIDTH:0.503402
G1 F4800
G1 X63.8 Y48.151 E.01274
G1 X63.8 Y48.802 E.02369
G1 X63.326 Y48.329 E.02436
G1 X62.902 Y48.555 E.0175
G1 X63.8 Y49.453 E.04619
G1 X63.8 Y50.105 E.02369
G1 X62.424 Y48.729 E.07079
G3 X61.878 Y48.834 I-.629 J-1.786 E.02028
G1 X63.8 Y50.756 E.09884
G1 X63.8 Y51.407 E.02369
G1 X61.237 Y48.845 E.13181
G3 X60.42 Y48.679 I.152 J-2.843 E.03045
G1 X63.8 Y52.058 E.17386
G1 X63.8 Y52.709 E.02369
G1 X59.204 Y48.114 E.2364
G1 X59.204 Y48.765 E.02368
G1 X63.8 Y53.361 E.23641
G1 X63.8 Y54.012 E.02369
G1 X59.204 Y49.416 E.23642
G1 X59.203 Y50.067 E.02368
G1 X63.8 Y54.663 E.23644
G1 X63.8 Y55.314 E.02369
G1 X59.203 Y50.718 E.23645
G1 X59.203 Y51.369 E.02368
G1 X63.8 Y55.966 E.23646
G1 X63.8 Y56.617 E.02369
G1 X59.203 Y52.02 E.23647
G1 X59.202 Y52.671 E.02368
G1 X63.8 Y57.268 E.23648
G1 X63.8 Y57.919 E.02369
G1 X59.202 Y53.322 E.2365
G1 X59.202 Y53.973 E.02368
G1 X63.8 Y58.57 E.23651
G1 X63.8 Y59.222 E.02369
G1 X59.202 Y54.624 E.23652
G1 X59.202 Y55.275 E.02368
G1 X63.8 Y59.873 E.23653
G1 X63.8 Y60.524 E.02369
G1 X59.201 Y55.926 E.23654
G1 X59.201 Y56.577 E.02368
G1 X63.8 Y61.175 E.23655
G3 X63.77 Y61.796 I-3.668 J.134 E.02265
G1 X59.201 Y57.228 E.23502
G1 X59.201 Y57.879 E.02368
G1 X63.638 Y62.316 E.22824
G3 X63.415 Y62.744 I-1.417 J-.465 E.01764
G1 X59.2 Y58.53 E.21678
G1 X59.2 Y59.181 E.02368
M73 P2 R15
M73 P2 R15
G1 X63.125 Y63.106 E.20191
M73 P3 R15
M73 P3 R15
G3 X62.771 Y63.403 I-1.068 J-.912 E.01689
G1 X59.2 Y59.832 E.18372
G1 X59.2 Y60.483 E.02368
G1 X62.341 Y63.624 E.16159
G3 X61.825 Y63.759 I-.666 J-1.492 E.01949
G1 X59.2 Y61.134 E.13506
G2 X59.23 Y61.816 I4.113 J.157 E.02486
G1 X61.173 Y63.759 E.09995
G3 X59.951 Y63.188 I.287 J-2.207 E.04983
G1 X59.182 Y62.419 E.03957
G1 E-1.2 F2400
;WIPE_START
G1 F9000
G1 X59.951 Y63.188
G1 X60.244 Y63.416
G1 X60.577 Y63.596
G1 X60.731 Y63.649
;WIPE_END
G1 X60.459 Y56.021 Z.6
G1 X60.194 Y48.604 Z.6
G1 Z.2
G1 E1.2 F1800
;TYPE:Gap infill
;WIDTH:0.235675
G1 X60.057 Y48.515 E.00249
;WIDTH:0.201087
G1 X59.922 Y48.411 E.00213
;WIDTH:0.15976
G1 X59.787 Y48.307 E.00157
;WIDTH:0.139096
G1 X59.653 Y48.203 E.00129
; stop printing object visagra.STL id:8171063952611762432 copy 0
;TIME_ELAPSED:31.443483

M106 S255
;LAYER_CHANGE
;Z:0.4
;HEIGHT:0.2
;BEFORE_LAYER_CHANGE
;0.4
G92 E0

G1 E-1.2 F2400
;WIPE_START
G1 F9000
G1 X59.787 Y48.307
;WIPE_END
;_SET_FAN_SPEED_CHANGING_LAYER
M204 P2500
; printing object visagra.STL id:8171063952611762432 copy 0
M204 T2500
G1 X59.065 Y46.814 Z.6
G1 Z.4
G1 E1.2 F1800
M204 P2000
;TYPE:Inner wall
;WIDTH:0.497887
G1 F4401
G1 X59.173 Y47.007 E.00793
;WIDTH:0.449999
G2 X64.1 Y46.464 I2.325 J-1.531 E.19657
;WIDTH:0.490577
G1 X64.154 Y46.343 E.0047
;WIDTH:0.531155
G1 X64.208 Y46.222 E.00512
;WIDTH:0.571733
G1 X64.262 Y46.1 E.00555
;WIDTH:0.61231
G1 X64.316 Y45.979 E.00598
G1 X64.337 Y46.086 E.00488
;WIDTH:0.571733
G1 X64.357 Y46.192 E.00453
;WIDTH:0.531155
G1 X64.377 Y46.299 E.00419
;WIDTH:0.490577
G1 X64.397 Y46.405 E.00384
;WIDTH:0.449999
G1 X64.397 Y61.523 E.48612
G1 X64.294 Y62.218 E.0226
G1 X64.062 Y62.837 E.02125
G3 X63.085 Y63.916 I-2.79 J-1.544 E.04724
G1 X62.423 Y64.229 E.02355
G1 X61.772 Y64.375 E.02144
G3 X58.602 Y61.469 I-.264 J-2.895 E.15569
G1 X58.602 Y46.651 E.47646
;WIDTH:0.490347
G1 X58.622 Y46.554 E.00352
;WIDTH:0.530695
G1 X58.642 Y46.457 E.00383
;WIDTH:0.571043
G1 X58.662 Y46.359 E.00415
;WIDTH:0.611391
G1 X58.682 Y46.262 E.00447
;WIDTH:0.651738
G1 X58.702 Y46.164 E.00479
G1 X58.73 Y46.214 E.00275
;WIDTH:0.622701
G1 X58.759 Y46.264 E.00262
;WIDTH:0.593663
G1 X58.897 Y46.511 E.01233
;WIDTH:0.545775
G1 X59.035 Y46.759 E.01126
;WIDTH:0.497887
G1 X59.046 Y46.779 E.00082
G1 X59.189 Y46.076 F9000
M204 P1000
;TYPE:Outer wall
;WIDTH:0.419999
G1 F3600
G1 X59.187 Y46.07 E.00017
G1 X59.116 Y45.517 E.01661
G1 X59.187 Y44.916 E.01802
G1 X59.406 Y44.367 E.01761
G1 X59.618 Y44.039 E.01164
G3 X59.32 Y46.461 I1.879 J1.46 E.36902
G1 X59.201 Y46.114 E.01093
G1 E-1.2 F2400
;WIPE_START
G1 F9000
G1 X59.187 Y46.07
G1 X59.116 Y45.517
G1 X59.187 Y44.916
G1 X59.406 Y44.367
G1 X59.515 Y44.199
;WIPE_END
G1 X61.278 Y51.625 Z.8
G1 X64.098 Y63.508 Z.8
G1 Z.4
G1 E1.2 F1800
G1 F3600
G1 X64.095 Y63.515 E.00022
G3 X62.307 Y64.682 I-2.617 J-2.054 E.06474
G1 X61.807 Y64.767 E.01512
G1 X61.234 Y64.772 E.01706
G3 X58.21 Y61.485 I.298 J-3.309 E.14591
G1 X58.21 Y45.502 E.47607
G3 X62.289 Y42.308 I3.299 J.011 E.1775
G1 X62.858 Y42.502 E.01791
G3 X64.79 Y45.521 I-1.392 J3.018 E.11276
G1 X64.79 Y61.484 E.47549
G1 X64.738 Y62.063 E.01732
G3 X64.403 Y63.019 I-3.587 J-.722 E.03026
G1 X64.12 Y63.474 E.01598
G1 E-1.2 F2400
;WIPE_START
G1 F9000
G1 X64.095 Y63.515
G1 X63.727 Y63.913
G1 X63.299 Y64.247
G1 X62.789 Y64.518
G1 X62.514 Y64.611
;WIPE_END
G1 X60.97 Y57.137 Z.8
G1 X58.702 Y46.164 Z.8
G1 Z.4
G1 E1.2 F1800
M204 P2000
;TYPE:Inner wall
;WIDTH:0.651738
G1 F4401
G1 X58.683 Y45.87 E.01419
;WIDTH:0.613809
G1 X58.665 Y45.575 E.01331
;WIDTH:0.584124
G3 X58.82 Y44.574 I3.229 J-.01 E.04351
;WIDTH:0.576286
G1 X59.008 Y44.145 E.01971
;WIDTH:0.576142
G1 X59.264 Y43.754 E.01971
;WIDTH:0.575944
G1 X59.581 Y43.409 E.0197
;WIDTH:0.57569
G1 X59.95 Y43.122 E.01969
;WIDTH:0.575382
G1 X60.361 Y42.899 E.01968
;WIDTH:0.575016
G1 X60.804 Y42.747 E.01967
;WIDTH:0.574588
G1 X61.266 Y42.67 E.01965
;WIDTH:0.57827
G3 X62.149 Y42.736 I.221 J2.993 E.03761
;WIDTH:0.572184
G3 X63.05 Y43.12 I-.645 J2.759 E.04116
;WIDTH:0.571622
G1 X63.42 Y43.408 E.01955
;WIDTH:0.570856
G1 X63.739 Y43.755 E.01968
;WIDTH:0.569982
G1 X64 Y44.159 E.02002
;WIDTH:0.574296
G3 X64.301 Y45.068 I-2.565 J1.353 E.04039
;WIDTH:0.573078
G1 X64.336 Y45.548 E.02016
;WIDTH:0.61231
G1 X64.316 Y45.979 E.01941
G1 E-1.2 F2400
;WIPE_START
G1 F9000
G1 X64.336 Y45.548
G1 X64.301 Y45.068
G1 X64.179 Y44.573
G1 X64 Y44.159
G1 X63.932 Y44.053
;WIPE_END
G1 X59.818 Y49.006 Z.8
G1 Z.4
G1 E1.2 F1800
M204 P2500
;TYPE:Internal solid infill
;WIDTH:0.496374
G1 F4401
G2 X59.826 Y49.09 I-.027 J.045 E.0083
G1 X59.374 Y50.058 F9000
;WIDTH:0.419999
G1 F4401
G1 X60.532 Y48.9 E.04877
G1 X59.945 Y48.67 E.01879
G1 X59.486 Y48.409 E.01573
G1 X59.375 Y48.324 E.00417
G1 X59.374 Y50.018 E.05047
G1 X58.997 Y50.969 F9000
G1 F4401
G1 X61.322 Y48.643 E.09796
G1 X60.656 Y48.545 E.02007
G1 X60.085 Y48.32 E.01827
G3 X58.998 Y47.396 I1.16 J-2.467 E.043
G1 X58.997 Y50.929 E.10522
G1 X64.024 Y62.674 F9000
;WIDTH:0.425912
G1 F4401
G1 X63.261 Y63.437 E.03264
G3 X62.113 Y64.043 I-1.735 J-1.895 E.0397
G1 X64.041 Y62.116 E.08248
G1 X64.083 Y61.951 E.00513
G1 X64.124 Y61.491 E.01398
G1 X61.508 Y64.107 E.11194
G3 X61.01 Y64.064 I-.124 J-1.444 E.0152
G1 X64.127 Y60.946 E.13338
G1 X64.127 Y60.405 E.01639
G1 X60.586 Y63.946 E.15151
G3 X60.217 Y63.774 I.331 J-1.193 E.01239
G1 X64.127 Y59.863 E.16733
G1 X64.127 Y59.321 E.01639
G1 X59.892 Y63.557 E.18123
G3 X59.607 Y63.3 I.627 J-.981 E.01166
G1 X64.127 Y58.78 E.19341
G1 X64.127 Y58.238 E.01639
G1 X59.361 Y63.004 E.20391
G3 X59.158 Y62.666 I.91 J-.78 E.01199
G1 X64.127 Y57.696 E.21264
G1 X64.127 Y57.155 E.01639
G1 X59.001 Y62.282 E.21936
G1 X58.903 Y61.838 E.01376
G1 X64.127 Y56.613 E.22353
G1 X64.127 Y56.071 E.01639
