;TIME:2657.41
;Filament used:3.38204m
;Layer height:0.200
; HEADER_BLOCK_START
; generated by Creality_Print V6.0.4.1793 on 2025-03-06 at 12:45:21
; total layer number: 173
; filament_density: 1.24
; filament_diameter: 1.75
; max_z_height: 17.96
; HEADER_BLOCK_END

; MINX = 90.50
; MINY = 33.40
; MINZ = 0.00
; MAXX = 129.50
; MAXY = 186.60
; MAXZ = 18.00

; THUMBNAIL_BLOCK_START

;
; THUMBNAIL_BLOCK_END

; THUMBNAIL_BLOCK_START

;
; THUMBNAIL_BLOCK_END

; external perimeters extrusion width = 0.42mm
; perimeters extrusion width = 0.45mm
; infill extrusion width = 0.45mm
; solid infill extrusion width = 0.42mm
; top infill extrusion width = 0.42mm
; first layer extrusion width = 0.46mm

; external perimeters extrusion width = 0.42mm
; perimeters extrusion width = 0.45mm
; infill extrusion width = 0.45mm
; solid infill extrusion width = 0.42mm
; top infill extrusion width = 0.42mm
; first layer extrusion width = 0.46mm

; EXECUTABLE_BLOCK_START
M73 P0 R44
M201 X5000 Y5000 Z500 E5000
M203 X500 Y500 Z30 E100
M204 P5000 R2500 T5000 ; sets acceleration (P, T) and retract acceleration (R), mm/sec^2
M205 X10.00 Y10.00 Z0.40 E5.00 ; sets the jerk limits, mm/sec
;TYPE:Custom
M220 S100 ;Reset Feedrate 
M221 S100 ;Reset Flowrate 
 
M140 S60 ;Set final bed temp 
G28 ;Home 
 
G92 E0 ;Reset Extruder 
G1 Z2.0 F3000 ;Move Z Axis up 
M104 S205 ;Set final nozzle temp 
G1 X-2.1 Y20 Z0.28 F5000.0 ;Move to start position 
M190 S60 ;Wait for bed temp to stabilize 
M109 S205 ;Wait for nozzle temp to stabilize 
G1 X-2.1 Y145.0 Z0.28 F1500.0 E15 ;Draw the first line 
G1 X-2.4 Y145.0 Z0.28 F5000.0 ;Move to side a little 
G1 X-2.4 Y20 Z0.28 F1500.0 E30 ;Draw the second line 
G92 E0  ;Reset Extruder 
G1 E-1.0000 F1800 ;Retract a bit 
G1 Z2.0 F3000 ;Move Z Axis up 
G1 E0.0000 F1800
G90
G21
M83 ; use relative distances for extrusion
" "
G1 E-1.2 F2400
M106 S0
;LAYER_CHANGE
;Z:0.2
;HEIGHT:0.2
;BEFORE_LAYER_CHANGE
;0.2
G92 E0

;_SET_FAN_SPEED_CHANGING_LAYER
M204 P500
M205 X8 Y8
M204 T500
G1 Z.4 F9000
G1 X66.368 Y24.836
G1 Z.2
G1 E1.2 F1800
;TYPE:Skirt
;WIDTH:0.46
G1 F3000
G1 X68.581 Y20.411 E.16301
G1 X71.136 Y16.925 E.14238
G1 X74.026 Y14.036 E.13464
G1 X77.511 Y11.481 E.14237
G1 X81.57 Y9.413 E.1501
G1 X85.686 Y8.095 E.14238
G1 X89.722 Y7.456 E.13463
G1 X92 Y7.357 E.07513
G1 X128 Y7.357 E1.18607
G1 X130.043 Y7.437 E.06737
G1 X134.182 Y8.066 E.13792
G1 X138.43 Y9.413 E.14682
G1 X142.288 Y11.358 E.14237
G1 X145.795 Y13.883 E.14237
G1 X148.864 Y16.925 E.14237
G1 X151.419 Y20.411 E.14237
G1 X153.397 Y24.252 E.14236
G1 X154.75 Y28.356 E.14238
G1 X155.444 Y32.622 E.14237
G1 X155.543 Y34.9 E.07511
G1 X155.543 Y62.5 E.90932
G1 X155.462 Y64.543 E.06737
G1 X154.75 Y69.042 E.1501
G1 X153.397 Y73.147 E.14238
G1 X151.419 Y76.988 E.14235
G1 X148.864 Y80.474 E.14238
G1 X145.795 Y83.516 E.14237
G1 X142.489 Y85.918 E.13464
G1 X138.43 Y87.986 E.1501
G1 X134.543 Y89.249 E.13464
G1 X130.278 Y89.943 E.14236
G1 X128 Y90.042 E.07513
G1 X92 Y90.042 E1.18607
G1 X89.956 Y89.962 E.06738
G1 X85.686 Y89.304 E.14235
G1 X81.937 Y88.131 E.12943
G1 X77.511 Y85.918 E.16303
G1 X74.205 Y83.516 E.13464
G1 X71.136 Y80.474 E.14236
G1 X68.581 Y76.988 E.14238
G1 X66.513 Y72.929 E.15008
G1 X65.25 Y69.042 E.13467
G1 X64.556 Y64.778 E.14234
G1 X64.457 Y62.499 E.07513
G1 X64.457 Y34.9 E.90932
G1 X64.556 Y32.621 E.07513
G1 X65.195 Y28.586 E.13461
G1 X66.356 Y24.874 E.12813
G1 X66.753 Y24.998 F9000
G1 F3000
G1 X66.756 Y24.99 E.00028
G1 X68.937 Y20.629 E.16066
G1 X71.453 Y17.196 E.14022
G1 X74.297 Y14.353 E.13248
G1 X77.729 Y11.837 E.14021
M73 P0 R43
M73 P0 R43
G1 X81.73 Y9.798 E.14794
G1 X85.783 Y8.5 E.14022
G1 X89.755 Y7.871 E.13247
G1 X92 Y7.774 E.07405
G1 X128 Y7.774 E1.18607
G1 X130.011 Y7.853 E.06629
G1 X134.09 Y8.473 E.13595
G1 X138.27 Y9.798 E.14447
G1 X142.07 Y11.714 E.14021
G1 X145.524 Y14.2 E.14021
G1 X148.547 Y17.196 E.14022
G1 X151.063 Y20.629 E.14022
G1 X153.011 Y24.412 E.1402
G1 X154.344 Y28.454 E.14022
G1 X155.028 Y32.654 E.14022
G1 X155.126 Y34.9 E.07404
G1 X155.126 Y62.5 E.90932
G1 X155.047 Y64.51 E.06629
G1 X154.344 Y68.945 E.14794
G1 X153.011 Y72.987 E.14023
G1 X151.063 Y76.77 E.14019
G1 X148.546 Y80.203 E.14023
G1 X145.524 Y83.199 E.14021
G1 X142.271 Y85.562 E.13248
G1 X138.27 Y87.601 E.14794
G1 X134.446 Y88.844 E.13249
G1 X130.245 Y89.528 E.1402
G1 X128 Y89.625 E.07405
G1 X92 Y89.625 E1.18607
G1 X89.989 Y89.546 E.0663
G1 X85.783 Y88.899 E.1402
G1 X82.091 Y87.744 E.12747
G1 X77.729 Y85.562 E.16067
G1 X74.476 Y83.199 E.13249
G1 X71.454 Y80.203 E.1402
G1 X68.937 Y76.77 E.14023
G1 X66.899 Y72.77 E.14792
G1 X65.656 Y68.945 E.13251
G1 X64.972 Y64.745 E.14019
G1 X64.874 Y62.499 E.07405
G1 X64.874 Y34.9 E.90932
G1 X64.972 Y32.654 E.07405
G1 X65.601 Y28.683 E.13245
G1 X66.741 Y25.037 E.12588
G1 X67.138 Y25.161 F9000
G1 F3000
G1 X67.143 Y25.144 E.00057
G1 X69.293 Y20.847 E.15831
G1 X71.771 Y17.467 E.13806
G1 X74.568 Y14.67 E.13033
G1 X77.947 Y12.192 E.13806
G1 X81.89 Y10.183 E.14579
G1 X85.881 Y8.906 E.13806
G1 X89.787 Y8.287 E.13031
G1 X92 Y8.191 E.07297
G1 X128 Y8.191 E1.18607
G1 X129.978 Y8.269 E.06521
G1 X133.999 Y8.88 E.13399
G1 X138.111 Y10.183 E.14211
G1 X141.852 Y12.069 E.13806
G1 X145.253 Y14.517 E.13805
G1 X148.229 Y17.467 E.13806
G1 X150.707 Y20.846 E.13806
G1 X152.626 Y24.571 E.13805
G1 X153.939 Y28.551 E.13806
G1 X154.612 Y32.687 E.13806
G1 X154.709 Y34.9 E.07296
G1 X154.709 Y62.5 E.90932
G1 X154.631 Y64.477 E.06521
G1 X153.939 Y68.848 E.14578
G1 X152.626 Y72.828 E.13807
G1 X150.708 Y76.552 E.13804
M73 P1 R43
M73 P1 R43
G1 X148.229 Y79.932 E.13807
G1 X145.253 Y82.882 E.13805
G1 X142.053 Y85.207 E.13033
G1 X138.11 Y87.216 E.14579
G1 X134.348 Y88.438 E.13033
G1 X130.213 Y89.112 E.13804
G1 X128 Y89.208 E.07297
G1 X92 Y89.208 E1.18607
G1 X90.022 Y89.13 E.06522
G1 X85.881 Y88.493 E.13804
G1 X82.245 Y87.356 E.1255
G1 X77.947 Y85.207 E.15832
G1 X74.747 Y82.882 E.13033
G1 X71.771 Y79.932 E.13805
G1 X69.293 Y76.552 E.13807
G1 X67.284 Y72.61 E.14577
G1 X66.061 Y68.847 E.13035
G1 X65.388 Y64.712 E.13803
G1 X65.291 Y62.499 E.07297
G1 X65.291 Y34.9 E.90932
G1 X65.388 Y32.687 E.07297
G1 X66.006 Y28.78 E.1303
G1 X67.126 Y25.199 E.12364
; printing object wled tapa_v4.STL id:8171063952611762432 copy 0
G1 E-1.2 F2400
;WIPE_START
G1 F3000
G1 X67.143 Y25.144
G1 X68.012 Y23.407
;WIPE_END
G1 X74.404 Y27.577 Z.6 F9000
G1 X128.684 Y62.995 Z.6
G1 Z.2
G1 E1.2 F1800
;TYPE:Inner wall
;WIDTH:0.459999
G1 X128.497 Y63.183 E.00874
G1 X128.261 Y63.303 E.00871
G1 X127.949 Y63.352 E.01041
G1 X92.128 Y63.352 E1.18017
G1 X91.756 Y63.307 E.01235
G1 X91.501 Y63.181 E.00936
G1 X91.317 Y62.996 E.00862
G1 X91.196 Y62.761 E.00871
G1 X91.147 Y62.449 E.01041
G1 X91.147 Y35.027 E.90343
G1 X91.192 Y34.656 E.01234
G1 X91.318 Y34.401 E.00936
G1 X91.503 Y34.216 E.00862
G1 X91.739 Y34.096 E.00871
G1 X92.051 Y34.047 E.0104
G1 X128.112 Y34.063 E1.18809
G1 X128.387 Y34.149 E.00947
G1 X128.618 Y34.317 E.00944
G1 X128.804 Y34.638 E.01221
G1 X128.853 Y35.026 E.01288
G1 X128.853 Y62.371 E.90092
G1 X128.803 Y62.761 E.01295
G1 X128.702 Y62.96 E.00734
G1 X129.041 Y63.214 F9000
;TYPE:Outer wall
G1 F1800
G1 X129.026 Y63.244 E.00108
G1 X128.745 Y63.525 E.01309
G1 X128.392 Y63.705 E.01306
G1 X127.982 Y63.77 E.01367
G1 X92.128 Y63.77 E1.18125
G1 X91.629 Y63.71 E.01657
G1 X91.255 Y63.524 E.01374
G1 X90.975 Y63.244 E.01305
G1 X90.795 Y62.891 E.01306
G1 X90.73 Y62.481 E.01367
G1 X90.73 Y35.027 E.90451
G1 X90.79 Y34.528 E.01656
G1 X90.975 Y34.154 E.01374
G1 X91.255 Y33.874 E.01305
G1 X91.608 Y33.694 E.01306
G1 X92.018 Y33.63 E.01366
G1 X128.176 Y33.646 E1.19127
G1 X128.576 Y33.771 E.01382
G1 X128.962 Y34.078 E.01623
G1 X129.205 Y34.508 E.01628
G1 X129.27 Y35.026 E.01721
G1 X129.27 Y62.371 E.90092
G1 X129.205 Y62.892 E.01728
G1 X129.059 Y63.179 E.01061
G1 E-1.2 F2400
;WIPE_START
G1 F1800
G1 X129.026 Y63.244
G1 X128.745 Y63.525
G1 X128.392 Y63.705
G1 X127.982 Y63.77
G1 X127.263 Y63.77
;WIPE_END
G1 X127.313 Y56.137 Z.6 F9000
G1 X127.455 Y34.188 Z.6
G1 Z.2
G1 E1.2 F1800
;TYPE:Bottom surface
;WIDTH:0.461369
G1 F4800
G1 X128.54 Y35.273 E.05071
G1 X128.54 Y35.865 E.01956
G1 X127.051 Y34.375 E.06961
G1 X126.459 Y34.375 E.01957
G1 X128.54 Y36.456 E.09728
G1 X128.54 Y37.048 E.01956
G1 X125.867 Y34.375 E.12496
G1 X125.275 Y34.375 E.01957
G1 X128.54 Y37.64 E.15263
G1 X128.54 Y38.232 E.01956
G1 X124.683 Y34.374 E.18031
G1 X124.091 Y34.374 E.01957
G1 X128.54 Y38.823 E.20799
G1 X128.54 Y39.415 E.01956
G1 X123.499 Y34.374 E.23566
G1 X122.907 Y34.374 E.01957
G1 X128.54 Y40.007 E.26334
G1 X128.54 Y40.599 E.01956
G1 X122.315 Y34.373 E.29101
G1 X121.723 Y34.373 E.01957
G1 X128.54 Y41.19 E.31869
G1 X128.54 Y41.782 E.01956
G1 X121.131 Y34.373 E.34637
G1 X120.539 Y34.372 E.01957
G1 X128.54 Y42.374 E.37404
G1 X128.54 Y42.966 E.01956
G1 X119.947 Y34.372 E.40172
G1 X119.354 Y34.372 E.01957
G1 X128.54 Y43.558 E.42939
G1 X128.54 Y44.149 E.01956
G1 X118.762 Y34.372 E.45707
G1 X118.17 Y34.371 E.01957
G1 X128.54 Y44.741 E.48475
G1 X128.54 Y45.333 E.01956
G1 X117.578 Y34.371 E.51242
G1 X116.986 Y34.371 E.01957
G1 X128.54 Y45.925 E.5401
G1 X128.54 Y46.516 E.01956
G1 X116.394 Y34.371 E.56777
G1 X115.802 Y34.37 E.01957
G1 X128.54 Y47.108 E.59545
G1 X128.54 Y47.7 E.01956
G1 X115.21 Y34.37 E.62312
G1 X114.618 Y34.37 E.01957
G1 X128.54 Y48.292 E.6508
G1 X128.54 Y48.884 E.01956
G1 X114.026 Y34.369 E.67848
G1 X113.434 Y34.369 E.01957
G1 X128.54 Y49.475 E.70615
G1 X128.54 Y50.067 E.01956
G1 X112.842 Y34.369 E.73383
G1 X112.25 Y34.369 E.01957
G1 X128.54 Y50.659 E.7615
G1 X128.54 Y51.251 E.01956
G1 X111.658 Y34.368 E.78918
G1 X111.066 Y34.368 E.01957
G1 X128.54 Y51.842 E.81686
G1 X128.54 Y52.434 E.01956
G1 X110.474 Y34.368 E.84453
G1 X109.882 Y34.368 E.01957
G1 X128.54 Y53.026 E.87221
G1 X128.54 Y53.618 E.01956
G1 X109.29 Y34.367 E.89988
G1 X108.698 Y34.367 E.01957
G1 X128.54 Y54.21 E.92756
G1 X128.54 Y54.801 E.01956
G1 X108.106 Y34.367 E.95524
G1 X107.514 Y34.367 E.01957
G1 X128.54 Y55.393 E.98291
G1 X128.54 Y55.985 E.01956
G1 X106.921 Y34.366 E1.01059
G1 X106.329 Y34.366 E.01957
M73 P2 R43
M73 P2 R43
G1 X128.54 Y56.577 E1.03826
G1 X128.54 Y57.168 E.01956
G1 X105.737 Y34.366 E1.06594
G1 X105.145 Y34.365 E.01957
G1 X128.54 Y57.76 E1.09362
G1 X128.54 Y58.352 E.01956
G1 X104.553 Y34.365 E1.12129
G1 X103.961 Y34.365 E.01957
G1 X128.54 Y58.944 E1.14897
G1 X128.54 Y59.536 E.01956
G1 X103.369 Y34.365 E1.17664
G1 X102.777 Y34.364 E.01957
G1 X128.54 Y60.127 E1.20432
G1 X128.54 Y60.719 E.01956
G1 X102.185 Y34.364 E1.232
G1 X101.593 Y34.364 E.01957
G1 X128.54 Y61.311 E1.25967
G1 X128.54 Y61.903 E.01956
G1 X101.001 Y34.364 E1.28735
G1 X100.409 Y34.363 E.01957
G1 X128.53 Y62.485 E1.31457
G1 X128.502 Y62.664 E.00598
G1 X128.428 Y62.809 E.00541
G1 X128.346 Y62.892 E.00385
G1 X99.817 Y34.363 E1.3336
G1 X99.225 Y34.363 E.01957
G1 X127.902 Y63.04 E1.34053
G1 X127.31 Y63.04 E.01956
G1 X98.633 Y34.362 E1.34055
G1 X98.041 Y34.362 E.01957
G1 X126.718 Y63.04 E1.34056
G1 X126.126 Y63.04 E.01956
G1 X97.449 Y34.362 E1.34057
G1 X96.857 Y34.362 E.01957
G1 X125.535 Y63.04 E1.34058
G1 X124.943 Y63.04 E.01956
G1 X96.265 Y34.361 E1.3406
G1 X95.673 Y34.361 E.01957
G1 X124.351 Y63.04 E1.34061
G1 X123.759 Y63.04 E.01956
G1 X95.08 Y34.361 E1.34062
G1 X94.488 Y34.361 E.01957
G1 X123.168 Y63.04 E1.34063
G1 X122.576 Y63.04 E.01956
G1 X93.896 Y34.36 E1.34065
G1 X93.304 Y34.36 E.01957
G1 X121.984 Y63.04 E1.34066
G1 X121.392 Y63.04 E.01956
G1 X92.712 Y34.36 E1.34067
G1 X92.122 Y34.361 E.01952
G1 X120.8 Y63.04 E1.34061
G1 X120.209 Y63.04 E.01956
G1 X91.665 Y34.496 E1.33428
G1 X91.576 Y34.586 E.00418
G1 X91.494 Y34.751 E.00609
G1 X91.472 Y34.895 E.00481
G1 X119.617 Y63.04 E1.31566
G1 X119.025 Y63.04 E.01956
G1 X91.46 Y35.474 E1.28857
G1 X91.46 Y36.066 E.01956
G1 X118.433 Y63.04 E1.2609
G1 X117.842 Y63.04 E.01956
G1 X91.46 Y36.658 E1.23324
G1 X91.46 Y37.25 E.01956
G1 X117.25 Y63.04 E1.20558
G1 X116.658 Y63.04 E.01956
G1 X91.46 Y37.842 E1.17791
G1 X91.46 Y38.433 E.01956
G1 X116.066 Y63.04 E1.15025
G1 X115.474 Y63.04 E.01956
G1 X91.46 Y39.025 E1.12259
G1 X91.46 Y39.617 E.01956
G1 X114.883 Y63.04 E1.09492
G1 X114.291 Y63.04 E.01956
G1 X91.46 Y40.209 E1.06726
G1 X91.46 Y40.8 E.01956
G1 X113.699 Y63.04 E1.0396
G1 X113.107 Y63.04 E.01956
G1 X91.46 Y41.392 E1.01193
G1 X91.46 Y41.984 E.01956
G1 X112.516 Y63.04 E.98427
G1 X111.924 Y63.04 E.01956
M73 P2 R42
M73 P2 R42
G1 X91.46 Y42.576 E.95661
G1 X91.46 Y43.167 E.01956
G1 X111.332 Y63.04 E.92894
G1 X110.74 Y63.04 E.01956
G1 X91.46 Y43.759 E.90128
G1 X91.46 Y44.351 E.01956
G1 X110.148 Y63.04 E.87362
G1 X109.557 Y63.04 E.01956
M73 P3 R42
M73 P3 R42
G1 X91.46 Y44.943 E.84595
G1 X91.46 Y45.535 E.01956
G1 X108.965 Y63.04 E.81829
G1 X108.373 Y63.04 E.01956
G1 X91.46 Y46.126 E.79063
G1 X91.46 Y46.718 E.01956
G1 X107.781 Y63.04 E.76296
G1 X107.19 Y63.04 E.01956
G1 X91.46 Y47.31 E.7353
G1 X91.46 Y47.902 E.01956
G1 X106.598 Y63.04 E.70764
G1 X106.006 Y63.04 E.01956
G1 X91.46 Y48.493 E.67997
G1 X91.46 Y49.085 E.01956
G1 X105.414 Y63.04 E.65231
G1 X104.822 Y63.04 E.01956
G1 X91.46 Y49.677 E.62465
G1 X91.46 Y50.269 E.01956
G1 X104.231 Y63.04 E.59699
G1 X103.639 Y63.04 E.01956
G1 X91.46 Y50.861 E.56932
G1 X91.46 Y51.452 E.01956
G1 X103.047 Y63.04 E.54166
G1 X102.455 Y63.04 E.01956
G1 X91.46 Y52.044 E.514
G1 X91.46 Y52.636 E.01956
G1 X101.864 Y63.04 E.48633
G1 X101.272 Y63.04 E.01956
G1 X91.46 Y53.228 E.45867
G1 X91.46 Y53.819 E.01956
G1 X100.68 Y63.04 E.43101
G1 X100.088 Y63.04 E.01956
G1 X91.46 Y54.411 E.40334
G1 X91.46 Y55.003 E.01956
G1 X99.496 Y63.04 E.37568
G1 X98.905 Y63.04 E.01956
G1 X91.46 Y55.595 E.34802
G1 X91.46 Y56.187 E.01956
G1 X98.313 Y63.04 E.32035
G1 X97.721 Y63.04 E.01956
G1 X91.46 Y56.778 E.29269
G1 X91.46 Y57.37 E.01956
G1 X97.129 Y63.04 E.26503
G1 X96.538 Y63.04 E.01956
G1 X91.46 Y57.962 E.23736
G1 X91.46 Y58.554 E.01956
G1 X95.946 Y63.04 E.2097
G1 X95.354 Y63.04 E.01956
G1 X91.46 Y59.145 E.18204
G1 X91.46 Y59.737 E.01956
G1 X94.762 Y63.04 E.15437
G1 X94.17 Y63.04 E.01956
G1 X91.46 Y60.329 E.12671
G1 X91.46 Y60.921 E.01956
G1 X93.579 Y63.04 E.09905
G1 X92.987 Y63.04 E.01956
G1 X91.46 Y61.513 E.07138
G1 X91.46 Y62.104 E.01956
G1 X92.395 Y63.04 E.04372
G1 X92.074 Y63.04 E.01063
G1 X91.852 Y63.005 E.00743
G1 X91.688 Y62.925 E.00602
G1 X91.285 Y62.522 E.01884
G1 E-1.2 F2400
;WIPE_START
G1 F4800
G1 X91.688 Y62.925
G1 X91.852 Y63.005
G1 X92.074 Y63.04
G1 X92.395 Y63.04
G1 X91.899 Y62.543
;WIPE_END
G1 X98.003 Y57.961 Z.6 F9000
G1 X128.643 Y34.957 Z.6
G1 Z.2
G1 E1.2 F1800
;TYPE:Gap infill
;WIDTH:0.306357
G1 X128.5 Y34.767 E.00496
;WIDTH:0.341145
G1 X128.357 Y34.576 E.00561
G1 X128.001 Y34.272 E.01104
G1 E-1.2 F2400
;WIPE_START
G1 F1800
G1 X128.357 Y34.576
G1 X128.5 Y34.767
;WIPE_END
G1 X120.869 Y34.63 Z.6 F9000
G1 X107.278 Y34.387 Z.6
G1 Z.2
G1 E1.2 F1800
;WIDTH:0.0998514
G1 X107.153 Y34.262 E.0008
; stop printing object wled tapa_v4.STL id:8171063952611762432 copy 0
;TIME_ELAPSED:91.836243

M106 S255
;LAYER_CHANGE
;Z:0.32
;HEIGHT:0.12
;BEFORE_LAYER_CHANGE
;0.32
G92 E0

G1 E-1.2 F2400
;WIPE_START
G1 F1800
G1 X107.278 Y34.387
;WIPE_END
;_SET_FAN_SPEED_CHANGING_LAYER
M204 P2500
; printing object wled tapa_v4.STL id:8171063952611762432 copy 0
M204 T2500
G1 X111.867 Y40.486 Z.6 F9000
G1 X128.757 Y62.934 Z.6
G1 Z.32
G1 E1.2 F1800
M204 P2000
M205 X10 Y10
;TYPE:Inner wall
;WIDTH:0.449999
G1 F5400
G1 X128.513 Y63.206 E.00735
G1 X128.27 Y63.33 E.00549
G1 X127.951 Y63.38 E.00648
G1 X92.128 Y63.38 E.72031
G1 X91.73 Y63.33 E.00808
G1 X91.487 Y63.206 E.00547
G1 X91.294 Y63.013 E.0055
G1 X91.17 Y62.769 E.00549
G1 X91.119 Y62.451 E.00648
G1 X91.119 Y35.028 E.55141
G1 X91.17 Y34.629 E.00808
G1 X91.293 Y34.387 E.00547
G1 X91.487 Y34.193 E.0055
G1 X91.73 Y34.069 E.00549
G1 X92.049 Y34.019 E.00648
G1 X128.084 Y34.032 E.72458
G1 X128.403 Y34.127 E.00669
G1 X128.637 Y34.297 E.00582
G1 X128.83 Y34.63 E.00774
G1 X128.881 Y35.026 E.00804
G1 X128.881 Y62.475 E.55192
G1 X128.775 Y62.9 E.00879
M205 X8 Y8
G1 X129.062 Y63.208 F9000
M204 P1000
M205 X10 Y10
;TYPE:Outer wall
;WIDTH:0.419999
G1 F3600
G1 X128.757 Y63.541 E.00845
G1 X128.398 Y63.724 E.00753
G1 X127.983 Y63.79 E.00784
G1 X92.128 Y63.79 E.66998
G1 X91.602 Y63.724 E.00991
G1 X91.244 Y63.541 E.00751
G1 X90.958 Y63.256 E.00754
