;TIME:429.47
;Filament used:0.93342m
;Layer height:0.200
; HEADER_BLOCK_START
; generated by Creality_Print V6.0.4.1793 on 2025-03-06 at 08:53:04
; total layer number: 15
; filament_density: 1.24
; filament_diameter: 1.75
; max_z_height: 3.00
; HEADER_BLOCK_END

; MINX = 89.50
; MINY = 94.70
; MINZ = 0.00
; MAXX = 130.50
; MAXY = 125.30
; MAXZ = 3.00

; THUMBNAIL_BLOCK_START

;
; THUMBNAIL_BLOCK_END

; THUMBNAIL_BLOCK_START

;
; THUMBNAIL_BLOCK_END

; external perimeters extrusion width = 0.42mm
; perimeters extrusion width = 0.45mm
; infill extrusion width = 0.45mm
; solid infill extrusion width = 0.42mm
; top infill extrusion width = 0.42mm
; first layer extrusion width = 0.50mm

; EXECUTABLE_BLOCK_START
M73 P0 R7
M201 X5000 Y5000 Z500 E5000
M203 X500 Y500 Z30 E100
M204 P5000 R2500 T5000 ; sets acceleration (P, T) and retract acceleration (R), mm/sec^2
M205 X10.00 Y10.00 Z0.40 E5.00 ; sets the jerk limits, mm/sec
;TYPE:Custom
M220 S100 ;Reset Feedrate 
M221 S100 ;Reset Flowrate 
 
M140 S50 ;Set final bed temp 
G28 ;Home 
 
G92 E0 ;Reset Extruder 
G1 Z2.0 F3000 ;Move Z Axis up 
M104 S190 ;Set final nozzle temp 
G1 X-2.1 Y20 Z0.28 F5000.0 ;Move to start position 
M190 S50 ;Wait for bed temp to stabilize 
M109 S190 ;Wait for nozzle temp to stabilize 
G1 X-2.1 Y145.0 Z0.28 F1500.0 E15 ;Draw the first line 
G1 X-2.4 Y145.0 Z0.28 F5000.0 ;Move to side a little 
M73 P1 R7
M73 P1 R7
G1 X-2.4 Y20 Z0.28 F1500.0 E30 ;Draw the second line 
G92 E0  ;Reset Extruder 
G1 E-1.0000 F1800 ;Retract a bit 
M73 P2 R6
M73 P2 R6
G1 Z2.0 F3000 ;Move Z Axis up 
G1 E0.0000 F1800
G90
G21
M83 ; use relative distances for extrusion
" "
G1 E-1.2 F2400
M106 S0
;LAYER_CHANGE
;Z:0.2
;HEIGHT:0.2
;BEFORE_LAYER_CHANGE
;0.2
G92 E0

;_SET_FAN_SPEED_CHANGING_LAYER
M204 P500
M205 X10 Y10
M204 T500
G1 Z.2 F9000
G1 X76.009 Y78.935
G1 E1.2 F1800
;TYPE:Skirt
;WIDTH:0.5
G1 F3000
G1 X79.153 Y76.642 E.1405
G1 X82.358 Y75.029 E.12956
G1 X85.548 Y73.993 E.12109
G1 X89.088 Y73.413 E.12955
G1 X91 Y73.329 E.06909
G1 X129 Y73.329 E1.37203
G1 X130.677 Y73.395 E.06059
G1 X134.156 Y73.924 E.12707
G1 X137.642 Y75.029 E.13204
M73 P3 R6
M73 P3 R6
G1 X140.847 Y76.642 E.12956
G1 X143.761 Y78.736 E.12955
G1 X146.311 Y81.26 E.12956
G1 X148.436 Y84.152 E.12956
G1 X150.081 Y87.34 E.12955
G1 X151.207 Y90.747 E.12956
G1 X151.787 Y94.289 E.12956
G1 X151.871 Y96.2 E.06908
G1 X151.871 Y123.8 E.99653
G1 X151.787 Y125.711 E.06908
G1 X151.207 Y129.252 E.12955
G1 X150.171 Y132.442 E.12109
G1 X148.559 Y135.647 E.12954
G1 X146.464 Y138.561 E.12957
G1 X143.761 Y141.264 E.13802
G1 X141.048 Y143.236 E.12108
G1 X137.859 Y144.881 E.12956
G1 X134.224 Y146.062 E.13803
G1 X130.912 Y146.587 E.12107
G1 X129 Y146.671 E.06909
G1 X91 Y146.671 E1.37203
G1 X89.088 Y146.587 E.06909
G1 X85.777 Y146.062 E.12107
G1 X82.422 Y144.995 E.12708
G1 X79.153 Y143.359 E.13203
G1 X76.239 Y141.264 E.12956
G1 X73.536 Y138.561 E.13802
G1 X71.441 Y135.647 E.12957
G1 X69.829 Y132.442 E.12955
G1 X68.793 Y129.253 E.12108
G1 X68.195 Y125.477 E.13802
G1 X68.129 Y123.8 E.0606
G1 X68.129 Y96.2 E.99653
G1 X68.213 Y94.288 E.06909
G1 X68.738 Y90.976 E.12107
G1 X69.805 Y87.623 E.12707
G1 X71.441 Y84.353 E.13203
G1 X73.536 Y81.439 E.12956
G1 X75.981 Y78.963 E.12563
G1 X76.305 Y79.284 F9000
M73 P4 R6
M73 P4 R6
G1 F3000
G1 X76.311 Y79.278 E.00028
G1 X79.391 Y77.031 E.13767
G1 X82.533 Y75.451 E.12697
G1 X85.654 Y74.437 E.1185
G1 X89.124 Y73.869 E.12696
G1 X91 Y73.786 E.06779
G1 X129 Y73.786 E1.37203
G1 X130.641 Y73.85 E.05929
G1 X134.056 Y74.37 E.12472
G1 X137.467 Y75.451 E.12921
G1 X140.609 Y77.031 E.12697
G1 X143.464 Y79.083 E.12696
G1 X145.964 Y81.557 E.12697
G1 X148.046 Y84.391 E.12697
G1 X149.659 Y87.515 E.12696
G1 X150.763 Y90.854 E.12697
G1 X151.331 Y94.325 E.12697
G1 X151.414 Y96.2 E.06778
G1 X151.414 Y123.8 E.99653
G1 X151.331 Y125.676 E.06778
G1 X150.763 Y129.146 E.12696
G1 X149.749 Y132.267 E.1185
G1 X148.169 Y135.408 E.12695
G1 X146.117 Y138.264 E.12698
G1 X143.464 Y140.917 E.13543
G1 X140.809 Y142.846 E.11849
G1 X137.684 Y144.459 E.12697
G1 X134.117 Y145.618 E.13544
G1 X130.876 Y146.131 E.11848
G1 X129 Y146.214 E.06779
G1 X91 Y146.214 E1.37203
G1 X89.124 Y146.131 E.06779
G1 X85.883 Y145.618 E.11848
G1 X82.591 Y144.571 E.12472
G1 X79.391 Y142.969 E.12921
G1 X76.536 Y140.917 E.12697
G1 X73.883 Y138.264 E.13543
G1 X71.831 Y135.408 E.12698
M73 P5 R6
M73 P5 R6
G1 X70.251 Y132.267 E.12696
G1 X69.237 Y129.146 E.11849
G1 X68.65 Y125.441 E.13543
G1 X68.586 Y123.8 E.0593
G1 X68.586 Y96.2 E.99653
G1 X68.669 Y94.324 E.06779
G1 X69.182 Y91.083 E.11849
G1 X70.229 Y87.791 E.12472
G1 X71.831 Y84.592 E.1292
G1 X73.883 Y81.736 E.12697
G1 X76.277 Y79.312 E.12299
G1 X76.601 Y79.633 F9000
G1 F3000
G1 X76.612 Y79.621 E.00057
G1 X79.63 Y77.421 E.13485
G1 X82.708 Y75.874 E.12438
G1 X85.761 Y74.882 E.11591
G1 X89.16 Y74.324 E.12437
G1 X91 Y74.243 E.06649
G1 X129 Y74.243 E1.37203
G1 X130.605 Y74.306 E.058
G1 X133.955 Y74.816 E.12236
G1 X137.292 Y75.874 E.12639
G1 X140.37 Y77.421 E.12438
G1 X143.346 Y79.584 E.13285
G1 X145.769 Y82.033 E.12438
G1 X147.779 Y84.83 E.12438
G1 X149.326 Y87.908 E.12437
G1 X150.373 Y91.19 E.12438
G1 X150.876 Y94.36 E.11591
G1 X150.957 Y96.2 E.06648
G1 X150.957 Y123.8 E.99653
G1 X150.876 Y125.64 E.06649
G1 X150.318 Y129.039 E.12438
G1 X149.326 Y132.092 E.11591
G1 X147.779 Y135.17 E.12436
G1 X145.769 Y137.968 E.12439
G1 X143.168 Y140.569 E.13285
G1 X140.57 Y142.456 E.1159
G1 X137.51 Y144.036 E.12438
G1 X134.01 Y145.173 E.13285
G1 X130.84 Y145.676 E.11589
G1 X129 Y145.757 E.0665
M73 P6 R6
M73 P6 R6
G1 X91 Y145.757 E1.37203
G1 X89.16 Y145.676 E.0665
G1 X85.99 Y145.173 E.11589
G1 X82.76 Y144.146 E.12237
G1 X79.63 Y142.579 E.12638
G1 X76.832 Y140.569 E.12438
G1 X74.231 Y137.968 E.13284
G1 X72.221 Y135.17 E.12439
G1 X70.674 Y132.092 E.12437
G1 X69.682 Y129.039 E.1159
G1 X69.106 Y125.405 E.13284
G1 X69.043 Y123.8 E.058
G1 X69.043 Y96.2 E.99653
G1 X69.124 Y94.36 E.0665
G1 X69.627 Y91.19 E.1159
G1 X70.654 Y87.96 E.12236
G1 X72.221 Y84.83 E.12638
G1 X74.231 Y82.033 E.12438
G1 X76.573 Y79.661 E.12036
; printing object wled tapa.STL id:0 copy 0
G1 E-1.2 F2400
;WIPE_START
G1 F9000
G1 X76.612 Y79.621
G1 X78.184 Y78.476
;WIPE_END
G1 X81.796 Y79.707 Z.4
G1 X129.596 Y95.993 Z.4
G1 Z.2
G1 E1.2 F1800
;TYPE:Inner wall
;WIDTH:0.499999
G1 X129.602 Y96.004 E.00044
G1 X129.643 Y96.319 E.01149
G1 X129.643 Y123.786 E.9917
G1 X129.533 Y124.152 E.01382
M73 P7 R6
M73 P7 R6
G1 X129.284 Y124.357 E.01162
G1 X128.939 Y124.443 E.01285
G1 X91.014 Y124.443 E1.36931
G1 X90.648 Y124.333 E.01382
G1 X90.443 Y124.084 E.01162
G1 X90.357 Y123.739 E.01285
G1 X90.357 Y96.321 E.98996
G1 X90.405 Y96.006 E.01149
G1 X90.548 Y95.757 E.01037
G1 X90.714 Y95.643 E.00726
G1 X91.061 Y95.557 E.01292
G1 X128.897 Y95.573 E1.3661
G1 X129.184 Y95.603 E.01041
G1 X129.453 Y95.756 E.01118
G1 X129.576 Y95.959 E.00858
G1 X129.498 Y95.224 F9000
;TYPE:Outer wall
G1 F1800
G1 X129.833 Y95.489 E.01541
G1 X130.043 Y95.861 E.01543
G1 X130.1 Y96.319 E.01668
G1 X130.1 Y123.924 E.9967
G1 X129.934 Y124.372 E.01725
M73 P8 R6
M73 P8 R6
G1 X129.644 Y124.687 E.01544
G1 X129.339 Y124.843 E.01238
G1 X128.975 Y124.9 E.01332
G1 X90.876 Y124.9 E1.37559
G1 X90.428 Y124.734 E.01725
G1 X90.113 Y124.444 E.01544
G1 X89.957 Y124.139 E.01238
G1 X89.9 Y123.775 E.01332
G1 X89.9 Y96.185 E.99614
G1 X90.023 Y95.702 E.018
G1 X90.284 Y95.372 E.01517
G1 X90.661 Y95.157 E.01568
G1 X91.025 Y95.1 E.01332
G1 X129.161 Y95.116 E1.37691
G1 X129.46 Y95.211 E.01136
G1 E-1.2 F2400
;WIPE_START
G1 F9000
G1 X129.833 Y95.489
G1 X130.043 Y95.861
G1 X130.1 Y96.319
G1 X130.1 Y96.966
;WIPE_END
G1 Z.4
M73 P9 R6
M73 P9 R6
G1 X128.275 Y95.71
G1 Z.4
G1 Z.2
G1 E1.2 F1800
;TYPE:Bottom surface
;WIDTH:0.50333
G1 F4800
G1 X129.3 Y96.735 E.05273
G1 X129.3 Y97.386 E.02368
G1 X127.829 Y95.915 E.07565
G1 X127.178 Y95.915 E.02369
G1 X129.3 Y98.037 E.10915
G1 X129.3 Y98.688 E.02368
G1 X126.527 Y95.915 E.14265
G1 X125.875 Y95.915 E.02369
G1 X129.3 Y99.34 E.17616
G1 X129.3 Y99.991 E.02368
G1 X125.224 Y95.914 E.20966
G1 X124.572 Y95.914 E.02369
G1 X129.3 Y100.642 E.24317
G1 X129.3 Y101.293 E.02368
G1 X123.921 Y95.914 E.27667
G1 X123.27 Y95.914 E.02369
G1 X129.3 Y101.944 E.31017
G1 X129.3 Y102.595 E.02368
G1 X122.618 Y95.913 E.34368
G1 X121.967 Y95.913 E.02369
G1 X129.3 Y103.246 E.37718
G1 X129.3 Y103.897 E.02368
G1 X121.315 Y95.913 E.41068
G1 X120.664 Y95.912 E.02369
G1 X129.3 Y104.549 E.44419
G1 X129.3 Y105.2 E.02368
G1 X120.013 Y95.912 E.47769
G1 X119.361 Y95.912 E.02369
G1 X129.3 Y105.851 E.51119
G1 X129.3 Y106.502 E.02368
G1 X118.71 Y95.912 E.5447
G1 X118.058 Y95.911 E.02369
G1 X129.3 Y107.153 E.5782
G1 X129.3 Y107.804 E.02368
M73 P10 R6
M73 P10 R6
G1 X117.407 Y95.911 E.6117
G1 X116.756 Y95.911 E.02369
G1 X129.3 Y108.455 E.64521
G1 X129.3 Y109.106 E.02368
G1 X116.104 Y95.911 E.67871
G1 X115.453 Y95.91 E.02369
G1 X129.3 Y109.757 E.71221
G1 X129.3 Y110.409 E.02368
G1 X114.801 Y95.91 E.74572
G1 X114.15 Y95.91 E.02369
G1 X129.3 Y111.06 E.77922
G1 X129.3 Y111.711 E.02368
G1 X113.499 Y95.909 E.81273
G1 X112.847 Y95.909 E.02369
G1 X129.3 Y112.362 E.84623
G1 X129.3 Y113.013 E.02368
G1 X112.196 Y95.909 E.87973
G1 X111.544 Y95.909 E.02369
G1 X129.3 Y113.664 E.91324
G1 X129.3 Y114.315 E.02368
M73 P11 R6
M73 P11 R6
G1 X110.893 Y95.908 E.94674
G1 X110.242 Y95.908 E.02369
G1 X129.3 Y114.966 E.98024
G1 X129.3 Y115.618 E.02368
G1 X109.59 Y95.908 E1.01375
G1 X108.939 Y95.907 E.02369
G1 X129.3 Y116.269 E1.04725
G1 X129.3 Y116.92 E.02368
G1 X108.288 Y95.907 E1.08075
G1 X107.636 Y95.907 E.02369
G1 X129.3 Y117.571 E1.11426
G1 X129.3 Y118.222 E.02368
G1 X106.985 Y95.907 E1.14776
G1 X106.333 Y95.906 E.02369
G1 X129.3 Y118.873 E1.18126
G1 X129.3 Y119.524 E.02368
G1 X105.682 Y95.906 E1.21477
G1 X105.031 Y95.906 E.02369
M73 P12 R6
M73 P12 R6
G1 X129.3 Y120.175 E1.24827
G1 X129.3 Y120.826 E.02368
G1 X104.379 Y95.906 E1.28178
G1 X103.728 Y95.905 E.02369
G1 X129.3 Y121.478 E1.31528
G1 X129.3 Y122.129 E.02368
G1 X103.076 Y95.905 E1.34878
G1 X102.425 Y95.905 E.02369
G1 X129.3 Y122.78 E1.38229
G1 X129.3 Y123.431 E.02368
G1 X101.774 Y95.904 E1.41579
G1 X101.122 Y95.904 E.02369
G1 X129.209 Y123.991 E1.44461
G3 X128.912 Y124.1 I-.267 J-.269 E.01187
M73 P13 R6
M73 P13 R6
G1 X128.667 Y124.1 E.00891
G1 X100.471 Y95.904 E1.45023
G1 X99.819 Y95.904 E.02369
G1 X128.016 Y124.1 E1.45025
G1 X127.365 Y124.1 E.02368
G1 X99.168 Y95.903 E1.45026
G1 X98.517 Y95.903 E.02369
G1 X126.714 Y124.1 E1.45028
G1 X126.063 Y124.1 E.02368
G1 X97.865 Y95.903 E1.45029
G1 X97.214 Y95.903 E.02369
G1 X125.411 Y124.1 E1.45031
G1 X124.76 Y124.1 E.02368
M73 P14 R6
M73 P14 R6
G1 X96.562 Y95.902 E1.45032
G1 X95.911 Y95.902 E.02369
G1 X124.109 Y124.1 E1.45033
G1 X123.458 Y124.1 E.02368
G1 X95.26 Y95.902 E1.45035
G1 X94.608 Y95.901 E.02369
G1 X122.807 Y124.1 E1.45036
G1 X122.156 Y124.1 E.02368
G1 X93.957 Y95.901 E1.45038
G1 X93.305 Y95.901 E.02369
G1 X121.505 Y124.1 E1.45039
G1 X120.854 Y124.1 E.02368
G1 X92.654 Y95.901 E1.4504
G1 X92.003 Y95.9 E.02369
M73 P15 R6
M73 P15 R6
G1 X120.202 Y124.1 E1.45042
G1 X119.551 Y124.1 E.02368
G1 X91.351 Y95.9 E1.45043
G2 X90.911 Y95.928 I-.112 J1.698 E.0161
G2 X90.799 Y95.999 I.021 J.158 E.00496
G1 X118.9 Y124.1 E1.44536
G1 X118.249 Y124.1 E.02368
G1 X90.7 Y96.551 E1.41696
G1 X90.7 Y97.202 E.02368
G1 X117.598 Y124.1 E1.38347
G1 X116.947 Y124.1 E.02368
G1 X90.7 Y97.853 E1.34998
G1 X90.7 Y98.504 E.02368
G1 X116.296 Y124.1 E1.31649
G1 X115.645 Y124.1 E.02368
M73 P16 R6
M73 P16 R6
G1 X90.7 Y99.155 E1.283
G1 X90.7 Y99.806 E.02368
G1 X114.994 Y124.1 E1.24951
G1 X114.342 Y124.1 E.02368
M73 P16 R5
M73 P16 R5
G1 X90.7 Y100.458 E1.21602
G1 X90.7 Y101.109 E.02368
G1 X113.691 Y124.1 E1.18253
G1 X113.04 Y124.1 E.02368
G1 X90.7 Y101.76 E1.14904
G1 X90.7 Y102.411 E.02368
G1 X112.389 Y124.1 E1.11555
G1 X111.738 Y124.1 E.02368
G1 X90.7 Y103.062 E1.08206
G1 X90.7 Y103.713 E.02368
M73 P17 R5
M73 P17 R5
G1 X111.087 Y124.1 E1.04858
G1 X110.436 Y124.1 E.02368
G1 X90.7 Y104.364 E1.01509
G1 X90.7 Y105.015 E.02368
G1 X109.785 Y124.1 E.9816
G1 X109.133 Y124.1 E.02368
G1 X90.7 Y105.667 E.94811
G1 X90.7 Y106.318 E.02368
G1 X108.482 Y124.1 E.91462
G1 X107.831 Y124.1 E.02368
G1 X90.7 Y106.969 E.88113
G1 X90.7 Y107.62 E.02368
G1 X107.18 Y124.1 E.84764
G1 X106.529 Y124.1 E.02368
G1 X90.7 Y108.271 E.81415
G1 X90.7 Y108.922 E.02368
G1 X105.878 Y124.1 E.78066
G1 X105.227 Y124.1 E.02368
M73 P18 R5
M73 P18 R5
G1 X90.7 Y109.573 E.74717
G1 X90.7 Y110.224 E.02368
G1 X104.576 Y124.1 E.71368
G1 X103.925 Y124.1 E.02368
G1 X90.7 Y110.875 E.68019
G1 X90.7 Y111.527 E.02368
G1 X103.273 Y124.1 E.6467
G1 X102.622 Y124.1 E.02368
G1 X90.7 Y112.178 E.61321
G1 X90.7 Y112.829 E.02368
G1 X101.971 Y124.1 E.57972
G1 X101.32 Y124.1 E.02368
G1 X90.7 Y113.48 E.54623
G1 X90.7 Y114.131 E.02368
G1 X100.669 Y124.1 E.51275
G1 X100.018 Y124.1 E.02368
G1 X90.7 Y114.782 E.47926
G1 X90.7 Y115.433 E.02368
G1 X99.367 Y124.1 E.44577
G1 X98.716 Y124.1 E.02368
G1 X90.7 Y116.084 E.41228
G1 X90.7 Y116.736 E.02368
G1 X98.064 Y124.1 E.37879
G1 X97.413 Y124.1 E.02368
G1 X90.7 Y117.387 E.3453
M73 P19 R5
M73 P19 R5
G1 X90.7 Y118.038 E.02368
G1 X96.762 Y124.1 E.31181
G1 X96.111 Y124.1 E.02368
G1 X90.7 Y118.689 E.27832
G1 X90.7 Y119.34 E.02368
G1 X95.46 Y124.1 E.24483
G1 X94.809 Y124.1 E.02368
G1 X90.7 Y119.991 E.21134
G1 X90.7 Y120.642 E.02368
G1 X94.158 Y124.1 E.17785
G1 X93.507 Y124.1 E.02368
G1 X90.7 Y121.293 E.14436
G1 X90.7 Y121.944 E.02368
G1 X92.856 Y124.1 E.11087
G1 X92.204 Y124.1 E.02368
G1 X90.7 Y122.596 E.07738
G1 X90.7 Y123.247 E.02368
G1 X91.553 Y124.1 E.04389
G3 X90.995 Y124.096 I-.253 J-3.546 E.02032
G1 X90.851 Y124.049 E.0055
G1 X90.494 Y123.692 E.01837
G1 E-1.2 F2400
;WIPE_START
G1 F9000
G1 X90.851 Y124.049
G1 X90.995 Y124.096
G1 X91.553 Y124.1
G1 X90.998 Y123.545
;WIPE_END
G1 X94.114 Y121.341 Z.4
G1 X129.414 Y96.373 Z.4
G1 Z.2
G1 E1.2 F1800
;TYPE:Gap infill
;WIDTH:0.366862
G1 X129.178 Y96.048 E.01028
G1 X128.89 Y95.802 E.0097
; stop printing object wled tapa.STL id:0 copy 0
;TIME_ELAPSED:84.671112

M106 S255
;LAYER_CHANGE
;Z:0.4
;HEIGHT:0.2
;BEFORE_LAYER_CHANGE
;0.4
G92 E0

G1 E-1.2 F2400
;WIPE_START
G1 F9000
G1 X129.178 Y96.048
G1 X129.414 Y96.373
;WIPE_END
;_SET_FAN_SPEED_CHANGING_LAYER
M204 P2500
; printing object wled tapa.STL id:0 copy 0
M204 T2500
G1 X129.699 Y95.671 Z.4
G1 E1.2 F1800
M204 P2000
;TYPE:Inner wall
;WIDTH:0.449999
G1 F5400
G1 X129.847 Y95.925 E.00944
G1 X129.898 Y96.327 E.01304
G1 X129.898 Y123.776 E.88267
G1 X129.786 Y124.227 E.01494
G1 X129.523 Y124.52 E.01266
G1 X129.275 Y124.647 E.00896
G1 X128.953 Y124.698 E.0105
G1 X91.128 Y124.698 E1.2163
G1 X90.724 Y124.647 E.0131
G3 X90.153 Y124.075 I.357 J-.927 E.02675
G1 X90.102 Y123.753 E.0105
G1 X90.102 Y96.224 E.88523
G1 X90.214 Y95.773 E.01494
M73 P20 R5
M73 P20 R5
G1 X90.477 Y95.48 E.01266
G1 X90.725 Y95.353 E.00896
G1 X91.047 Y95.302 E.0105
G1 X128.886 Y95.315 E1.21676
G1 X129.287 Y95.352 E.01295
G1 X129.649 Y95.585 E.01384
G1 X129.679 Y95.636 E.00193
G1 X129.578 Y95.048 F9000
M204 P1000
;TYPE:Outer wall
;WIDTH:0.419999
G1 F3600
G1 X129.977 Y95.365 E.0152
G1 X130.224 Y95.802 E.01495
G1 X130.29 Y96.327 E.01576
G1 X130.29 Y123.951 E.82282
G1 X130.096 Y124.472 E.01655
G1 X129.757 Y124.842 E.01495
G1 X129.398 Y125.024 E.012
G1 X128.983 Y125.09 E.0125
G1 X91.128 Y125.09 E1.12758
G1 X90.601 Y125.024 E.01581
G1 X90.244 Y124.842 E.01195
G1 X89.958 Y124.557 E.01202
G1 X89.776 Y124.198 E.012
G1 X89.71 Y123.783 E.0125
G1 X89.71 Y96.049 E.82611
G1 X89.904 Y95.528 E.01655
G1 X90.243 Y95.158 E.01495
G1 X90.602 Y94.976 E.012
G1 X91.016 Y94.91 E.01249
G1 X129.143 Y94.923 E1.13566
G1 X129.539 Y95.037 E.01227
G1 E-1.2 F2400
;WIPE_START
G1 F9000
G1 X129.977 Y95.365
G1 X130.224 Y95.802
G1 X130.29 Y96.327
G1 X130.29 Y96.749
;WIPE_END
G1 Z.6
G1 X129.086 Y124.575
G1 Z.6
G1 Z.4
G1 E1.2 F1800
M204 P2500
;TYPE:Internal solid infill
;WIDTH:0.420738
G1 F10800
G1 X129.519 Y124.142 E.01829
G1 X129.62 Y123.862 E.00888
G2 X129.628 Y123.499 I-2.303 J-.23 E.01085
G1 X128.699 Y124.428 E.03921
G1 X128.165 Y124.428 E.01595
G1 X129.628 Y122.965 E.06176
G1 X129.628 Y122.43 E.01595
G1 X127.63 Y124.428 E.08431
G1 X127.096 Y124.428 E.01595
G1 X129.628 Y121.896 E.10686
G1 X129.628 Y121.362 E.01595
