;TIME:415.71
;Filament used:0.88860m
;Layer height:0.200
; HEADER_BLOCK_START
; generated by Creality_Print V6.0.4.1793 on 2025-03-06 at 15:10:42
; total layer number: 15
; filament_density: 1.24
; filament_diameter: 1.75
; max_z_height: 3.00
; HEADER_BLOCK_END

; MINX = 90.50
; MINY = 94.70
; MINZ = 0.00
; MAXX = 129.50
; MAXY = 125.30
; MAXZ = 3.00

; THUMBNAIL_BLOCK_START

;
; THUMBNAIL_BLOCK_END

; THUMBNAIL_BLOCK_START

;
; THUMBNAIL_BLOCK_END

; external perimeters extrusion width = 0.42mm
; perimeters extrusion width = 0.45mm
; infill extrusion width = 0.45mm
; solid infill extrusion width = 0.42mm
; top infill extrusion width = 0.42mm
; first layer extrusion width = 0.50mm

; EXECUTABLE_BLOCK_START
M73 P0 R6
M201 X5000 Y5000 Z500 E5000
M203 X500 Y500 Z30 E100
M204 P5000 R2500 T5000 ; sets acceleration (P, T) and retract acceleration (R), mm/sec^2
M205 X10.00 Y10.00 Z0.40 E5.00 ; sets the jerk limits, mm/sec
;TYPE:Custom
M220 S100 ;Reset Feedrate 
M221 S100 ;Reset Flowrate 
 
M140 S60 ;Set final bed temp 
G28 ;Home 
 
G92 E0 ;Reset Extruder 
G1 Z2.0 F3000 ;Move Z Axis up 
M104 S205 ;Set final nozzle temp 
G1 X-2.1 Y20 Z0.28 F5000.0 ;Move to start position 
M190 S60 ;Wait for bed temp to stabilize 
M109 S205 ;Wait for nozzle temp to stabilize 
G1 X-2.1 Y145.0 Z0.28 F1500.0 E15 ;Draw the first line 
G1 X-2.4 Y145.0 Z0.28 F5000.0 ;Move to side a little 
M73 P1 R6
M73 P1 R6
G1 X-2.4 Y20 Z0.28 F1500.0 E30 ;Draw the second line 
G92 E0  ;Reset Extruder 
G1 E-1.0000 F1800 ;Retract a bit 
M73 P2 R6
M73 P2 R6
G1 Z2.0 F3000 ;Move Z Axis up 
G1 E0.0000 F1800
G90
G21
M83 ; use relative distances for extrusion
" "
G1 E-1.2 F2400
M106 S0
;LAYER_CHANGE
;Z:0.2
;HEIGHT:0.2
;BEFORE_LAYER_CHANGE
;0.2
G92 E0

;_SET_FAN_SPEED_CHANGING_LAYER
M204 P500
M205 X10 Y10
M204 T500
G1 Z.4 F9000
G1 X69.738 Y90.977
G1 Z.2
G1 E1.2 F1800
;TYPE:Skirt
;WIDTH:0.5
G1 F3000
G1 X70.805 Y87.622 E.12709
G1 X72.441 Y84.353 E.13202
G1 X74.536 Y81.439 E.12956
G1 X77.06 Y78.888 E.12956
G1 X80.153 Y76.642 E.13803
G1 X83.358 Y75.029 E.12956
G1 X86.548 Y73.993 E.12109
G1 X90.088 Y73.413 E.12955
G1 X92 Y73.329 E.06909
G1 X128 Y73.329 E1.29982
G1 X129.677 Y73.395 E.06059
M73 P3 R6
M73 P3 R6
G1 X133.156 Y73.924 E.12707
G1 X136.642 Y75.029 E.13204
G1 X139.847 Y76.642 E.12956
G1 X142.761 Y78.736 E.12955
G1 X145.311 Y81.26 E.12956
G1 X147.436 Y84.152 E.12956
G1 X149.081 Y87.34 E.12955
G1 X150.207 Y90.747 E.12956
G1 X150.787 Y94.289 E.12956
G1 X150.871 Y96.2 E.06908
G1 X150.871 Y123.8 E.99653
G1 X150.787 Y125.711 E.06908
G1 X150.207 Y129.252 E.12955
G1 X149.171 Y132.442 E.12109
G1 X147.559 Y135.647 E.12954
G1 X145.464 Y138.561 E.12957
G1 X142.761 Y141.264 E.13802
G1 X139.847 Y143.358 E.12956
G1 X136.642 Y144.971 E.12956
G1 X133.452 Y146.007 E.12109
G1 X129.677 Y146.605 E.13802
G1 X128 Y146.671 E.06059
G1 X92 Y146.671 E1.29982
G1 X90.088 Y146.587 E.06909
G1 X86.777 Y146.062 E.12107
G1 X83.422 Y144.995 E.12708
G1 X80.153 Y143.359 E.13203
G1 X77.239 Y141.264 E.12956
G1 X74.536 Y138.561 E.13802
G1 X72.441 Y135.647 E.12957
G1 X70.829 Y132.442 E.12954
G1 X69.793 Y129.252 E.12111
G1 X69.195 Y125.477 E.138
G1 X69.129 Y123.8 E.0606
G1 X69.129 Y96.2 E.99653
G1 X69.213 Y94.288 E.06909
M73 P4 R6
M73 P4 R6
G1 X69.731 Y91.016 E.11961
G1 X70.181 Y91.087 F9000
G1 F3000
G1 X70.182 Y91.083 E.00015
G1 X71.229 Y87.791 E.12474
G1 X72.831 Y84.592 E.12919
G1 X74.883 Y81.736 E.12697
G1 X77.357 Y79.236 E.12697
G1 X80.391 Y77.031 E.13544
G1 X83.533 Y75.451 E.12697
G1 X86.654 Y74.437 E.1185
G1 X90.124 Y73.869 E.12696
G1 X92 Y73.786 E.06779
G1 X128 Y73.786 E1.29982
G1 X129.641 Y73.85 E.05929
G1 X133.056 Y74.37 E.12472
G1 X136.467 Y75.451 E.12921
G1 X139.609 Y77.031 E.12697
G1 X142.464 Y79.083 E.12696
G1 X144.964 Y81.557 E.12697
G1 X147.046 Y84.391 E.12697
G1 X148.659 Y87.515 E.12696
G1 X149.763 Y90.854 E.12697
G1 X150.331 Y94.325 E.12697
G1 X150.414 Y96.2 E.06778
G1 X150.414 Y123.8 E.99653
G1 X150.331 Y125.675 E.06778
G1 X149.763 Y129.146 E.12696
G1 X148.749 Y132.267 E.1185
G1 X147.169 Y135.408 E.12695
G1 X145.117 Y138.264 E.12698
G1 X142.464 Y140.917 E.13543
G1 X139.809 Y142.846 E.11849
G1 X136.684 Y144.459 E.12697
G1 X133.117 Y145.618 E.13544
G1 X129.876 Y146.131 E.11848
G1 X128 Y146.214 E.06779
G1 X92 Y146.214 E1.29982
G1 X90.124 Y146.131 E.06779
M73 P5 R6
M73 P5 R6
G1 X86.883 Y145.618 E.11848
G1 X83.591 Y144.571 E.12472
G1 X80.391 Y142.969 E.12921
G1 X77.536 Y140.917 E.12697
G1 X74.883 Y138.264 E.13543
G1 X72.831 Y135.408 E.12698
G1 X71.251 Y132.267 E.12695
G1 X70.237 Y129.145 E.11852
G1 X69.65 Y125.441 E.13541
G1 X69.586 Y123.8 E.0593
G1 X69.586 Y96.2 E.99653
G1 X69.669 Y94.324 E.0678
G1 X70.175 Y91.127 E.11688
G1 X70.625 Y91.198 F9000
G1 F3000
G1 X70.627 Y91.19 E.0003
G1 X71.654 Y87.96 E.12238
G1 X73.221 Y84.83 E.12637
G1 X75.231 Y82.032 E.12438
G1 X77.654 Y79.584 E.12438
G1 X80.63 Y77.421 E.13285
G1 X83.708 Y75.874 E.12438
G1 X86.761 Y74.882 E.11591
G1 X90.16 Y74.324 E.12437
G1 X92 Y74.243 E.06649
G1 X128 Y74.243 E1.29982
G1 X129.605 Y74.306 E.058
G1 X132.955 Y74.816 E.12236
G1 X136.292 Y75.874 E.12639
G1 X139.37 Y77.421 E.12438
G1 X142.346 Y79.584 E.13285
G1 X144.769 Y82.033 E.12438
G1 X146.779 Y84.83 E.12438
G1 X148.326 Y87.908 E.12437
G1 X149.373 Y91.19 E.12438
G1 X149.876 Y94.36 E.11591
G1 X149.957 Y96.2 E.06648
G1 X149.957 Y123.8 E.99653
G1 X149.876 Y125.64 E.06649
M73 P6 R6
M73 P6 R6
G1 X149.318 Y129.039 E.12438
G1 X148.326 Y132.092 E.11591
G1 X146.779 Y135.17 E.12436
G1 X144.769 Y137.968 E.12439
G1 X142.168 Y140.569 E.13285
G1 X139.57 Y142.456 E.1159
G1 X136.51 Y144.036 E.12438
G1 X133.01 Y145.173 E.13285
G1 X129.84 Y145.676 E.11589
G1 X128 Y145.757 E.0665
G1 X92 Y145.757 E1.29982
G1 X90.16 Y145.676 E.0665
G1 X86.99 Y145.173 E.11589
G1 X83.76 Y144.146 E.12237
G1 X80.63 Y142.579 E.12638
G1 X77.832 Y140.569 E.12438
G1 X75.231 Y137.968 E.13284
G1 X73.221 Y135.17 E.12439
G1 X71.674 Y132.092 E.12436
G1 X70.681 Y129.039 E.11593
G1 X70.106 Y125.405 E.13282
G1 X70.043 Y123.8 E.05801
G1 X70.043 Y96.2 E.99653
G1 X70.124 Y94.36 E.0665
G1 X70.619 Y91.238 E.11414
; printing object wled tapa_v4.STL id:2298572164864 copy 0
G1 E-1.2 F2400
;WIPE_START
G1 F9000
G1 X70.627 Y91.19
G1 X71.218 Y89.33
;WIPE_END
G1 X78.537 Y91.495 Z.6
G1 X92.269 Y95.557 Z.6
G1 Z.2
G1 E1.2 F1800
;TYPE:Inner wall
;WIDTH:0.499999
G1 X127.897 Y95.573 E1.28639
G1 X128.183 Y95.603 E.01041
M73 P7 R6
M73 P7 R6
G1 X128.453 Y95.756 E.01118
G1 X128.602 Y96.004 E.01046
G1 X128.643 Y96.319 E.01149
G1 X128.643 Y123.786 E.9917
G1 X128.533 Y124.152 E.01382
G1 X128.284 Y124.357 E.01162
G1 X127.939 Y124.443 E.01285
G1 X92.014 Y124.443 E1.29709
G1 X91.648 Y124.333 E.01382
G1 X91.443 Y124.084 E.01162
G1 X91.357 Y123.739 E.01285
G1 X91.357 Y96.214 E.9938
G1 X91.467 Y95.848 E.01382
G1 X91.716 Y95.643 E.01162
G1 X92.061 Y95.557 E.01285
M73 P8 R6
M73 P8 R6
G1 X92.229 Y95.557 E.00606
G1 X91.661 Y95.157 F9000
;TYPE:Outer wall
G1 F1800
G1 X92.025 Y95.1 E.01332
G1 X128.161 Y95.116 E1.3047
G1 X128.498 Y95.224 E.0128
G1 X128.833 Y95.489 E.01541
G1 X129.043 Y95.861 E.01543
G1 X129.1 Y96.319 E.01668
G1 X129.1 Y123.924 E.9967
G1 X128.934 Y124.372 E.01725
G1 X128.644 Y124.687 E.01544
G1 X128.339 Y124.843 E.01238
G1 X127.975 Y124.9 E.01332
G1 X91.876 Y124.9 E1.30338
G1 X91.428 Y124.734 E.01725
G1 X91.113 Y124.444 E.01544
G1 X90.957 Y124.139 E.01238
G1 X90.9 Y123.775 E.01332
G1 X90.9 Y96.076 E1.00009
G1 X91.066 Y95.628 E.01725
M73 P9 R6
M73 P9 R6
G1 X91.356 Y95.313 E.01544
G1 X91.625 Y95.175 E.01094
G1 E-1.2 F2400
;WIPE_START
G1 F9000
G1 X92.025 Y95.1
G1 X93.618 Y95.101
;WIPE_END
G1 Z.6
G1 X128.506 Y96.94
G1 Z.6
G1 Z.2
G1 E1.2 F1800
;TYPE:Bottom surface
;WIDTH:0.503
G1 F4800
G1 X127.481 Y95.916 E.05265
G1 X126.83 Y95.915 E.02366
G1 X128.3 Y97.385 E.07553
G1 X128.3 Y98.036 E.02365
G1 X126.18 Y95.915 E.10899
G1 X125.529 Y95.915 E.02366
G1 X128.3 Y98.686 E.14245
G1 X128.3 Y99.337 E.02365
G1 X124.878 Y95.915 E.1759
G1 X124.227 Y95.914 E.02366
G1 X128.3 Y99.988 E.20936
G1 X128.3 Y100.638 E.02365
G1 X123.576 Y95.914 E.24282
G1 X122.925 Y95.914 E.02366
G1 X128.3 Y101.289 E.27627
G1 X128.3 Y101.94 E.02365
G1 X122.274 Y95.913 E.30973
G1 X121.623 Y95.913 E.02366
G1 X128.3 Y102.59 E.34319
G1 X128.3 Y103.241 E.02365
G1 X120.972 Y95.913 E.37664
G1 X120.321 Y95.913 E.02366
G1 X128.3 Y103.892 E.4101
G1 X128.3 Y104.542 E.02365
G1 X119.67 Y95.912 E.44355
G1 X119.019 Y95.912 E.02366
G1 X128.3 Y105.193 E.47701
G1 X128.3 Y105.844 E.02365
M73 P10 R6
M73 P10 R6
G1 X118.368 Y95.912 E.51047
G1 X117.717 Y95.911 E.02366
G1 X128.3 Y106.494 E.54392
G1 X128.3 Y107.145 E.02365
G1 X117.066 Y95.911 E.57738
G1 X116.415 Y95.911 E.02366
G1 X128.3 Y107.795 E.61084
G1 X128.3 Y108.446 E.02365
G1 X115.764 Y95.91 E.64429
G1 X115.114 Y95.91 E.02366
G1 X128.3 Y109.097 E.67775
G1 X128.3 Y109.747 E.02365
G1 X114.463 Y95.91 E.7112
G1 X113.812 Y95.91 E.02366
G1 X128.3 Y110.398 E.74466
G1 X128.3 Y111.049 E.02365
G1 X113.161 Y95.909 E.77812
G1 X112.51 Y95.909 E.02366
G1 X128.3 Y111.699 E.81157
G1 X128.3 Y112.35 E.02365
G1 X111.859 Y95.909 E.84503
G1 X111.208 Y95.908 E.02366
M73 P11 R6
M73 P11 R6
G1 X128.3 Y113.001 E.87849
G1 X128.3 Y113.651 E.02365
G1 X110.557 Y95.908 E.91194
G1 X109.906 Y95.908 E.02366
G1 X128.3 Y114.302 E.9454
G1 X128.3 Y114.953 E.02365
G1 X109.255 Y95.908 E.97886
G1 X108.604 Y95.907 E.02366
G1 X128.3 Y115.603 E1.01231
G1 X128.3 Y116.254 E.02365
G1 X107.953 Y95.907 E1.04577
G1 X107.302 Y95.907 E.02366
G1 X128.3 Y116.905 E1.07922
G1 X128.3 Y117.555 E.02365
G1 X106.651 Y95.906 E1.11268
G1 X106 Y95.906 E.02366
M73 P12 R6
M73 P12 R6
G1 X128.3 Y118.206 E1.14614
G1 X128.3 Y118.857 E.02365
G1 X105.349 Y95.906 E1.17959
G1 X104.698 Y95.906 E.02366
G1 X128.3 Y119.507 E1.21305
G1 X128.3 Y120.158 E.02365
G1 X104.048 Y95.905 E1.24651
G1 X103.397 Y95.905 E.02366
G1 X128.3 Y120.809 E1.27996
G1 X128.3 Y121.459 E.02365
G1 X102.746 Y95.905 E1.31342
G1 X102.095 Y95.904 E.02366
G1 X128.3 Y122.11 E1.34688
G1 X128.3 Y122.76 E.02365
M73 P13 R6
M73 P13 R6
G1 X101.444 Y95.904 E1.38033
G1 X100.793 Y95.904 E.02366
G1 X128.3 Y123.411 E1.41379
G3 X128.296 Y123.805 I-2.503 J.171 E.01433
G1 X128.248 Y123.952 E.00563
G1 X128.219 Y123.981 E.00148
G1 X100.142 Y95.904 E1.44309
G1 X99.491 Y95.903 E.02366
G1 X127.688 Y124.1 E1.44923
G1 X127.037 Y124.1 E.02365
M73 P13 R5
M73 P13 R5
G1 X98.84 Y95.903 E1.44924
G1 X98.189 Y95.903 E.02366
G1 X126.386 Y124.1 E1.44926
G1 X125.736 Y124.1 E.02365
G1 X97.538 Y95.902 E1.44927
G1 X96.887 Y95.902 E.02366
M73 P14 R5
M73 P14 R5
G1 X125.085 Y124.1 E1.44929
G1 X124.435 Y124.1 E.02365
G1 X96.236 Y95.902 E1.4493
G1 X95.585 Y95.901 E.02366
G1 X123.784 Y124.1 E1.44932
G1 X123.133 Y124.1 E.02365
G1 X94.934 Y95.901 E1.44933
G1 X94.283 Y95.901 E.02366
G1 X122.483 Y124.1 E1.44935
G1 X121.832 Y124.1 E.02365
G1 X93.632 Y95.901 E1.44936
G1 X92.981 Y95.9 E.02366
M73 P15 R5
M73 P15 R5
G1 X121.181 Y124.1 E1.44938
G1 X120.531 Y124.1 E.02365
G1 X92.331 Y95.9 E1.44939
G2 X91.91 Y95.928 I-.102 J1.624 E.01538
G2 X91.79 Y96.01 I.066 J.225 E.00535
G1 X119.88 Y124.1 E1.44374
G1 X119.229 Y124.1 E.02365
G1 X91.7 Y96.571 E1.41492
G1 X91.7 Y97.221 E.02365
G1 X118.579 Y124.1 E1.38148
G1 X117.928 Y124.1 E.02365
G1 X91.7 Y97.872 E1.34804
G1 X91.7 Y98.523 E.02365
G1 X117.277 Y124.1 E1.3146
G1 X116.627 Y124.1 E.02365
M73 P16 R5
M73 P16 R5
G1 X91.7 Y99.173 E1.28116
G1 X91.7 Y99.824 E.02365
G1 X115.976 Y124.1 E1.24772
G1 X115.325 Y124.1 E.02365
G1 X91.7 Y100.475 E1.21428
G1 X91.7 Y101.125 E.02365
G1 X114.675 Y124.1 E1.18084
G1 X114.024 Y124.1 E.02365
G1 X91.7 Y101.776 E1.14739
G1 X91.7 Y102.427 E.02365
G1 X113.373 Y124.1 E1.11395
G1 X112.723 Y124.1 E.02365
G1 X91.7 Y103.077 E1.08051
G1 X91.7 Y103.728 E.02365
M73 P17 R5
M73 P17 R5
G1 X112.072 Y124.1 E1.04707
G1 X111.422 Y124.1 E.02365
G1 X91.7 Y104.378 E1.01363
G1 X91.7 Y105.029 E.02365
G1 X110.771 Y124.1 E.98019
G1 X110.12 Y124.1 E.02365
G1 X91.7 Y105.68 E.94675
G1 X91.7 Y106.33 E.02365
G1 X109.47 Y124.1 E.9133
G1 X108.819 Y124.1 E.02365
G1 X91.7 Y106.981 E.87986
G1 X91.7 Y107.632 E.02365
G1 X108.168 Y124.1 E.84642
G1 X107.518 Y124.1 E.02365
G1 X91.7 Y108.282 E.81298
G1 X91.7 Y108.933 E.02365
G1 X106.867 Y124.1 E.77954
G1 X106.216 Y124.1 E.02365
M73 P18 R5
M73 P18 R5
G1 X91.7 Y109.584 E.7461
G1 X91.7 Y110.234 E.02365
G1 X105.566 Y124.1 E.71266
G1 X104.915 Y124.1 E.02365
G1 X91.7 Y110.885 E.67921
G1 X91.7 Y111.536 E.02365
G1 X104.264 Y124.1 E.64577
G1 X103.614 Y124.1 E.02365
G1 X91.7 Y112.186 E.61233
G1 X91.7 Y112.837 E.02365
G1 X102.963 Y124.1 E.57889
G1 X102.312 Y124.1 E.02365
G1 X91.7 Y113.488 E.54545
G1 X91.7 Y114.138 E.02365
G1 X101.662 Y124.1 E.51201
G1 X101.011 Y124.1 E.02365
G1 X91.7 Y114.789 E.47857
G1 X91.7 Y115.44 E.02365
G1 X100.36 Y124.1 E.44512
G1 X99.71 Y124.1 E.02365
G1 X91.7 Y116.09 E.41168
G1 X91.7 Y116.741 E.02365
M73 P19 R5
M73 P19 R5
G1 X99.059 Y124.1 E.37824
G1 X98.408 Y124.1 E.02365
G1 X91.7 Y117.392 E.3448
G1 X91.7 Y118.042 E.02365
G1 X97.758 Y124.1 E.31136
G1 X97.107 Y124.1 E.02365
G1 X91.7 Y118.693 E.27792
G1 X91.7 Y119.343 E.02365
G1 X96.457 Y124.1 E.24448
G1 X95.806 Y124.1 E.02365
G1 X91.7 Y119.994 E.21103
G1 X91.7 Y120.645 E.02365
G1 X95.155 Y124.1 E.17759
G1 X94.505 Y124.1 E.02365
G1 X91.7 Y121.295 E.14415
G1 X91.7 Y121.946 E.02365
G1 X93.854 Y124.1 E.11071
G1 X93.203 Y124.1 E.02365
G1 X91.7 Y122.597 E.07727
G1 X91.7 Y123.247 E.02365
G1 X92.553 Y124.1 E.04383
G3 X91.995 Y124.096 I-.253 J-3.542 E.02028
G1 X91.851 Y124.049 E.00551
G1 X91.494 Y123.692 E.01834
G1 E-1.2 F2400
;WIPE_START
G1 F9000
G1 X91.851 Y124.049
G1 X91.995 Y124.096
G1 X92.553 Y124.1
G1 X91.997 Y123.544
;WIPE_END
G1 X98.114 Y118.98 Z.6
G1 X128.414 Y96.373 Z.6
G1 Z.2
G1 E1.2 F1800
;TYPE:Gap infill
;WIDTH:0.366525
G1 X128.178 Y96.048 E.01027
G1 X127.89 Y95.802 E.00969
G1 E-1.2 F2400
;WIPE_START
G1 F9000
G1 X128.178 Y96.048
G1 X128.414 Y96.373
;WIPE_END
G1 X120.79 Y96.013 Z.6
G1 X116.214 Y95.796 Z.6
G1 Z.2
G1 E1.2 F1800
;WIDTH:0.0989108
G1 X116.071 Y95.892 E.00076
; stop printing object wled tapa_v4.STL id:2298572164864 copy 0
;TIME_ELAPSED:83.102791

M106 S255
;LAYER_CHANGE
;Z:0.4
;HEIGHT:0.2
;BEFORE_LAYER_CHANGE
;0.4
G92 E0

G1 E-1.2 F2400
;WIPE_START
G1 F9000
M73 P20 R5
M73 P20 R5
G1 X116.214 Y95.796
;WIPE_END
;_SET_FAN_SPEED_CHANGING_LAYER
M204 P2500
; printing object wled tapa_v4.STL id:2298572164864 copy 0
M204 T2500
G1 X123.846 Y95.72 Z.6
G1 X128.699 Y95.671 Z.6
G1 Z.4
G1 E1.2 F1800
M204 P2000
;TYPE:Inner wall
;WIDTH:0.449999
G1 F5400
G1 X128.847 Y95.925 E.00944
G1 X128.898 Y96.327 E.01304
G1 X128.898 Y123.776 E.88267
G1 X128.786 Y124.227 E.01494
G1 X128.523 Y124.52 E.01266
G1 X128.275 Y124.647 E.00896
G1 X127.953 Y124.698 E.0105
G1 X92.128 Y124.698 E1.15198
G1 X91.724 Y124.647 E.0131
G3 X91.153 Y124.075 I.357 J-.927 E.02675
G1 X91.102 Y123.753 E.0105
G1 X91.102 Y96.328 E.88187
G1 X91.153 Y95.924 E.0131
G3 X91.725 Y95.353 I.927 J.357 E.02675
G1 X92.047 Y95.302 E.0105
G1 X127.886 Y95.315 E1.15245
G1 X128.287 Y95.352 E.01295
G1 X128.649 Y95.585 E.01384
G1 X128.679 Y95.636 E.00193
G1 X128.578 Y95.048 F9000
M204 P1000
;TYPE:Outer wall
;WIDTH:0.419999
G1 F3600
G1 X128.977 Y95.365 E.0152
G1 X129.224 Y95.802 E.01495
G1 X129.29 Y96.327 E.01576
G1 X129.29 Y123.951 E.82282
G1 X129.096 Y124.472 E.01655
G1 X128.757 Y124.842 E.01495
G1 X128.398 Y125.024 E.012
G1 X127.983 Y125.09 E.0125
G1 X92.128 Y125.09 E1.06801
G1 X91.601 Y125.024 E.01581
G1 X91.244 Y124.842 E.01195
G1 X90.958 Y124.557 E.01202
G1 X90.776 Y124.198 E.012
G1 X90.71 Y123.783 E.0125
G1 X90.71 Y96.328 E.8178
G1 X90.776 Y95.801 E.01581
G1 X90.958 Y95.444 E.01195
G1 X91.243 Y95.158 E.01202
G1 X91.602 Y94.976 E.012
G1 X92.016 Y94.91 E.01249
G1 X128.143 Y94.923 E1.07609
G1 X128.539 Y95.037 E.01227
M73 P21 R5
M73 P21 R5
G1 E-1.2 F2400
;WIPE_START
G1 F9000
G1 X128.977 Y95.365
G1 X129.224 Y95.802
G1 X129.29 Y96.327
G1 X129.29 Y96.749
;WIPE_END
G1 Z.8
G1 X128.79 Y123.871
G1 Z.8
G1 Z.4
G1 E1.2 F1800
M204 P2500
;TYPE:Internal solid infill
;WIDTH:0.421522
G1 F10800
G1 X128.36 Y124.3 E.01817
G3 X127.931 Y124.428 I-.411 J-.596 E.01361
G1 X127.697 Y124.428 E.007
G1 X128.628 Y123.497 E.03936
G1 X128.628 Y122.962 E.01601
G1 X127.162 Y124.428 E.062
G1 X126.627 Y124.428 E.01601
G1 X128.628 Y122.427 E.08465
