;TIME:1369.55
;Filament used:2.48432m
;Layer height:0.200
; HEADER_BLOCK_START
; generated by Creality_Print V6.0.4.1793 on 2025-03-05 at 22:16:46
; total layer number: 90
; filament_density: 1.24
; filament_diameter: 1.75
; max_z_height: 18.00
; HEADER_BLOCK_END

; MINX = 90.50
; MINY = 93.70
; MINZ = 0.00
; MAXX = 129.50
; MAXY = 126.30
; MAXZ = 18.00

; THUMBNAIL_BLOCK_START

;
; THUMBNAIL_BLOCK_END

; THUMBNAIL_BLOCK_START

;
; THUMBNAIL_BLOCK_END

; external perimeters extrusion width = 0.42mm
; perimeters extrusion width = 0.45mm
; infill extrusion width = 0.45mm
; solid infill extrusion width = 0.42mm
; top infill extrusion width = 0.42mm
; first layer extrusion width = 0.50mm

; EXECUTABLE_BLOCK_START
M73 P0 R22
M201 X5000 Y5000 Z500 E5000
M203 X500 Y500 Z30 E100
M204 P5000 R2500 T5000 ; sets acceleration (P, T) and retract acceleration (R), mm/sec^2
M205 X10.00 Y10.00 Z0.40 E5.00 ; sets the jerk limits, mm/sec
;TYPE:Custom
M220 S100 ;Reset Feedrate 
M221 S100 ;Reset Flowrate 
 
M140 S60 ;Set final bed temp 
G28 ;Home 
 
G92 E0 ;Reset Extruder 
G1 Z2.0 F3000 ;Move Z Axis up 
M104 S205 ;Set final nozzle temp 
G1 X-2.1 Y20 Z0.28 F5000.0 ;Move to start position 
M190 S60 ;Wait for bed temp to stabilize 
M109 S205 ;Wait for nozzle temp to stabilize 
G1 X-2.1 Y145.0 Z0.28 F1500.0 E15 ;Draw the first line 
G1 X-2.4 Y145.0 Z0.28 F5000.0 ;Move to side a little 
G1 X-2.4 Y20 Z0.28 F1500.0 E30 ;Draw the second line 
G92 E0  ;Reset Extruder 
G1 E-1.0000 F1800 ;Retract a bit 
G1 Z2.0 F3000 ;Move Z Axis up 
G1 E0.0000 F1800
G90
G21
M83 ; use relative distances for extrusion
" "
G1 E-1.2 F2400
M106 S0
;LAYER_CHANGE
;Z:0.2
;HEIGHT:0.2
;BEFORE_LAYER_CHANGE
;0.2
G92 E0

;_SET_FAN_SPEED_CHANGING_LAYER
M204 P500
M205 X10 Y10
M204 T500
G1 Z.4 F9000
G1 X77.239 Y79.736
G1 Z.2
G1 E1.2 F1800
;TYPE:Skirt
;WIDTH:0.5
G1 F3000
G1 X80.153 Y77.642 E.12956
G1 X83.358 Y76.029 E.12956
G1 X86.547 Y74.993 E.12108
G1 X90.088 Y74.413 E.12955
G1 X92 Y74.329 E.06908
G1 X128 Y74.329 E1.29982
G1 X129.677 Y74.395 E.06059
G1 X133.204 Y74.933 E.12885
G1 X136.642 Y76.029 E.13027
G1 X139.848 Y77.642 E.12956
G1 X142.761 Y79.736 E.12955
G1 X145.312 Y82.26 E.12956
G1 X147.436 Y85.152 E.12956
G1 X149.081 Y88.341 E.12955
G1 X150.202 Y91.728 E.12884
G1 X150.787 Y95.289 E.13028
G1 X150.871 Y97.2 E.06908
G1 X150.871 Y124.8 E.99653
G1 X150.787 Y126.711 E.06908
M73 P1 R22
M73 P1 R22
G1 X150.262 Y130.024 E.12109
G1 X149.171 Y133.442 E.12955
G1 X147.558 Y136.647 E.12956
G1 X145.464 Y139.561 E.12955
G1 X142.94 Y142.111 E.12956
G1 X139.848 Y144.358 E.13802
G1 X136.859 Y145.881 E.1211
G1 X133.452 Y147.007 E.12955
G1 X129.677 Y147.605 E.13803
G1 X128 Y147.671 E.06059
G1 X92 Y147.671 E1.29982
G1 X90.089 Y147.587 E.06908
G1 X86.548 Y147.007 E.12956
G1 X83.141 Y145.881 E.12955
G1 X80.152 Y144.358 E.1211
G1 X77.239 Y142.264 E.12955
G1 X74.536 Y139.561 E.13802
G1 X72.441 Y136.647 E.12957
G1 X70.829 Y133.442 E.12955
G1 X69.793 Y130.252 E.12111
G1 X69.195 Y126.477 E.138
G1 X69.129 Y124.8 E.0606
G1 X69.129 Y97.2 E.99653
G1 X69.213 Y95.288 E.06909
G1 X69.792 Y91.749 E.1295
G1 X70.912 Y88.357 E.12896
G1 X72.441 Y85.353 E.12173
G1 X74.536 Y82.439 E.12957
G1 X77.21 Y79.764 E.13657
G1 X77.533 Y80.086 F9000
G1 F3000
G1 X77.536 Y80.083 E.00015
G1 X80.391 Y78.031 E.12697
G1 X83.533 Y76.451 E.12697
G1 X86.654 Y75.437 E.11849
G1 X90.124 Y74.869 E.12696
G1 X92 Y74.786 E.06779
G1 X128 Y74.786 E1.29982
G1 X129.641 Y74.85 E.05929
G1 X133.098 Y75.378 E.12627
G1 X136.467 Y76.451 E.12766
G1 X139.609 Y78.031 E.12697
G1 X142.464 Y80.083 E.12696
G1 X144.964 Y82.557 E.12697
G1 X147.046 Y85.391 E.12697
G1 X148.659 Y88.515 E.12696
G1 X149.814 Y92.065 E.13478
G1 X150.331 Y95.325 E.11915
G1 X150.414 Y97.2 E.06778
G1 X150.414 Y124.8 E.99653
G1 X150.331 Y126.675 E.06778
G1 X149.818 Y129.917 E.1185
G1 X148.749 Y133.267 E.12696
G1 X147.169 Y136.409 E.12697
G1 X145.117 Y139.264 E.12696
G1 X142.464 Y141.917 E.13544
G1 X139.609 Y143.969 E.12696
G1 X136.684 Y145.459 E.11851
G1 X133.117 Y146.618 E.13543
G1 X129.876 Y147.131 E.11849
G1 X128 Y147.214 E.06778
G1 X92 Y147.214 E1.29982
G1 X90.124 Y147.131 E.06778
G1 X86.654 Y146.563 E.12697
G1 X83.316 Y145.459 E.12696
G1 X80.391 Y143.969 E.11851
G1 X77.536 Y141.917 E.12696
G1 X74.883 Y139.265 E.13543
G1 X72.831 Y136.409 E.12698
G1 X71.251 Y133.267 E.12696
G1 X70.237 Y130.145 E.11852
G1 X69.65 Y126.441 E.13541
G1 X69.586 Y124.8 E.0593
G1 X69.586 Y97.2 E.99653
G1 X69.669 Y95.324 E.06779
G1 X70.237 Y91.856 E.12691
G1 X71.335 Y88.532 E.12638
G1 X72.831 Y85.592 E.11913
G1 X74.883 Y82.736 E.12698
G1 X77.504 Y80.114 E.13384
G1 X77.827 Y80.437 F9000
G1 F3000
G1 X77.832 Y80.431 E.0003
G1 X80.63 Y78.421 E.12438
G1 X83.708 Y76.874 E.12438
G1 X86.761 Y75.882 E.1159
G1 X90.16 Y75.324 E.12437
G1 X92 Y75.243 E.06649
G1 X128 Y75.243 E1.29982
G1 X129.605 Y75.306 E.058
G1 X132.992 Y75.822 E.12369
G1 X136.292 Y76.874 E.12506
G1 X139.37 Y78.421 E.12438
G1 X142.167 Y80.431 E.12437
G1 X144.616 Y82.854 E.12438
G1 X146.656 Y85.63 E.12438
G1 X148.236 Y88.69 E.12437
G1 X149.369 Y92.172 E.13221
G1 X149.876 Y95.36 E.11655
G1 X149.957 Y97.2 E.06649
G1 X149.957 Y124.8 E.99653
G1 X149.876 Y126.64 E.06648
G1 X149.373 Y129.81 E.11591
G1 X148.326 Y133.092 E.12438
G1 X146.779 Y136.17 E.12438
G1 X144.769 Y138.967 E.12437
G1 X142.168 Y141.569 E.13285
G1 X139.37 Y143.579 E.12437
G1 X136.509 Y145.037 E.11592
G1 X133.01 Y146.173 E.13284
G1 X129.84 Y146.676 E.1159
G1 X128 Y146.757 E.06649
G1 X92 Y146.757 E1.29982
G1 X90.16 Y146.676 E.06649
G1 X86.761 Y146.118 E.12438
G1 X83.491 Y145.036 E.12437
G1 X80.63 Y143.579 E.11592
G1 X77.832 Y141.569 E.12437
G1 X75.231 Y138.968 E.13284
G1 X73.221 Y136.17 E.12439
G1 X71.674 Y133.092 E.12437
G1 X70.681 Y130.039 E.11593
G1 X70.106 Y126.405 E.13282
G1 X70.043 Y124.8 E.05801
G1 X70.043 Y97.2 E.99653
G1 X70.124 Y95.36 E.0665
M73 P2 R22
M73 P2 R22
G1 X70.681 Y91.962 E.12432
G1 X71.757 Y88.707 E.1238
G1 X73.221 Y85.83 E.11652
G1 X75.231 Y83.032 E.12439
G1 X77.798 Y80.465 E.1311
; printing object wled_v3.STL id:6879355553188831488 copy 0
G1 E-1.2 F2400
;WIPE_START
G1 F9000
G1 X77.832 Y80.431
G1 X79.418 Y79.292
;WIPE_END
G1 X86.599 Y81.877 Z.6
G1 X128.593 Y96.989 Z.6
G1 Z.2
G1 E1.2 F1800
;TYPE:Inner wall
;WIDTH:0.499999
G1 X128.602 Y97.003 E.00061
G1 X128.643 Y97.32 E.01154
G1 X128.643 Y124.679 E.98783
G1 X128.595 Y124.993 E.01148
G1 X128.444 Y125.253 E.01084
G1 X128.285 Y125.357 E.0069
G1 X127.939 Y125.443 E.01286
G1 X92.121 Y125.443 E1.29324
G1 X91.807 Y125.395 E.01148
G1 X91.547 Y125.244 E.01084
G1 X91.443 Y125.085 E.0069
G1 X91.357 Y124.739 E.01286
G1 X91.357 Y97.321 E.98996
G1 X91.405 Y97.006 E.01147
G1 X91.556 Y96.747 E.01083
G1 X91.715 Y96.643 E.0069
G1 X92.061 Y96.557 E.01285
G1 X127.897 Y96.574 E1.2939
G1 X128.192 Y96.605 E.0107
G1 X128.453 Y96.756 E.01088
G1 X128.573 Y96.954 E.00838
G1 X128.498 Y96.223 F9000
;TYPE:Outer wall
G1 F1800
G1 X128.783 Y96.431 E.01274
G1 X129.042 Y96.86 E.0181
G1 X129.1 Y97.32 E.01674
G1 X129.1 Y124.815 E.99273
G1 X128.977 Y125.298 E.01799
G1 X128.711 Y125.633 E.01544
G1 X128.339 Y125.843 E.01543
G1 X127.975 Y125.9 E.01332
G1 X91.985 Y125.9 E1.29943
G1 X91.502 Y125.777 E.01799
G1 X91.167 Y125.511 E.01544
G1 X90.957 Y125.139 E.01543
G1 X90.9 Y124.775 E.01332
G1 X90.9 Y97.185 E.99614
G1 X91.023 Y96.702 E.01799
G1 X91.289 Y96.367 E.01544
G1 X91.661 Y96.157 E.01543
G1 X92.025 Y96.1 E.01332
G1 X128.17 Y96.117 E1.30505
G1 X128.46 Y96.211 E.01099
G1 E-1.2 F2400
;WIPE_START
G1 F9000
G1 X128.783 Y96.431
G1 X129.042 Y96.86
G1 X129.1 Y97.32
G1 X129.1 Y97.964
;WIPE_END
G1 Z.6
G1 X128.506 Y97.94
G1 Z.6
G1 Z.2
G1 E1.2 F1800
;TYPE:Bottom surface
;WIDTH:0.503129
G1 F4800
G1 X127.482 Y96.917 E.05264
G1 X126.831 Y96.916 E.02367
G1 X128.3 Y98.386 E.07554
G1 X128.3 Y99.036 E.02366
G1 X126.18 Y96.916 E.10901
G1 X125.529 Y96.916 E.02367
G1 X128.3 Y99.687 E.14249
G1 X128.3 Y100.338 E.02366
G1 X124.877 Y96.915 E.17597
G1 X124.226 Y96.915 E.02367
G1 X128.3 Y100.989 E.20944
G1 X128.3 Y101.64 E.02366
G1 X123.575 Y96.915 E.24292
G1 X122.924 Y96.914 E.02367
G1 X128.3 Y102.291 E.27639
G1 X128.3 Y102.941 E.02366
G1 X122.273 Y96.914 E.30987
G1 X121.622 Y96.914 E.02367
G1 X128.3 Y103.592 E.34335
G1 X128.3 Y104.243 E.02366
G1 X120.971 Y96.913 E.37682
G1 X120.319 Y96.913 E.02367
G1 X128.3 Y104.894 E.4103
G1 X128.3 Y105.545 E.02366
G1 X119.668 Y96.913 E.44377
G1 X119.017 Y96.913 E.02367
M73 P3 R22
M73 P3 R22
G1 X128.3 Y106.196 E.47725
G1 X128.3 Y106.846 E.02366
G1 X118.366 Y96.912 E.51072
G1 X117.715 Y96.912 E.02367
G1 X128.3 Y107.497 E.5442
G1 X128.3 Y108.148 E.02366
G1 X117.064 Y96.912 E.57768
G1 X116.413 Y96.911 E.02367
G1 X128.3 Y108.799 E.61115
G1 X128.3 Y109.45 E.02366
G1 X115.761 Y96.911 E.64463
G1 X115.11 Y96.911 E.02367
G1 X128.3 Y110.101 E.6781
G1 X128.3 Y110.751 E.02366
G1 X114.459 Y96.91 E.71158
G1 X113.808 Y96.91 E.02367
G1 X128.3 Y111.402 E.74506
G1 X128.3 Y112.053 E.02366
G1 X113.157 Y96.91 E.77853
G1 X112.506 Y96.91 E.02367
G1 X128.3 Y112.704 E.81201
G1 X128.3 Y113.355 E.02366
G1 X111.855 Y96.909 E.84548
G1 X111.203 Y96.909 E.02367
G1 X128.3 Y114.006 E.87896
G1 X128.3 Y114.656 E.02366
G1 X110.552 Y96.909 E.91243
G1 X109.901 Y96.908 E.02367
G1 X128.3 Y115.307 E.94591
G1 X128.3 Y115.958 E.02366
G1 X109.25 Y96.908 E.97939
G1 X108.599 Y96.908 E.02367
G1 X128.3 Y116.609 E1.01286
G1 X128.3 Y117.26 E.02366
G1 X107.948 Y96.907 E1.04634
G1 X107.297 Y96.907 E.02367
G1 X128.3 Y117.911 E1.07981
G1 X128.3 Y118.561 E.02366
G1 X106.646 Y96.907 E1.11329
G1 X105.994 Y96.906 E.02367
G1 X128.3 Y119.212 E1.14677
G1 X128.3 Y119.863 E.02366
M73 P3 R21
M73 P3 R21
G1 X105.343 Y96.906 E1.18024
G1 X104.692 Y96.906 E.02367
G1 X128.3 Y120.514 E1.21372
G1 X128.3 Y121.165 E.02366
G1 X104.041 Y96.906 E1.24719
G1 X103.39 Y96.905 E.02367
G1 X128.3 Y121.816 E1.28067
G1 X128.3 Y122.466 E.02366
G1 X102.739 Y96.905 E1.31414
G1 X102.088 Y96.905 E.02367
G1 X128.3 Y123.117 E1.34762
G1 X128.3 Y123.768 E.02366
G1 X101.436 Y96.904 E1.3811
G1 X100.785 Y96.904 E.02367
G1 X128.3 Y124.419 E1.41457
G1 X128.3 Y124.743 E.0118
M73 P4 R21
M73 P4 R21
G1 X128.253 Y124.933 E.00712
G1 X128.215 Y124.985 E.00232
G1 X100.134 Y96.904 E1.44369
G1 X99.483 Y96.903 E.02367
G1 X127.68 Y125.1 E1.44963
G1 X127.029 Y125.1 E.02366
G1 X98.832 Y96.903 E1.44964
G1 X98.181 Y96.903 E.02367
G1 X126.378 Y125.1 E1.44966
G1 X125.727 Y125.1 E.02366
G1 X97.53 Y96.902 E1.44967
G1 X96.878 Y96.902 E.02367
G1 X125.076 Y125.1 E1.44969
G1 X124.426 Y125.1 E.02366
G1 X96.227 Y96.902 E1.44971
G1 X95.576 Y96.902 E.02367
G1 X123.775 Y125.1 E1.44972
G1 X123.124 Y125.1 E.02366
G1 X94.925 Y96.901 E1.44974
G1 X94.274 Y96.901 E.02367
G1 X122.473 Y125.1 E1.44975
G1 X121.822 Y125.1 E.02366
G1 X93.623 Y96.901 E1.44977
G1 X92.972 Y96.9 E.02367
G1 X121.171 Y125.1 E1.44978
G1 X120.521 Y125.1 E.02366
G1 X92.32 Y96.9 E1.4498
G2 X91.91 Y96.928 I-.097 J1.585 E.01502
G2 X91.785 Y97.015 I.022 J.166 E.00574
G1 X119.87 Y125.1 E1.44389
G1 X119.219 Y125.1 E.02366
G1 X91.7 Y97.581 E1.41478
G1 X91.7 Y98.232 E.02366
G1 X118.568 Y125.1 E1.38132
G1 X117.917 Y125.1 E.02366
G1 X91.7 Y98.883 E1.34786
G1 X91.7 Y99.534 E.02366
G1 X117.266 Y125.1 E1.3144
G1 X116.616 Y125.1 E.02366
G1 X91.7 Y100.184 E1.28094
G1 X91.7 Y100.835 E.02366
G1 X115.965 Y125.1 E1.24748
G1 X115.314 Y125.1 E.02366
G1 X91.7 Y101.486 E1.21402
G1 X91.7 Y102.137 E.02366
M73 P5 R21
M73 P5 R21
G1 X114.663 Y125.1 E1.18056
G1 X114.012 Y125.1 E.02366
G1 X91.7 Y102.788 E1.1471
G1 X91.7 Y103.439 E.02366
G1 X113.361 Y125.1 E1.11364
G1 X112.711 Y125.1 E.02366
G1 X91.7 Y104.089 E1.08018
G1 X91.7 Y104.74 E.02366
G1 X112.06 Y125.1 E1.04672
G1 X111.409 Y125.1 E.02366
G1 X91.7 Y105.391 E1.01326
G1 X91.7 Y106.042 E.02366
G1 X110.758 Y125.1 E.9798
G1 X110.107 Y125.1 E.02366
G1 X91.7 Y106.693 E.94634
G1 X91.7 Y107.344 E.02366
G1 X109.456 Y125.1 E.91288
G1 X108.806 Y125.1 E.02366
G1 X91.7 Y107.994 E.87942
G1 X91.7 Y108.645 E.02366
G1 X108.155 Y125.1 E.84596
G1 X107.504 Y125.1 E.02366
G1 X91.7 Y109.296 E.8125
G1 X91.7 Y109.947 E.02366
G1 X106.853 Y125.1 E.77904
G1 X106.202 Y125.1 E.02366
G1 X91.7 Y110.598 E.74558
G1 X91.7 Y111.249 E.02366
G1 X105.551 Y125.1 E.71212
G1 X104.901 Y125.1 E.02366
G1 X91.7 Y111.899 E.67866
G1 X91.7 Y112.55 E.02366
G1 X104.25 Y125.1 E.6452
G1 X103.599 Y125.1 E.02366
G1 X91.7 Y113.201 E.61174
G1 X91.7 Y113.852 E.02366
G1 X102.948 Y125.1 E.57828
G1 X102.297 Y125.1 E.02366
G1 X91.7 Y114.503 E.54482
G1 X91.7 Y115.154 E.02366
G1 X101.646 Y125.1 E.51136
G1 X100.995 Y125.1 E.02366
G1 X91.7 Y115.805 E.4779
G1 X91.7 Y116.455 E.02366
G1 X100.345 Y125.1 E.44444
G1 X99.694 Y125.1 E.02366
G1 X91.7 Y117.106 E.41098
G1 X91.7 Y117.757 E.02366
G1 X99.043 Y125.1 E.37752
G1 X98.392 Y125.1 E.02366
G1 X91.7 Y118.408 E.34406
G1 X91.7 Y119.059 E.02366
G1 X97.741 Y125.1 E.3106
G1 X97.09 Y125.1 E.02366
G1 X91.7 Y119.71 E.27714
G1 X91.7 Y120.36 E.02366
G1 X96.44 Y125.1 E.24368
G1 X95.789 Y125.1 E.02366
G1 X91.7 Y121.011 E.21022
G1 X91.7 Y121.662 E.02366
G1 X95.138 Y125.1 E.17676
G1 X94.487 Y125.1 E.02366
G1 X91.7 Y122.313 E.1433
G1 X91.7 Y122.964 E.02366
G1 X93.836 Y125.1 E.10984
G1 X93.185 Y125.1 E.02366
G1 X91.7 Y123.615 E.07638
G1 X91.7 Y124.265 E.02366
G1 X92.74 Y125.306 E.05349
G1 X92.129 Y125.214 F9000
;TYPE:Gap infill
;WIDTH:0.374929
G1 F1800
G3 X91.586 Y124.627 I.951 J-1.425 E.02117
G1 E-1.2 F2400
;WIPE_START
G1 F9000
G1 X91.822 Y124.952
G1 X92.129 Y125.214
;WIPE_END
G1 X98.184 Y120.568 Z.6
G1 X128.414 Y97.373 Z.6
G1 Z.2
G1 E1.2 F1800
;WIDTH:0.36679
G1 X128.178 Y97.048 E.01027
M73 P6 R21
M73 P6 R21
G1 X127.891 Y96.802 E.00967
G1 E-1.2 F2400
;WIPE_START
G1 F9000
G1 X128.178 Y97.048
G1 X128.414 Y97.373
;WIPE_END
G1 X120.783 Y97.241 Z.6
G1 X96.661 Y96.825 Z.6
G1 Z.2
G1 E1.2 F1800
;WIDTH:0.116649
G1 X96.475 Y96.825 E.00108
; stop printing object wled_v3.STL id:6879355553188831488 copy 0
;TIME_ELAPSED:83.115059

M106 S255
;LAYER_CHANGE
;Z:0.4
;HEIGHT:0.2
;BEFORE_LAYER_CHANGE
;0.4
G92 E0

G1 E-1.2 F2400
;WIPE_START
G1 F9000
G1 X96.661 Y96.825
;WIPE_END
;_SET_FAN_SPEED_CHANGING_LAYER
M204 P2500
; printing object wled_v3.STL id:6879355553188831488 copy 0
M204 T2500
G1 X102.368 Y101.893 Z.6
G1 X128.717 Y125.293 Z.6
G1 Z.4
G1 E1.2 F1800
M204 P2000
;TYPE:Inner wall
;WIDTH:0.449999
G1 F5400
G1 X128.615 Y125.449 E.00599
G1 X128.275 Y125.647 E.01266
G1 X127.953 Y125.698 E.0105
G1 X92.128 Y125.698 E1.15198
G1 X91.727 Y125.647 E.013
G3 X91.153 Y125.075 I.352 J-.926 E.02685
G1 X91.102 Y124.753 E.0105
G1 X91.102 Y97.328 E.88187
G1 X91.153 Y96.924 E.0131
G3 X91.725 Y96.353 I.927 J.357 E.02675
G1 X92.047 Y96.302 E.0105
G1 X128.136 Y96.32 E1.16048
G1 X128.405 Y96.407 E.00909
G1 X128.649 Y96.585 E.00971
G1 X128.847 Y96.925 E.01266
G1 X128.898 Y97.327 E.01302
G1 X128.898 Y124.672 E.87932
G1 X128.843 Y125.099 E.01385
G1 X128.739 Y125.26 E.00616
G1 X129.263 Y124.931 F9000
M204 P1000
;TYPE:Outer wall
;WIDTH:0.419999
G1 F3600
G1 X129.256 Y124.999 E.00203
G3 X129.152 Y125.378 I-2.171 J-.392 E.01171
G1 X128.835 Y125.777 E.0152
G1 X128.398 Y126.024 E.01495
G1 X127.983 Y126.09 E.0125
G1 X92.128 Y126.09 E1.06802
G1 X91.605 Y126.025 E.01569
G1 X91.244 Y125.842 E.01206
G1 X90.958 Y125.557 E.01202
G1 X90.776 Y125.198 E.012
G1 X90.71 Y124.783 E.0125
G1 X90.71 Y97.328 E.8178
G1 X90.776 Y96.801 E.01581
G1 X90.958 Y96.444 E.01195
G1 X91.243 Y96.158 E.01202
G1 X91.602 Y95.976 E.012
G1 X92.016 Y95.91 E.01249
G1 X128.198 Y95.928 E1.07771
G1 X128.585 Y96.053 E.01211
G1 X128.977 Y96.365 E.01494
G1 X129.224 Y96.802 E.01495
G1 X129.29 Y97.327 E.01574
G1 X129.29 Y124.672 E.81452
G1 X129.267 Y124.891 E.00658
G1 E-1.2 F2400
;WIPE_START
G1 F9000
G1 X129.256 Y124.999
G1 X129.152 Y125.378
G1 X128.835 Y125.777
G1 X128.398 Y126.024
G1 X127.983 Y126.09
G1 X127.916 Y126.09
;WIPE_END
G1 Z.8
G1 X127.585 Y125.598
G1 Z.8
G1 Z.4
G1 E1.2 F1800
M204 P2500
;TYPE:Internal solid infill
;WIDTH:0.421853
G1 F10800
G1 X128.628 Y124.554 E.04416
G1 X128.628 Y124.018 E.01604
G1 X127.218 Y125.428 E.05967
G1 X126.683 Y125.428 E.01604
G1 X128.628 Y123.483 E.08235
G1 X128.628 Y122.947 E.01604
G1 X126.147 Y125.428 E.10504
G1 X125.611 Y125.428 E.01604
G1 X128.628 Y122.411 E.12772
G1 X128.628 Y121.875 E.01604
G1 X125.075 Y125.428 E.15041
G1 X124.539 Y125.428 E.01604
