;TIME:1567.56
;Filament used:1.40938m
;Layer height:0.200
; HEADER_BLOCK_START
; generated by Creality_Print V6.1.0.2041 on 2025-04-09 at 13:38:01
; total layer number: 178
; filament_density: 1.24
; filament_diameter: 1.75
; max_z_height: 35.90
; HEADER_BLOCK_END

; MINX = 80.40
; MINY = 105.40
; MINZ = 0.00
; MAXX = 139.60
; MAXY = 114.60
; MAXZ = 35.00

; THUMBNAIL_BLOCK_START

;
; THUMBNAIL_BLOCK_END

; THUMBNAIL_BLOCK_START

;
; THUMBNAIL_BLOCK_END

; external perimeters extrusion width = 0.42mm
; perimeters extrusion width = 0.45mm
; infill extrusion width = 0.45mm
; solid infill extrusion width = 0.42mm
; top infill extrusion width = 0.42mm
; support material extrusion width = 0.40mm
; first layer extrusion width = 0.50mm

; EXECUTABLE_BLOCK_START
M73 P0 R26
M201 X5000 Y5000 Z500 E5000
M203 X500 Y500 Z30 E100
M204 P5000 R2500 T5000 ; sets acceleration (P, T) and retract acceleration (R), mm/sec^2
M205 X10.00 Y10.00 Z0.40 E5.00 ; sets the jerk limits, mm/sec
;TYPE:Custom
M220 S100 ;Reset Feedrate 
M221 S100 ;Reset Flowrate 
 
M140 S60 ;Set final bed temp 
G28 ;Home 
 
G92 E0 ;Reset Extruder 
G1 Z2.0 F3000 ;Move Z Axis up 
M104 S205 ;Set final nozzle temp 
G1 X-2.1 Y20 Z0.28 F5000.0 ;Move to start position 
M190 S60 ;Wait for bed temp to stabilize 
M109 S205 ;Wait for nozzle temp to stabilize 
G1 X-2.1 Y145.0 Z0.28 F1500.0 E15 ;Draw the first line 
G1 X-2.4 Y145.0 Z0.28 F5000.0 ;Move to side a little 
G1 X-2.4 Y20 Z0.28 F1500.0 E30 ;Draw the second line 
G92 E0  ;Reset Extruder 
G1 E-1.0000 F1800 ;Retract a bit 
M73 P0 R25
M73 P0 R25
G1 Z2.0 F3000 ;Move Z Axis up 
G1 E0.0000 F1800
G90
G21
M83 ; use relative distances for extrusion
" "
G1 E-1.2 F2400
M106 S0
;LAYER_CHANGE
;Z:0.2
;HEIGHT:0.2
;BEFORE_LAYER_CHANGE
;0.2
G92 E0

;_SET_FAN_SPEED_CHANGING_LAYER
M204 P500
M205 X10 Y10
M204 T500
G1 Z.4 F9000
G1 X68.603 Y84.621
G1 Z.2
G1 E1.2 F1800
;TYPE:Skirt
;WIDTH:0.5
G1 F3000
G1 X72.237 Y82.659 E.14912
G1 X76.181 Y81.432 E.14912
G1 X80.526 Y80.986 E.15771
G1 X139.474 Y80.986 E2.12839
G1 X143.585 Y81.385 E.14912
G1 X147.542 Y82.567 E.14912
G1 X151.198 Y84.489 E.14912
G1 X154.586 Y87.246 E.15771
G1 X158.468 Y91.128 E.19823
G1 X161.093 Y94.317 E.14912
G1 X163.055 Y97.951 E.14912
G1 X164.281 Y101.894 E.14912
G1 X164.728 Y106.24 E.15771
G1 X164.728 Y113.76 E.27155
G1 X164.329 Y117.871 E.14912
G1 X163.146 Y121.828 E.14912
G1 X161.225 Y125.484 E.14912
G1 X158.468 Y128.872 E.15771
G1 X154.586 Y132.754 E.19823
G1 X151.397 Y135.379 E.14912
G1 X147.763 Y137.341 E.14912
G1 X143.819 Y138.568 E.14912
G1 X139.474 Y139.014 E.15771
G1 X80.526 Y139.014 E2.12839
G1 X76.415 Y138.615 E.14912
M73 P1 R25
M73 P1 R25
G1 X72.458 Y137.433 E.14912
G1 X68.802 Y135.511 E.14912
G1 X65.414 Y132.754 E.15771
G1 X61.532 Y128.872 E.19823
G1 X58.907 Y125.683 E.14912
G1 X56.945 Y122.049 E.14912
G1 X55.719 Y118.106 E.14912
G1 X55.272 Y113.76 E.15771
G1 X55.272 Y106.24 E.27155
G1 X55.671 Y102.129 E.14912
G1 X56.854 Y98.172 E.14912
G1 X58.775 Y94.516 E.14912
G1 X61.532 Y91.128 E.15771
G1 X65.414 Y87.246 E.19823
G1 X68.572 Y84.646 E.14767
G1 X68.863 Y85.001 F9000
G1 F3000
G1 X68.894 Y84.976 E.00145
G1 X72.496 Y83.046 E.14751
G1 X76.403 Y81.854 E.14751
G1 X80.526 Y81.443 E.14959
G1 X139.474 Y81.443 E2.12839
G1 X143.54 Y81.842 E.14751
G1 X147.451 Y83.024 E.14751
G1 X151.057 Y84.944 E.14751
G1 X154.263 Y87.569 E.14959
G1 X158.145 Y91.451 E.19823
G1 X160.738 Y94.608 E.14751
G1 X162.668 Y98.209 E.14751
G1 X163.86 Y102.117 E.14751
G1 X164.271 Y106.24 E.14959
G1 X164.271 Y113.76 E.27155
G1 X163.872 Y117.826 E.14751
G1 X162.69 Y121.737 E.14751
G1 X160.77 Y125.344 E.14751
G1 X158.145 Y128.549 E.14959
G1 X154.263 Y132.431 E.19823
G1 X151.106 Y135.024 E.14751
G1 X147.504 Y136.954 E.14751
G1 X143.597 Y138.146 E.14751
G1 X139.474 Y138.557 E.14959
G1 X80.526 Y138.557 E2.12839
G1 X76.46 Y138.158 E.14751
G1 X72.549 Y136.976 E.14751
G1 X68.943 Y135.056 E.14751
G1 X65.737 Y132.431 E.14959
G1 X61.855 Y128.549 E.19823
G1 X59.262 Y125.392 E.14751
G1 X57.333 Y121.791 E.14751
G1 X56.14 Y117.883 E.14751
G1 X55.729 Y113.76 E.14959
G1 X55.729 Y106.24 E.27155
G1 X56.128 Y102.174 E.14751
G1 X57.31 Y98.263 E.14751
G1 X59.23 Y94.656 E.14751
G1 X61.855 Y91.451 E.14959
G1 X65.737 Y87.569 E.19823
G1 X68.833 Y85.027 E.14462
G1 X69.124 Y85.382 F9000
G1 F3000
G1 X69.186 Y85.331 E.0029
G1 X72.753 Y83.434 E.14589
G1 X76.624 Y82.276 E.14589
G1 X80.526 Y81.9 E.14152
G1 X139.474 Y81.9 E2.12839
G1 X143.495 Y82.299 E.14589
G1 X147.359 Y83.481 E.14589
G1 X150.915 Y85.399 E.14589
G1 X153.94 Y87.892 E.14152
G1 X157.822 Y91.774 E.19823
G1 X160.383 Y94.899 E.14589
G1 X162.279 Y98.467 E.14589
G1 X163.438 Y102.338 E.14589
G1 X163.814 Y106.24 E.14152
G1 X163.814 Y113.76 E.27155
G1 X163.414 Y117.781 E.14589
G1 X162.233 Y121.645 E.14589
G1 X160.315 Y125.201 E.14589
G1 X157.822 Y128.226 E.14152
G1 X153.94 Y132.108 E.19823
G1 X150.814 Y134.669 E.14589
G1 X147.247 Y136.566 E.14589
G1 X143.376 Y137.724 E.14589
G1 X139.474 Y138.1 E.14152
G1 X80.526 Y138.1 E2.12839
G1 X76.505 Y137.701 E.14589
G1 X72.641 Y136.519 E.14589
G1 X69.085 Y134.601 E.14589
G1 X66.06 Y132.108 E.14152
G1 X62.178 Y128.226 E.19823
G1 X59.617 Y125.101 E.14589
G1 X57.721 Y121.533 E.14589
G1 X56.562 Y117.662 E.14589
G1 X56.187 Y113.76 E.14152
G1 X56.187 Y106.24 E.27155
G1 X56.586 Y102.219 E.14589
G1 X57.767 Y98.355 E.14589
G1 X59.685 Y94.799 E.14589
G1 X62.178 Y91.774 E.14152
G1 X66.06 Y87.892 E.19823
G1 X69.093 Y85.407 E.14154
; printing object ZhopTest.stl id:0 copy 0
G1 E-1.2 F2400
;WIPE_START
G1 F3000
G1 X69.186 Y85.331
G1 X70.845 Y84.449
;WIPE_END
G1 X76.531 Y89.54 Z.6 F9000
G1 X91.429 Y102.882 Z.6
G1 Z.2
G1 E1.2 F1800
;TYPE:Support
G1 X91.954 Y102.357 E.02681
G1 X102.332 Y102.357 E.37471
G1 X103.357 Y103.382 E.05234
G1 X103.357 Y105.214 E.06614
G1 X105.214 Y105.214 E.06705
G1 X105.214 Y103.382 E.06614
G1 X106.24 Y102.357 E.05234
G1 X113.761 Y102.357 E.27155
G1 X114.786 Y103.382 E.05234
G1 X114.786 Y105.214 E.06614
G1 X116.643 Y105.214 E.06705
G1 X116.643 Y103.382 E.06614
G1 X117.668 Y102.357 E.05234
G1 X128.046 Y102.357 E.37471
M73 P2 R25
M73 P2 R25
G1 X128.571 Y102.882 E.02681
G1 X129.096 Y102.357 E.02681
G1 X139.474 Y102.357 E.37471
G1 X140.499 Y103.382 E.05234
G1 X140.499 Y105.214 E.06614
G1 X142.331 Y105.214 E.06614
G1 X143.356 Y106.24 E.05234
G1 X143.356 Y113.76 E.27155
G1 X142.331 Y114.786 E.05234
G1 X140.499 Y114.786 E.06614
G1 X140.499 Y116.618 E.06614
G1 X139.474 Y117.643 E.05234
G1 X129.096 Y117.643 E.37471
G1 X128.571 Y117.118 E.02681
G1 X128.046 Y117.643 E.02681
G1 X117.668 Y117.643 E.37471
G1 X116.643 Y116.618 E.05234
G1 X116.643 Y114.786 E.06614
G1 X114.786 Y114.786 E.06705
G1 X114.786 Y116.618 E.06614
G1 X113.761 Y117.643 E.05234
G1 X106.24 Y117.643 E.27155
G1 X105.214 Y116.618 E.05234
G1 X105.214 Y114.786 E.06614
G1 X103.357 Y114.786 E.06705
G1 X103.357 Y116.618 E.06614
G1 X102.332 Y117.643 E.05234
G1 X91.954 Y117.643 E.37471
G1 X91.429 Y117.118 E.02681
G1 X90.904 Y117.643 E.02681
G1 X80.526 Y117.643 E.37471
G1 X79.501 Y116.618 E.05234
G1 X79.501 Y114.786 E.06614
G1 X77.669 Y114.786 E.06614
G1 X76.644 Y113.76 E.05234
G1 X76.644 Y106.24 E.27155
G1 X77.669 Y105.214 E.05234
G1 X79.501 Y105.214 E.06614
G1 X79.501 Y103.382 E.06614
G1 X80.526 Y102.357 E.05234
G1 X90.904 Y102.357 E.37471
G1 X91.381 Y102.834 E.02434
G1 E-1.2 F2400
;WIPE_START
G1 F1800
G1 X90.904 Y102.357
G1 X89.578 Y102.357
;WIPE_END
G1 X97.21 Y102.46 Z.6 F9000
G1 X129.145 Y102.89 Z.6
G1 Z.2
G1 E1.2 F1800
G1 X139.425 Y102.89 E.37116
G1 X139.933 Y103.398 E.02593
G1 X128.637 Y103.398 E.40783
G1 E-1.2 F2400
;WIPE_START
G1 F1800
G1 X130.637 Y103.398
;WIPE_END
G1 X123.011 Y103.098 Z.6 F9000
G1 X117.717 Y102.89 Z.6
G1 Z.2
G1 E1.2 F1800
G1 X127.997 Y102.89 E.37116
G1 X128.505 Y103.398 E.02593
G1 X117.209 Y103.398 E.40783
G2 X117.054 Y103.906 I.176 J.331 E.0213
G1 X140.088 Y103.906 E.83166
G1 X140.088 Y104.413 E.01834
G1 X117.054 Y104.413 E.83166
G1 X117.054 Y104.921 E.01834
G1 X140.088 Y104.921 E.83166
G1 X140.088 Y105.429 E.01834
G1 X117.054 Y105.429 E.83166
G1 E-1.2 F2400
;WIPE_START
G1 F1800
G1 X119.054 Y105.429
;WIPE_END
G1 X111.568 Y103.94 Z.6 F9000
G1 X106.289 Y102.89 Z.6
G1 Z.2
G1 E1.2 F1800
G1 X113.711 Y102.89 E.268
G1 X114.219 Y103.398 E.02593
G1 X105.781 Y103.398 E.30468
G2 X105.626 Y103.906 I.176 J.331 E.0213
G1 X114.374 Y103.906 E.31587
G1 X114.374 Y104.413 E.01834
G1 X105.626 Y104.413 E.31587
G1 X105.626 Y104.921 E.01834
G1 X114.374 Y104.921 E.31587
G1 X114.374 Y105.429 E.01834
G1 X105.626 Y105.429 E.31587
G1 E-1.2 F2400
;WIPE_START
G1 F1800
G1 X107.626 Y105.429
;WIPE_END
G1 X100.092 Y104.205 Z.6 F9000
G1 X92.003 Y102.89 Z.6
G1 Z.2
G1 E1.2 F1800
G1 X102.283 Y102.89 E.37116
M73 P3 R25
M73 P3 R25
G1 X102.791 Y103.398 E.02593
G1 X91.495 Y103.398 E.40783
G1 E-1.2 F2400
;WIPE_START
G1 F1800
G1 X93.495 Y103.398
;WIPE_END
G1 X85.869 Y103.098 Z.6 F9000
G1 X80.575 Y102.89 Z.6
G1 Z.2
G1 E1.2 F1800
G1 X90.855 Y102.89 E.37116
G1 X91.363 Y103.398 E.02593
G1 X80.067 Y103.398 E.40783
G2 X79.912 Y103.906 I.176 J.331 E.0213
G1 X102.946 Y103.906 E.83166
G1 X102.946 Y104.413 E.01834
G1 X79.912 Y104.413 E.83166
G1 X79.912 Y104.921 E.01834
G1 X102.946 Y104.921 E.83166
G1 X102.946 Y105.429 E.01834
G1 X79.912 Y105.429 E.83166
G1 E-1.2 F2400
;WIPE_START
G1 F1800
G1 X81.912 Y105.429
;WIPE_END
G1 X89.461 Y106.555 Z.6 F9000
G1 X141.887 Y114.374 Z.6
G1 Z.2
G1 E1.2 F1800
G2 X142.472 Y114.063 I.137 J-.448 E.02658
G1 X77.528 Y114.063 E2.34489
G1 X77.055 Y113.555 E.02505
G1 X142.945 Y113.555 E2.37903
G1 X142.945 Y113.047 E.01834
G1 X77.055 Y113.047 E2.37903
G1 X77.055 Y112.539 E.01834
G1 X142.945 Y112.539 E2.37903
G1 X142.945 Y112.031 E.01834
M73 P4 R25
M73 P4 R25
G1 X77.055 Y112.031 E2.37903
G1 X77.055 Y111.524 E.01834
G1 X142.945 Y111.524 E2.37903
G1 X142.945 Y111.016 E.01834
G1 X77.055 Y111.016 E2.37903
G1 X77.055 Y110.508 E.01834
M73 P4 R24
M73 P4 R24
G1 X142.945 Y110.508 E2.37903
G1 X142.945 Y110 E.01834
G1 X77.055 Y110 E2.37903
G1 X77.055 Y109.492 E.01834
G1 X142.945 Y109.492 E2.37903
G1 X142.945 Y108.984 E.01834
G1 X77.055 Y108.984 E2.37903
G1 X77.055 Y108.476 E.01834
M73 P5 R24
M73 P5 R24
G1 X142.945 Y108.476 E2.37903
G1 X142.945 Y107.969 E.01834
G1 X77.055 Y107.969 E2.37903
G1 X77.055 Y107.461 E.01834
G1 X142.945 Y107.461 E2.37903
G1 X142.945 Y106.953 E.01834
G1 X77.055 Y106.953 E2.37903
G1 X77.055 Y106.445 E.01834
G1 X142.945 Y106.445 E2.37903
G1 X142.472 Y105.937 E.02505
G1 X77.528 Y105.937 E2.34488
G3 X78.113 Y105.626 I.448 J.137 E.02658
G1 E-1.2 F2400
;WIPE_START
G1 F1800
G1 X77.839 Y105.626
G1 X77.528 Y105.937
G1 X78.814 Y105.937
;WIPE_END
G1 X86.259 Y107.618 Z.6 F9000
G1 X117.054 Y114.571 Z.6
G1 Z.2
G1 E1.2 F1800
G1 X140.088 Y114.571 E.83166
G1 X140.088 Y115.079 E.01834
G1 X117.054 Y115.079 E.83166
G1 X117.054 Y115.587 E.01834
M73 P6 R24
M73 P6 R24
G1 X140.088 Y115.587 E.83166
G1 X140.088 Y116.094 E.01834
G1 X117.054 Y116.094 E.83166
G2 X117.209 Y116.602 I.331 J.176 E.0213
G1 X128.505 Y116.602 E.40783
G1 X127.997 Y117.11 E.02593
G1 X117.717 Y117.11 E.37116
G1 E-1.2 F2400
;WIPE_START
G1 F1800
G1 X119.717 Y117.11
;WIPE_END
G1 X112.206 Y115.757 Z.6 F9000
G1 X105.626 Y114.571 Z.6
G1 Z.2
G1 E1.2 F1800
G1 X114.374 Y114.571 E.31587
G1 X114.374 Y115.079 E.01834
G1 X105.626 Y115.079 E.31587
G1 X105.626 Y115.587 E.01834
G1 X114.374 Y115.587 E.31587
G1 X114.374 Y116.094 E.01834
G1 X105.626 Y116.094 E.31587
G2 X105.781 Y116.602 I.331 J.176 E.0213
G1 X114.219 Y116.602 E.30468
G1 X113.711 Y117.11 E.02593
G1 X106.289 Y117.11 E.268
G1 E-1.2 F2400
;WIPE_START
G1 F1800
G1 X108.289 Y117.11
;WIPE_END
G1 X100.687 Y116.43 Z.6 F9000
G1 X79.912 Y114.571 Z.6
G1 Z.2
G1 E1.2 F1800
G1 X102.946 Y114.571 E.83166
G1 X102.946 Y115.079 E.01834
G1 X79.912 Y115.079 E.83166
G1 X79.912 Y115.587 E.01834
G1 X102.946 Y115.587 E.83166
G1 X102.946 Y116.094 E.01834
G1 X79.912 Y116.094 E.83166
G2 X80.067 Y116.602 I.331 J.176 E.0213
G1 X91.363 Y116.602 E.40783
G1 X90.855 Y117.11 E.02593
G1 X80.575 Y117.11 E.37116
G1 E-1.2 F2400
;WIPE_START
G1 F1800
G1 X82.575 Y117.11
;WIPE_END
G1 X90.207 Y117.026 Z.6 F9000
G1 X128.637 Y116.602 Z.6
G1 Z.2
G1 E1.2 F1800
G1 X139.933 Y116.602 E.40783
G1 X139.425 Y117.11 E.02593
G1 X129.145 Y117.11 E.37116
G1 E-1.2 F2400
;WIPE_START
G1 F1800
G1 X131.145 Y117.11
;WIPE_END
G1 X123.514 Y117.012 Z.6 F9000
G1 X91.495 Y116.602 Z.6
G1 Z.2
G1 E1.2 F1800
G1 X102.791 Y116.602 E.40783
G1 X102.283 Y117.11 E.02593
G1 X92.003 Y117.11 E.37116
; stop printing object ZhopTest.stl id:0 copy 0
G1 E-1.2 F2400
;WIPE_START
G1 F1800
G1 X94.003 Y117.11
;WIPE_END
;TIME_ELAPSED:108.844643

M106 S255
;LAYER_CHANGE
;Z:0.5
;HEIGHT:0.3
;BEFORE_LAYER_CHANGE
;0.5
G92 E0

;_SET_FAN_SPEED_CHANGING_LAYER
M204 P2500
; printing object ZhopTest.stl id:0 copy 0
M204 T2500
G1 Z.6 F9000
G1 X92.358 Y115.566
G1 Z.5
G1 E1.2 F1800
;TYPE:Support interface
;WIDTH:0.4
G1 F4800
G2 X93.184 Y116.214 I.512 J.198 E.05569
G1 X92.358 Y115.387 E.0465
G1 X92.358 Y114.175 E.0482
G1 X94.396 Y116.214 E.11467
G1 X95.609 Y116.214 E.0482
G1 X92.358 Y112.963 E.18284
G1 X92.358 Y111.751 E.0482
G1 X96.821 Y116.214 E.25101
G1 X98.033 Y116.214 E.0482
G1 X92.358 Y110.539 E.31917
G1 X92.358 Y109.327 E.0482
G1 X99.245 Y116.214 E.38734
G1 X100.457 Y116.214 E.0482
M73 P7 R24
M73 P7 R24
G1 X92.358 Y108.115 E.45551
G1 X92.358 Y106.903 E.0482
G1 X101.669 Y116.214 E.52368
G1 X101.929 Y116.026 E.01276
G1 X101.929 Y115.262 E.03038
G1 X92.358 Y105.691 E.53828
G1 X92.358 Y104.478 E.0482
G1 X101.929 Y114.05 E.53828
G1 X101.929 Y113.357 E.02754
G1 X102.448 Y113.357 E.02066
G1 X92.877 Y103.786 E.53828
G1 X94.089 Y103.786 E.0482
G1 X103.66 Y113.357 E.53828
G1 X104.872 Y113.357 E.0482
G1 X95.301 Y103.786 E.53828
G1 X96.513 Y103.786 E.0482
G1 X106.085 Y113.357 E.53828
G1 X106.643 Y113.357 E.02221
G1 X106.643 Y113.915 E.02221
G1 X108.942 Y116.214 E.12928
G1 X107.73 Y116.214 E.0482
G1 X106.643 Y115.128 E.06111
G1 X106.643 Y114.094 E.0411
G1 E-1.2 F2400
;WIPE_START
G1 F4800
G1 X106.643 Y115.128
G1 X107.326 Y115.811
;WIPE_END
G1 X106.643 Y115.306 Z.9 F9000
G1 Z.5
G1 E1.2 F1800
G1 F4800
G1 X106.643 Y116.026 E.02862
G1 X106.831 Y116.214 E.01059
G1 X107.551 Y116.214 E.02862
G1 E-1.2 F2400
;WIPE_START
G1 F4800
G1 X106.831 Y116.214
G1 X106.643 Y116.026
G1 X106.643 Y115.306
;WIPE_END
G1 X109.12 Y116.214 Z.9 F9000
G1 Z.5
G1 E1.2 F1800
G1 F4800
G1 X110.154 Y116.214 E.0411
G1 X97.725 Y103.786 E.69896
G1 X98.937 Y103.786 E.0482
G1 X111.366 Y116.214 E.69896
G1 X112.578 Y116.214 E.0482
G1 X103.007 Y106.643 E.53828
G1 X104.219 Y106.643 E.0482
G1 X113.357 Y115.781 E.51394
G1 X113.357 Y114.569 E.0482
G1 X105.431 Y106.643 E.44577
G1 X106.643 Y106.643 E.0482
G1 X113.357 Y113.357 E.3776
G1 X114.569 Y113.357 E.0482
G1 X106.643 Y105.431 E.44577
G1 X106.643 Y104.219 E.0482
G1 X115.781 Y113.357 E.51394
G1 X116.993 Y113.357 E.0482
G1 X107.422 Y103.786 E.53828
G1 X108.634 Y103.786 E.0482
G1 X121.063 Y116.214 E.69896
G1 X119.85 Y116.214 E.0482
G1 X118.071 Y114.435 E.10006
G1 X118.071 Y115.647 E.0482
G1 X118.638 Y116.214 E.03189
G3 X118.071 Y115.826 I-.176 J-.351 E.03328
G1 E-1.2 F2400
;WIPE_START
G1 F4800
G1 X118.26 Y116.214
G1 X118.638 Y116.214
G1 X118.071 Y115.647
G1 X118.071 Y115.26
;WIPE_END
G1 X121.241 Y116.214 Z.9 F9000
G1 Z.5
G1 E1.2 F1800
G1 F4800
G1 X122.275 Y116.214 E.0411
G1 X109.846 Y103.786 E.69896
G1 X111.058 Y103.786 E.0482
G1 X113.357 Y106.085 E.12928
G1 X113.357 Y106.643 E.02221
G1 X113.915 Y106.643 E.02221
G1 X123.487 Y116.214 E.53828
G1 X124.699 Y116.214 E.0482
G1 X115.128 Y106.643 E.53828
G1 X116.34 Y106.643 E.0482
G1 X125.911 Y116.214 E.53828
G1 X127.123 Y116.214 E.0482
G1 X117.552 Y106.643 E.53828
G1 X118.071 Y106.643 E.02066
G1 X118.071 Y105.95 E.02754
G1 X127.642 Y115.522 E.53828
G1 X127.642 Y114.309 E.0482
G1 X118.071 Y104.738 E.53828
G1 X118.071 Y103.974 E.03039
G1 X118.331 Y103.786 E.01276
G1 X127.642 Y113.097 E.52368
G1 X127.642 Y111.885 E.0482
G1 X119.543 Y103.786 E.45551
G1 X120.755 Y103.786 E.0482
G1 X127.642 Y110.673 E.38734
G1 X127.642 Y109.461 E.0482
G1 X121.967 Y103.786 E.31917
G1 X123.179 Y103.786 E.0482
G1 X127.642 Y108.249 E.25101
G1 X127.642 Y107.037 E.0482
G1 X124.391 Y103.786 E.18284
G1 X125.604 Y103.786 E.0482
G1 X127.642 Y105.825 E.11467
